; G-Code generated by Simplify3D(R) Version 4.1.2
; Jul 1, 2020 at 1:14:34 PM
; Settings Summary
;   processName,Process1
;   applyToModels,Lead Forming Die v6(2),Lead Forming Die v6(3)
;   profileName,Makerbot 2X PLA No Raft (modified)
;   profileVersion,2018-02-02 07:20:22
;   baseProfile,MakerBot Replicator 2X(2) (modified)
;   printMaterial,PLA
;   printQuality,Medium
;   printExtruders,Right Extruder Only
;   extruderName,Right Extruder,Left Extruder
;   extruderToolheadNumber,0,1
;   extruderDiameter,0.4,0.4
;   extruderAutoWidth,0,0
;   extruderWidth,0.4,0.4
;   extrusionMultiplier,0.95,1
;   extruderUseRetract,1,1
;   extruderRetractionDistance,1,1
;   extruderExtraRestartDistance,0,0
;   extruderRetractionZLift,0,0
;   extruderRetractionSpeed,1200,1200
;   extruderUseCoasting,0,0
;   extruderCoastingDistance,0.2,0.2
;   extruderUseWipe,0,0
;   extruderWipeDistance,5,5
;   primaryExtruder,0
;   layerHeight,0.2
;   topSolidLayers,3
;   bottomSolidLayers,3
;   perimeterOutlines,2
;   printPerimetersInsideOut,1
;   startPointOption,2
;   startPointOriginX,0
;   startPointOriginY,0
;   sequentialIslands,0
;   spiralVaseMode,0
;   firstLayerHeightPercentage,120
;   firstLayerWidthPercentage,120
;   firstLayerUnderspeed,0.2
;   useRaft,0
;   raftExtruder,0
;   raftTopLayers,3
;   raftBaseLayers,2
;   raftOffset,3
;   raftSeparationDistance,0.14
;   raftTopInfill,100
;   aboveRaftSpeedMultiplier,0.3
;   useSkirt,1
;   skirtExtruder,0
;   skirtLayers,2
;   skirtOutlines,5
;   skirtOffset,0.4
;   usePrimePillar,0
;   primePillarExtruder,999
;   primePillarWidth,12
;   primePillarLocation,7
;   primePillarSpeedMultiplier,1
;   useOozeShield,0
;   oozeShieldExtruder,999
;   oozeShieldOffset,2
;   oozeShieldOutlines,1
;   oozeShieldSidewallShape,1
;   oozeShieldSidewallAngle,30
;   oozeShieldSpeedMultiplier,1
;   infillExtruder,0
;   internalInfillPattern,Triangular
;   externalInfillPattern,Rectilinear
;   infillPercentage,80
;   outlineOverlapPercentage,20
;   infillExtrusionWidthPercentage,100
;   minInfillLength,5
;   infillLayerInterval,1
;   internalInfillAngles,0,60,-60
;   overlapInternalInfillAngles,1
;   externalInfillAngles,45,-45
;   generateSupport,1
;   supportExtruder,0
;   supportInfillPercentage,20
;   supportExtraInflation,0
;   supportBaseLayers,1
;   denseSupportExtruder,0
;   denseSupportLayers,1
;   denseSupportInfillPercentage,70
;   supportLayerInterval,1
;   supportHorizontalPartOffset,0.3
;   supportUpperSeparationLayers,1
;   supportLowerSeparationLayers,1
;   supportType,0
;   supportGridSpacing,1
;   maxOverhangAngle,10
;   supportAngles,0,45,0,-45
;   temperatureName,Right Extruder,Left Extruder,Heated Build Platform
;   temperatureNumber,0,1,0
;   temperatureSetpointCount,1,1,1
;   temperatureSetpointLayers,1,1,1
;   temperatureSetpointTemperatures,200,0,60
;   temperatureStabilizeAtStartup,0,0,0
;   temperatureHeatedBed,0,0,1
;   fanLayers,1,2
;   fanSpeeds,0,100
;   blipFanToFullPower,0
;   adjustSpeedForCooling,1
;   minSpeedLayerTime,15
;   minCoolingSpeedSlowdown,20
;   increaseFanForCooling,0
;   minFanLayerTime,45
;   maxCoolingFanSpeed,100
;   increaseFanForBridging,0
;   bridgingFanSpeed,100
;   use5D,1
;   relativeEdistances,1
;   allowEaxisZeroing,0
;   independentExtruderAxes,1
;   includeM10123,0
;   stickySupport,1
;   applyToolheadOffsets,0
;   gcodeXoffset,0
;   gcodeYoffset,0
;   gcodeZoffset,0
;   overrideMachineDefinition,1
;   machineTypeOverride,0
;   strokeXoverride,250
;   strokeYoverride,150
;   strokeZoverride,150
;   originOffsetXoverride,125
;   originOffsetYoverride,75
;   originOffsetZoverride,0
;   homeXdirOverride,1
;   homeYdirOverride,1
;   homeZdirOverride,-1
;   flipXoverride,1
;   flipYoverride,-1
;   flipZoverride,1
;   toolheadOffsets,0,0|33,0|0,0|0,0|0,0|0,0
;   overrideFirmwareConfiguration,1
;   firmwareTypeOverride,MakerBot/Sailfish Firmware
;   GPXconfigOverride,r2x
;   baudRateOverride,115200
;   overridePrinterModels,1
;   printerModelsOverride,MakerBot_Replicator2X.stl
;   startingGcode,; **** Replicator 2X start.gcode ****,M73 P0 ; Enable build progress,G162 X Y F3000 ; Home XY maximum,G161 Z F1200 ; Home Z minimum,G92 X0 Y0 Z-5 A0 B0; Set Z to -5 !added XYAB,G1 Z0 ; Move Z to 0,G161 Z F100 ; Home Z slowly,M132 X Y Z ; Recall home offsets !removed A&B,M135 T0 ; Load right extruder offsets,G1 X-130 Y-75 Z30 F9000 ; Move to wait position off table,G130 X20 Y20 Z20 A20 B20 ; Lower stepper Vrefs while heating,M126 S[fan_speed_pwm] ; Set fan speed,M140 S[bed0_temperature] T0 ; Heat buildplate,M134 T0 ; Stabilize bed temperature,M104 S[extruder0_temperature] T0 ; Heat right extruder,M133 T0 ; Stabilize extruder temperature,G130 X127 Y127 Z40 A127 B127 ; Default stepper Vref,G92 A0 B0 ; Zero extruders,G1 X100 Y-70 F9000 ; Move to front right corner of bed,G1 Z0.3 F6000 ; Move down to purge,G1 X-90 Y-70 E24 F2000 ; Extrude a line of filament across the front edge of the bed,G1 X-100 Y-70 F180 ; Wait for ooze,G1 X-110 Y-70 F5000 ; Fast wipe,G1 Z0.5 F100 ; Lift,G1 E-4.0000 F600 ; retract,G92 A0 B0 ; Zero extruders,M73 P1 ;@body (notify GPX body has started),; **** end of start.gcode ****
;   layerChangeGcode,
;   retractionGcode,
;   toolChangeGcode,
;   endingGcode,; **** Replicator 2X end.gcode ****,M73 P100 ; end build progress,G1 Z155 F1000 ; send Z axis to bottom of machine,M140 S0 T0 ; cool down HBP,M104 S0 T0 ; cool down right extruder,M104 S0 T1 ; cool down left extruder,M127 ; stop blower fan,G162 X Y F3000 ; home XY maximum,M18 ; disable stepper,M72 P1 ; play Ta-Da song,; **** end of end.gcode ****
;   exportFileFormat,x3g
;   celebration,0
;   celebrationSong,Random Song
;   postProcessing,
;   defaultSpeed,4800
;   outlineUnderspeed,0.5
;   solidInfillUnderspeed,0.8
;   supportUnderspeed,0.8
;   rapidXYspeed,9000
;   rapidZspeed,1200
;   minBridgingArea,50
;   bridgingExtraInflation,0
;   bridgingExtrusionMultiplier,1
;   bridgingSpeedMultiplier,0.8
;   useFixedBridgingAngle,0
;   fixedBridgingAngle,0
;   applyBridgingToPerimeters,0
;   filamentDiameters,1.75|1.75|1.75|1.75|1.75|1.75
;   filamentPricesPerKg,46|46|46|46|46|46
;   filamentDensities,1.25|1.25|1.25|1.25|1.25|1.25
;   useMinPrintHeight,0
;   minPrintHeight,0
;   useMaxPrintHeight,0
;   maxPrintHeight,0
;   useDiaphragm,1
;   diaphragmLayerInterval,20
;   robustSlicing,1
;   mergeAllIntoSolid,0
;   onlyRetractWhenCrossingOutline,1
;   retractBetweenLayers,1
;   useRetractionMinTravel,0
;   retractionMinTravel,3
;   retractWhileWiping,0
;   onlyWipeOutlines,1
;   avoidCrossingOutline,0
;   maxMovementDetourFactor,3
;   toolChangeRetractionDistance,12
;   toolChangeExtraRestartDistance,-0.5
;   toolChangeRetractionSpeed,600
;   externalThinWallType,0
;   internalThinWallType,2
;   thinWallAllowedOverlapPercentage,10
;   singleExtrusionMinLength,1
;   singleExtrusionMinPrintingWidthPercentage,50
;   singleExtrusionMaxPrintingWidthPercentage,200
;   singleExtrusionEndpointExtension,0.2
;   horizontalSizeCompensation,0
G90
M83
; **** Replicator 2X start.gcode ****
M73 P0 ; Enable build progress
G162 X Y F3000 ; Home XY maximum
G161 Z F1200 ; Home Z minimum
G92 X0 Y0 Z-5 A0 B0; Set Z to -5 !added XYAB
G1 Z0 ; Move Z to 0
G161 Z F100 ; Home Z slowly
M132 X Y Z ; Recall home offsets !removed A&B
M135 T0 ; Load right extruder offsets
G1 X-130 Y-75 Z30 F9000 ; Move to wait position off table
G130 X20 Y20 Z20 A20 B20 ; Lower stepper Vrefs while heating
M127 ; Set fan speed
M140 S60 T0 ; Heat buildplate
M134 T0 ; Stabilize bed temperature
M104 S200 T0 ; Heat right extruder
M133 T0 ; Stabilize extruder temperature
G130 X127 Y127 Z40 A127 B127 ; Default stepper Vref
G92 A0 B0 ; Zero extruders
G1 X100 Y-70 F9000 ; Move to front right corner of bed
G1 Z0.3 F6000 ; Move down to purge
G1 X-90 Y-70 E24 F2000 ; Extrude a line of filament across the front edge of the bed
G1 X-100 Y-70 F180 ; Wait for ooze
G1 X-110 Y-70 F5000 ; Fast wipe
G1 Z0.5 F100 ; Lift
G1 E-4.0000 F600 ; retract
G92 A0 B0 ; Zero extruders
M73 P1 ;@body (notify GPX body has started)
; **** end of start.gcode ****
; process Process1
; layer 1, Z = 0.240
M135 T0
G1 E-1.0000 F1200
; feature skirt
; tool H0.240 W0.480
G1 Z0.240 F1200
G1 X2.150 Y-16.120 F9000
G1 E1.0000 F1200
G1 X3.590 Y-17.560 E0.0926 F960
G1 X13.410 Y-17.560 E0.4468
G1 X14.910 Y-16.060 E0.0965
G1 X14.910 Y16.060 E1.4615
G1 X13.410 Y17.560 E0.0965
G1 X3.590 Y17.560 E0.4468
G1 X2.150 Y16.120 E0.0926
G1 X0.710 Y17.560 E0.0926
G1 X-13.410 Y17.560 E0.6425
G1 X-14.910 Y16.060 E0.0965
G1 X-14.910 Y-16.060 E1.4615
G1 X-13.410 Y-17.560 E0.0965
G1 X0.710 Y-17.560 E0.6425
G1 X2.150 Y-16.120 E0.0926
G1 E-1.0000 F1200
G1 X1.730 Y-15.862 F9000
G1 E1.0000 F1200
G1 X1.730 Y15.862 E1.4434 F960
G1 X0.512 Y17.080 E0.0784
G1 X-13.212 Y17.080 E0.6244
G1 X-14.430 Y15.862 E0.0784
G1 X-14.430 Y-15.862 E1.4434
G1 X-13.212 Y-17.080 E0.0784
G1 X0.512 Y-17.080 E0.6244
G1 X1.730 Y-15.862 E0.0784
G1 E-1.0000 F1200
G1 X1.250 Y-15.663 F9000
G1 E1.0000 F1200
G1 X1.250 Y15.663 E1.4253 F960
G1 X0.313 Y16.600 E0.0603
G1 X-13.013 Y16.600 E0.6063
G1 X-13.950 Y15.663 E0.0603
G1 X-13.950 Y-15.663 E1.4253
G1 X-13.013 Y-16.600 E0.0603
G1 X0.313 Y-16.600 E0.6063
G1 X1.250 Y-15.663 E0.0603
G1 E-1.0000 F1200
G1 X0.770 Y-15.464 F9000
G1 E1.0000 F1200
G1 X0.770 Y15.464 E1.4072 F960
G1 X0.114 Y16.120 E0.0422
G1 X-12.814 Y16.120 E0.5882
G1 X-13.470 Y15.464 E0.0422
G1 X-13.470 Y-15.464 E1.4072
G1 X-12.814 Y-16.120 E0.0422
G1 X0.114 Y-16.120 E0.5882
G1 X0.770 Y-15.464 E0.0422
G1 E-1.0000 F1200
G1 X0.290 Y-15.265 F9000
G1 E1.0000 F1200
G1 X0.290 Y15.265 E1.3891 F960
G1 X-0.085 Y15.640 E0.0241
G1 X-12.615 Y15.640 E0.5701
G1 X-12.990 Y15.265 E0.0241
G1 X-12.990 Y-15.265 E1.3891
G1 X-12.615 Y-15.640 E0.0241
G1 X-0.085 Y-15.640 E0.5701
G1 X0.290 Y-15.265 E0.0241
G1 E-1.0000 F1200
G1 X2.570 Y-15.862 F9000
G1 E1.0000 F1200
G1 X3.788 Y-17.080 E0.0784 F960
G1 X13.212 Y-17.080 E0.4288
G1 X14.430 Y-15.862 E0.0784
G1 X14.430 Y15.862 E1.4434
G1 X13.212 Y17.080 E0.0784
G1 X3.788 Y17.080 E0.4288
G1 X2.570 Y15.862 E0.0784
G1 X2.570 Y-15.862 E1.4434
G1 E-1.0000 F1200
G1 X3.050 Y-15.663 F9000
G1 E1.0000 F1200
G1 X3.987 Y-16.600 E0.0603 F960
G1 X13.013 Y-16.600 E0.4107
G1 X13.950 Y-15.663 E0.0603
G1 X13.950 Y15.663 E1.4253
G1 X13.013 Y16.600 E0.0603
G1 X3.987 Y16.600 E0.4107
G1 X3.050 Y15.663 E0.0603
G1 X3.050 Y-15.663 E1.4253
G1 E-1.0000 F1200
G1 X3.530 Y-15.464 F9000
G1 E1.0000 F1200
G1 X4.186 Y-16.120 E0.0422 F960
G1 X12.814 Y-16.120 E0.3926
G1 X13.470 Y-15.464 E0.0422
G1 X13.470 Y15.464 E1.4072
G1 X12.814 Y16.120 E0.0422
G1 X4.186 Y16.120 E0.3926
G1 X3.530 Y15.464 E0.0422
G1 X3.530 Y-15.464 E1.4072
G1 E-1.0000 F1200
G1 X4.010 Y-15.265 F9000
G1 E1.0000 F1200
G1 X4.385 Y-15.640 E0.0241 F960
G1 X12.615 Y-15.640 E0.3745
G1 X12.990 Y-15.265 E0.0241
G1 X12.990 Y15.265 E1.3891
G1 X12.615 Y15.640 E0.0241
G1 X4.385 Y15.640 E0.3745
G1 X4.010 Y15.265 E0.0241
G1 X4.010 Y-15.265 E1.3891
G1 E-1.0000 F1200
; feature inner perimeter
G1 X-4.350 Y-7.669 F9000
G1 E1.0000 F1200
G1 X-1.070 Y-9.562 E0.1723 F720
G1 X-1.070 Y9.562 E0.8702
G1 X-4.350 Y7.669 E0.1723
G1 X-7.235 Y9.334 E0.1516
G1 X-7.235 Y12.666 E0.1516
G1 X-4.994 Y13.960 E0.1178
G1 X-5.079 Y14.280 E0.0151
G1 X-11.630 Y14.280 E0.2981
G1 X-11.630 Y-14.280 E1.2995
G1 X-5.079 Y-14.280 E0.2981
G1 X-4.994 Y-13.960 E0.0151
G1 X-7.235 Y-12.666 E0.1178
G1 X-7.235 Y-9.334 E0.1516
G1 X-4.350 Y-7.669 E0.1516
G1 E-1.0000 F1200
G1 X-1.070 Y-12.438 F9000
G1 E1.0000 F1200
G1 X-3.706 Y-13.960 E0.1385 F720
G1 X-3.621 Y-14.280 E0.0151
G1 X-1.070 Y-14.280 E0.1161
G1 X-1.070 Y-12.438 E0.0838
G1 X-1.070 Y12.438 F9000
G1 X-1.070 Y14.280 E0.0838 F720
G1 X-3.621 Y14.280 E0.1161
G1 X-3.706 Y13.960 E0.0151
G1 X-1.070 Y12.438 E0.1385
; feature outer perimeter
G1 X-0.590 Y14.760 F9000
G1 X-12.110 Y14.760 E0.5242 F480
G1 X-12.110 Y-14.760 E1.3432
G1 X-0.590 Y-14.760 E0.5242
G1 X-0.590 Y14.760 E1.3432
G1 X-1.945 Y12.389 F9000
G1 X-1.945 Y9.611 E0.1264 F480
G1 X-4.350 Y8.223 E0.1264
G1 X-6.755 Y9.611 E0.1264
G1 X-6.755 Y12.389 E0.1264
G1 X-4.350 Y13.777 E0.1264
G1 X-1.945 Y12.389 E0.1264
G1 E-1.0000 F1200
G1 X-4.350 Y-8.223 F9000
G1 E1.0000 F1200
G1 X-1.945 Y-9.611 E0.1264 F480
G1 X-1.945 Y-12.389 E0.1264
G1 X-4.350 Y-13.777 E0.1264
G1 X-6.755 Y-12.389 E0.1264
G1 X-6.755 Y-9.611 E0.1264
G1 X-4.350 Y-8.223 E0.1264
; feature gap fill
; tool H0.240 W0.400
G1 X-1.330 Y-9.815 F9000
G1 X-1.601 Y-10.086 E0.0145 F960
G1 X-1.601 Y-10.652 E0.0214
G1 X-0.971 Y-10.022 E0.0338
G1 X-0.934 Y-10.044 E0.0016
G1 X-0.934 Y-10.551 E0.0192
G1 X-1.601 Y-11.218 E0.0358
G1 X-1.601 Y-11.783 E0.0214
G1 X-0.934 Y-11.116 E0.0358
G1 X-0.934 Y-11.682 E0.0214
G1 X-1.583 Y-12.331 E0.0348
G1 X-4.234 Y-14.416 F9000
G1 X-4.006 Y-14.189 E0.0122 F960
G1 X-4.056 Y-14.004 E0.0072
G1 X-4.350 Y-14.174 E0.0129
G1 X-4.482 Y-14.098 E0.0058
G1 X-4.738 Y-14.355 E0.0138
G1 E-1.0000 F1200
G1 X-1.601 Y9.713 F9000
G1 E1.0000 F1200
G1 X-0.934 Y10.380 E0.0358 F960
G1 X-0.934 Y10.945 E0.0214
G1 X-1.601 Y10.278 E0.0358
G1 X-1.601 Y10.844 E0.0214
G1 X-0.934 Y11.511 E0.0358
G1 X-0.934 Y11.956 E0.0169
G1 X-1.010 Y12.000 E0.0033
G1 X-1.601 Y11.410 E0.0317
G1 X-1.601 Y11.976 E0.0214
G1 X-1.369 Y12.208 E0.0124
G1 X-4.082 Y14.020 F9000
G1 X-4.040 Y14.062 E0.0023 F960
G1 X-3.945 Y14.416 E0.0139
G1 X-4.252 Y14.416 E0.0116
G1 X-4.648 Y14.019 E0.0213
; feature solid layer
; tool H0.240 W0.480
G1 X-6.469 Y13.896 F9000
G1 X-7.284 Y13.081 E0.0524 F768
G1 X-11.220 Y13.896 F9000
G1 X-11.246 Y13.870 E0.0016 F768
G1 X-11.246 Y13.192 E0.0309
G1 X-10.542 Y13.896 E0.0453
G1 X-9.863 Y13.896 E0.0309
G1 X-11.246 Y12.513 E0.0890
G1 X-11.246 Y11.834 E0.0309
G1 X-9.184 Y13.896 E0.1327
G1 X-8.505 Y13.896 E0.0309
G1 X-11.246 Y11.155 E0.1764
G1 X-11.246 Y10.476 E0.0309
G1 X-7.826 Y13.896 E0.2200
G1 X-7.147 Y13.896 E0.0309
G1 X-11.246 Y9.797 E0.2637
G1 X-11.246 Y9.119 E0.0309
G1 X-7.619 Y12.746 E0.2334
G1 X-7.619 Y12.067 E0.0309
G1 X-11.246 Y8.440 E0.2334
G1 X-11.246 Y7.761 E0.0309
G1 X-7.619 Y11.388 E0.2334
G1 X-7.619 Y10.709 E0.0309
G1 X-11.246 Y7.082 E0.2334
G1 X-11.246 Y6.403 E0.0309
G1 X-7.619 Y10.030 E0.2334
G1 X-7.619 Y9.351 E0.0309
G1 X-11.246 Y5.725 E0.2334
G1 X-11.246 Y5.046 E0.0309
G1 X-7.340 Y8.952 E0.2513
G1 X-6.910 Y8.703 E0.0226
G1 X-11.246 Y4.367 E0.2790
G1 X-11.246 Y3.688 E0.0309
G1 X-6.479 Y8.455 E0.3067
G1 X-6.049 Y8.206 E0.0226
G1 X-11.246 Y3.009 E0.3344
G1 X-11.246 Y2.330 E0.0309
G1 X-5.619 Y7.958 E0.3621
G1 X-5.188 Y7.709 E0.0226
G1 X-11.246 Y1.652 E0.3898
G1 X-11.246 Y0.973 E0.0309
G1 X-4.758 Y7.461 E0.4175
G1 X-4.350 Y7.225 E0.0214
G1 X-4.267 Y7.273 E0.0044
G1 X-11.246 Y0.294 E0.4491
G1 X-11.246 Y-0.385 E0.0309
G1 X-2.661 Y8.201 E0.5524
G1 X-1.454 Y8.897 E0.0634
G1 X-1.454 Y8.728 E0.0077
G1 X-11.246 Y-1.064 E0.6301
G1 X-11.246 Y-1.742 E0.0309
G1 X-1.454 Y8.050 E0.6301
G1 X-1.454 Y7.371 E0.0309
G1 X-11.246 Y-2.421 E0.6301
G1 X-11.246 Y-3.100 E0.0309
G1 X-1.454 Y6.692 E0.6301
G1 X-1.454 Y6.013 E0.0309
G1 X-11.246 Y-3.779 E0.6301
G1 X-11.246 Y-4.458 E0.0309
G1 X-1.454 Y5.334 E0.6301
G1 X-1.454 Y4.655 E0.0309
G1 X-11.246 Y-5.137 E0.6301
G1 X-11.246 Y-5.815 E0.0309
G1 X-1.454 Y3.977 E0.6301
G1 X-1.454 Y3.298 E0.0309
G1 X-11.246 Y-6.494 E0.6301
G1 X-11.246 Y-7.173 E0.0309
G1 X-1.454 Y2.619 E0.6301
G1 X-1.454 Y1.940 E0.0309
G1 X-11.246 Y-7.852 E0.6301
G1 X-11.246 Y-8.531 E0.0309
G1 X-1.454 Y1.261 E0.6301
G1 X-1.454 Y0.582 E0.0309
G1 X-11.246 Y-9.210 E0.6301
G1 X-11.246 Y-9.888 E0.0309
G1 X-1.454 Y-0.096 E0.6301
G1 X-1.454 Y-0.775 E0.0309
G1 X-11.246 Y-10.567 E0.6301
G1 X-11.246 Y-11.246 E0.0309
G1 X-1.454 Y-1.454 E0.6301
G1 X-1.454 Y-2.133 E0.0309
