( Made using CamBam - http://www.cambam.co.uk )
( Test Fixture PCB 7/21/2020 11:20:20 AM )
( T1 : 0.125 )
( T2 : 0.04 )
( T3 : 0.032 )
( T4 : 0.021 )
( T5 : 0.0072 )
( T6 : 0.0625 )
( CUTVIEWER )
( FROM/0,0,5 )
( Select dummy tool to avoid warnings )
( TOOL/MILL,1,0,20.0,0 )
( STOCK/BLOCK,3.0,3.0,0.0625,1.5,1.5,0.0625 )
G20 G90 G91.1 G64 G40
G0 Z0.125
( T1 : 0.125 )
( Tool Taper coming soon )
( TOOL/MILL,0.125,0.0,0.0,0 )
T1 M6
( Drill 0.125" )
G17
M3 S1000
G0 X0.725 Y1.1
G98
G83 X0.725 Y1.1 Z-0.3 Q0.05 R0.025 F5.0
G83 X-0.725 Z-0.3
G83 Y-1.1 Z-0.3
G83 X0.725 Z-0.3
G80
( Drill 0.040" )
G0 Z0.125
( T2 : 0.04 )
( Tool Taper coming soon )
( TOOL/MILL,0.04,0.0,0.0,0 )
T2 M6
M3 S1000
G0 X0.61 Y-0.5316
G98
G81 X0.61 Y-0.5316 Z-0.1 R0.025 F5.0
G81 Y-0.7284 Z-0.1
G81 X-0.606 Y-0.778 Z-0.1
G81 X-0.784 Z-0.1
G81 Y-0.522 Z-0.1
G81 X-0.606 Z-0.1
G81 X-0.775 Y-0.25 Z-0.1
G81 Y-0.15 Z-0.1
G81 Y-0.05 Z-0.1
G81 Y0.05 Z-0.1
G81 Y0.15 Z-0.1
G81 Y0.25 Z-0.1
G81 Y0.55 Z-0.1
G81 Y0.65 Z-0.1
G81 Y0.75 Z-0.1
G80
( Drill 0.032" )
G0 Z0.125
( T3 : 0.032 )
( Tool Taper coming soon )
( TOOL/MILL,0.032,0.0,0.0,0 )
T3 M6
M3 S1000
G0 X0.125
G98
G81 X0.125 Y0.75 Z-0.1 R0.025 F5.0
G81 Y0.55 Z-0.1
G81 X0.375 Z-0.1
G81 Y0.75 Z-0.1
G81 X0.625 Z-0.1
G81 Y0.55 Z-0.1
G81 X0.605 Y-0.135 Z-0.1
G81 Y-0.325 Z-0.1
G81 X0.15 Y-0.375 Z-0.1
G81 Y-0.275 Z-0.1
G81 Y-0.175 Z-0.1
G81 Y-0.075 Z-0.1
G81 X-0.15 Z-0.1
G81 Y-0.175 Z-0.1
G81 Y-0.275 Z-0.1
G81 Y-0.375 Z-0.1
G81 Y-0.475 Z-0.1
G81 Y-0.575 Z-0.1
G81 Y-0.675 Z-0.1
G81 Y-0.775 Z-0.1
G81 X0.15 Z-0.1
G81 Y-0.675 Z-0.1
G81 Y-0.575 Z-0.1
G81 Y-0.475 Z-0.1
G80
( Drill 0.021" )
G0 Z0.125
( T4 : 0.021 )
( Tool Taper coming soon )
( TOOL/MILL,0.021,0.0,0.0,0 )
T4 M6
M3 S1000
G0 X-0.497 Y-0.778
G98
G83 X-0.497 Y-0.778 Z-0.1 Q0.035 R0.025 F5.0
G83 X-0.35 Y-0.775 Z-0.1
G83 X-0.3 Y-0.575 Z-0.1
G83 X-0.055 Y-0.87 Z-0.1
G83 X-0.525 Y-0.25 Z-0.1
G83 X-0.475 Y0.25 Z-0.1
G83 X-0.625 Y0.65 Z-0.1
G83 X0.025 Y0.75 Z-0.1
G83 Y0.05 Z-0.1
G80
( Isolation, 0.0071" StubV )
G0 Z0.125
( T5 : 0.0072 )
( Tool Taper coming soon )
( TOOL/MILL,0.0072,0.0,0.0,0 )
T5 M6
M3 S1000
G0 X-0.0945 Y-0.8456
G0 Z0.0735
G1 F5.0 Z-0.004
G1 F10.0 X-0.3949
G1 X-0.4518 Y-0.7887
G1 X-0.4506 Y-0.778
G1 X-0.4606 Y-0.7492
G1 X-0.4863 Y-0.7329
G1 X-0.5166 Y-0.7359
G1 X-0.5202 Y-0.7378
G1 X-0.5401 Y-0.7609
G1 X-0.5414 Y-0.7913
G1 X-0.5236 Y-0.816
G1 X-0.5202 Y-0.8182
G1 X-0.4903 Y-0.8239
G1 X-0.4863 Y-0.8232
G1 X-0.4222 Y-0.8872
G1 X-0.405 Y-0.8944
G1 X-0.0945
G1 X-0.0782 Y-0.9102
G1 X-0.0483 Y-0.9159
G1 X-0.0213 Y-0.9018
G1 X-0.0088 Y-0.8741
G1 X-0.0086 Y-0.87
G1 X-0.0186 Y-0.8412
G1 X-0.0443 Y-0.8249
G1 X-0.0746 Y-0.8279
G1 X-0.0782 Y-0.8298
G1 X-0.0945 Y-0.8456
G1 F5.0 Y-0.8485
G1 F10.0 X-0.3961
G1 X-0.455 Y-0.7895
G1 X-0.4535 Y-0.778
G1 X-0.4635 Y-0.7502
G1 X-0.4889 Y-0.7353
G1 X-0.518 Y-0.7399
G1 X-0.5188 Y-0.7403
G1 X-0.5378 Y-0.7629
G1 X-0.5381 Y-0.7924
G1 X-0.5195 Y-0.8153
G1 X-0.5188 Y-0.8157
G1 X-0.4897 Y-0.8209
G1 X-0.4855 Y-0.82
G1 X-0.4202 Y-0.8852
G1 X-0.405 Y-0.8915
G1 X-0.0928
G1 X-0.0768 Y-0.9077
G1 X-0.0477 Y-0.9129
G1 X-0.022 Y-0.8984
G1 X-0.0115 Y-0.8708
G1 Y-0.87
G1 X-0.0215 Y-0.8422
G1 X-0.0469 Y-0.8273
G1 X-0.076 Y-0.8319
G1 X-0.0768 Y-0.8323
G1 X-0.0928 Y-0.8485
G1 X-0.0945
G1 F5.0 Y-0.8514
G1 F10.0 X-0.3973
G1 X-0.4583 Y-0.7904
G1 X-0.4564 Y-0.778
G1 X-0.4664 Y-0.7513
G1 X-0.4915 Y-0.7378
G1 X-0.5173 Y-0.7428
G1 X-0.5354 Y-0.7648
G1 X-0.5346 Y-0.7933
G1 X-0.5173 Y-0.8132
G1 X-0.4892 Y-0.8179
G1 X-0.4846 Y-0.8167
G1 X-0.4182 Y-0.8832
G1 X-0.405 Y-0.8886
G1 X-0.0911
G1 X-0.0753 Y-0.9052
G1 X-0.0472 Y-0.9099
G1 X-0.0229 Y-0.8949
G1 X-0.0144 Y-0.87
G1 X-0.0244 Y-0.8433
G1 X-0.0495 Y-0.8298
G1 X-0.0753 Y-0.8348
G1 X-0.0911 Y-0.8514
G1 X-0.0945
G1 F5.0 Y-0.8543
G1 F10.0 X-0.3985
G1 X-0.4616 Y-0.7911
G1 X-0.4593 Y-0.778
G1 X-0.4693 Y-0.7524
G1 X-0.494 Y-0.7404
G1 X-0.5159 Y-0.7453
G1 X-0.533 Y-0.7668
G1 X-0.5311 Y-0.7942
G1 X-0.5159 Y-0.8107
G1 X-0.4887 Y-0.8148
G1 X-0.4839 Y-0.8134
G1 X-0.4161 Y-0.8811
G1 X-0.405 Y-0.8857
G1 X-0.0893
G1 X-0.0739 Y-0.9027
G1 X-0.0467 Y-0.9068
G1 X-0.0239 Y-0.8914
G1 X-0.0173 Y-0.87
G1 X-0.0273 Y-0.8444
G1 X-0.052 Y-0.8324
G1 X-0.0739 Y-0.8373
G1 X-0.0893 Y-0.8543
G1 X-0.0945
G1 F5.0 Y-0.8571
G1 F10.0 X-0.3997
G1 X-0.465 Y-0.7918
G1 X-0.4621 Y-0.778
G1 X-0.4721 Y-0.7536
G1 X-0.4964 Y-0.7431
G1 X-0.5144 Y-0.7478
G1 X-0.5306 Y-0.7687
G1 X-0.5275 Y-0.7949
G1 X-0.5144 Y-0.8082
G1 X-0.4883 Y-0.8117
G1 X-0.4832 Y-0.81
G1 X-0.4141 Y-0.8791
G1 X-0.405 Y-0.8829
G1 X-0.0874
G1 X-0.0724 Y-0.9002
G1 X-0.0463 Y-0.9037
G1 X-0.0251 Y-0.8879
G1 X-0.0201 Y-0.87
G1 X-0.0301 Y-0.8456
G1 X-0.0544 Y-0.8351
G1 X-0.0724 Y-0.8398
G1 X-0.0874 Y-0.8571
G1 X-0.0945
G1 F5.0 Y-0.8584
G1 F10.0 X-0.4002
G1 X-0.4665 Y-0.7921
G1 X-0.4634 Y-0.778
G1 X-0.4734 Y-0.7541
G1 X-0.4974 Y-0.7444
G1 X-0.5138 Y-0.7489
G1 X-0.5295 Y-0.7695
G1 X-0.5259 Y-0.7952
G1 X-0.5138 Y-0.8071
G1 X-0.4881 Y-0.8104
G1 X-0.4829 Y-0.8085
G1 X-0.4132 Y-0.8782
G1 X-0.405 Y-0.8816
G1 X-0.0865
G1 X-0.0718 Y-0.8991
G1 X-0.0461 Y-0.9024
G1 X-0.0257 Y-0.8864
G1 X-0.0214 Y-0.87
G1 X-0.0314 Y-0.8461
G1 X-0.0554 Y-0.8364
G1 X-0.0718 Y-0.8409
G1 X-0.0865 Y-0.8584
G1 X-0.0945
G0 Z0.125
G0 X-0.1237 Y-0.8144
G0 Z0.0735
G1 F5.0 Z-0.004
G1 F10.0 X-0.105 Y-0.79
G1 X-0.1053 Y-0.7592
G1 X-0.1245 Y-0.7351
G1 X-0.15 Y-0.7276
G1 X-0.212
G1 X-0.2411 Y-0.7376
G1 X-0.2579 Y-0.7634
G1 X-0.2554 Y-0.7941
G1 X-0.2345 Y-0.8167
G1 X-0.212 Y-0.8224
G1 X-0.15
G1 X-0.1237 Y-0.8144
G1 F5.0 X-0.1253 Y-0.812
G1 F10.0 X-0.1075 Y-0.7881
G1 X-0.1087 Y-0.7583
G1 X-0.1285 Y-0.736
G1 X-0.15 Y-0.7305
G1 X-0.212
G1 X-0.2401 Y-0.7405
G1 X-0.2556 Y-0.766
G1 X-0.2515 Y-0.7955
G1 X-0.2296 Y-0.8159
G1 X-0.212 Y-0.8195
G1 X-0.15
G1 X-0.1253 Y-0.812
G1 F5.0 X-0.1269 Y-0.8096
G1 F10.0 X-0.1099 Y-0.7863
G1 X-0.1122 Y-0.7576
G1 X-0.1326 Y-0.7372
G1 X-0.15 Y-0.7334
G1 X-0.212
G1 X-0.2391 Y-0.7434
G1 X-0.2531 Y-0.7686
G1 X-0.2474 Y-0.7969
G1 X-0.2247 Y-0.8146
G1 X-0.212 Y-0.8166
G1 X-0.15
G1 X-0.1269 Y-0.8096
G1 F5.0 X-0.1285 Y-0.8072
G1 F10.0 X-0.1124 Y-0.7845
G1 X-0.1158 Y-0.7569
G1 X-0.1367 Y-0.7386
G1 X-0.15 Y-0.7363
G1 X-0.212
G1 X-0.238 Y-0.7463
G1 X-0.2505 Y-0.7711
G1 X-0.2432 Y-0.7979
G1 X-0.2198 Y-0.813
G1 X-0.212 Y-0.8137
G1 X-0.15
G1 X-0.1285 Y-0.8072
G1 F5.0 X-0.1301 Y-0.8048
G1 F10.0 X-0.115 Y-0.7828
G1 X-0.1194 Y-0.7563
G1 X-0.1409 Y-0.7403
G1 X-0.15 Y-0.7391
G1 X-0.212
G1 X-0.2368 Y-0.7491
G1 X-0.2478 Y-0.7736
G1 X-0.2388 Y-0.7988
G1 X-0.2149 Y-0.8107
G1 X-0.212 Y-0.8109
G1 X-0.15
G1 X-0.1301 Y-0.8048
G1 F5.0 X-0.1308 Y-0.8038
G1 F10.0 X-0.1161 Y-0.782
G1 X-0.121 Y-0.7561
G1 X-0.1426 Y-0.7412
G1 X-0.15 Y-0.7404
G1 X-0.212
G1 X-0.2363 Y-0.7504
G1 X-0.2466 Y-0.7746
G1 X-0.2369 Y-0.7991
G1 X-0.2128 Y-0.8096
G1 X-0.212
G1 X-0.15
G1 X-0.1308 Y-0.8038
G0 Z0.125
G0 X-0.143 Y-0.7219
G0 Z0.0735
G1 F5.0 Z-0.004
G1 F10.0 X-0.1157 Y-0.7077
G1 X-0.1028 Y-0.6797
G1 X-0.1099 Y-0.6498
G1 X-0.1339 Y-0.6304
G1 X-0.15 Y-0.6276
G1 X-0.212
G1 X-0.2411 Y-0.6376
G1 X-0.2579 Y-0.6634
G1 X-0.2554 Y-0.6941
G1 X-0.2345 Y-0.7167
G1 X-0.212 Y-0.7224
G1 X-0.15
G1 X-0.143 Y-0.7219
G1 F5.0 X-0.1434 Y-0.719
G1 F10.0 X-0.1171 Y-0.705
G1 X-0.1056 Y-0.6775
G1 X-0.114 Y-0.6489
G1 X-0.1386 Y-0.632
G1 X-0.15 Y-0.6305
G1 X-0.212
G1 X-0.2401 Y-0.6405
G1 X-0.2556 Y-0.666
G1 X-0.2515 Y-0.6955
G1 X-0.2296 Y-0.7159
G1 X-0.212 Y-0.7195
G1 X-0.15
G1 X-0.1434 Y-0.719
G1 F5.0 X-0.1439 Y-0.7162
G1 F10.0 X-0.1186 Y-0.7023
G1 X-0.1084 Y-0.6753
G1 X-0.1182 Y-0.6482
G1 X-0.1433 Y-0.6339
G1 X-0.15 Y-0.6334
G1 X-0.212
G1 X-0.2391 Y-0.6434
G1 X-0.2531 Y-0.6686
G1 X-0.2474 Y-0.6969
G1 X-0.2247 Y-0.7146
G1 X-0.212 Y-0.7166
G1 X-0.15
G1 X-0.1439 Y-0.7162
G1 F5.0 X-0.1443 Y-0.7133
G1 F10.0 X-0.1201 Y-0.6996
G1 X-0.1113 Y-0.6732
G1 X-0.1225 Y-0.6477
G1 X-0.1479 Y-0.6363
G1 X-0.15
G1 X-0.212
G1 X-0.238 Y-0.6463
G1 X-0.2505 Y-0.6711
G1 X-0.2432 Y-0.6979
G1 X-0.2198 Y-0.713
G1 X-0.212 Y-0.7137
G1 X-0.15
G1 X-0.1443 Y-0.7133
G1 F5.0 X-0.1447 Y-0.7105
G1 F10.0 X-0.1216 Y-0.6969
G1 X-0.1143 Y-0.6711
G1 X-0.127 Y-0.6475
G1 X-0.15 Y-0.6391
G1 X-0.212
G1 X-0.2368 Y-0.6491
G1 X-0.2478 Y-0.6736
G1 X-0.2388 Y-0.6988
G1 X-0.2149 Y-0.7107
G1 X-0.212 Y-0.7109
G1 X-0.15
G1 X-0.1447 Y-0.7105
G1 F5.0 X-0.1449 Y-0.7092
G1 F10.0 X-0.1223 Y-0.6958
G1 X-0.1157 Y-0.6703
G1 X-0.1289 Y-0.6475
G1 X-0.15 Y-0.6404
G1 X-0.212
G1 X-0.2363 Y-0.6504
G1 X-0.2466 Y-0.6746
G1 X-0.2369 Y-0.6991
G1 X-0.2128 Y-0.7096
G1 X-0.212
G1 X-0.15
G1 X-0.1449 Y-0.7092
G0 Z0.125
G0 X-0.1482 Y-0.6224
G0 Z0.0735
G1 F5.0 Z-0.004
G1 F10.0 X-0.1195 Y-0.6113
G1 X-0.1036 Y-0.5849
G1 X-0.1074 Y-0.5543
G1 X-0.1291 Y-0.5325
G1 X-0.15 Y-0.5276
G1 X-0.212
G1 X-0.2411 Y-0.5376
G1 X-0.2565 Y-0.5588
G1 X-0.276 Y-0.5353
G1 X-0.3058 Y-0.529
G1 X-0.3107 Y-0.5298
G1 X-0.3506 Y-0.4899
G1 Y0.15
G1 X-0.3606 Y0.1697
G1 X-0.366 Y0.1727
G1 X-0.4304 Y0.2371
G1 X-0.4286 Y0.25
G1 X-0.4386 Y0.2788
G1 X-0.4643 Y0.2951
G1 X-0.4946 Y0.2921
G1 X-0.4982 Y0.2902
G1 X-0.5181 Y0.2671
G1 X-0.5194 Y0.2367
G1 X-0.5016 Y0.212
G1 X-0.4982 Y0.2098
G1 X-0.4683 Y0.2041
G1 X-0.4621 Y0.2054
G1 X-0.3994 Y0.1427
G1 Y-0.5
G1 X-0.3922 Y-0.5172
G1 X-0.3452 Y-0.5643
G1 X-0.342 Y-0.5946
G1 X-0.3232 Y-0.6152
G1 X-0.2933 Y-0.6209
G1 X-0.2663 Y-0.6068
G1 X-0.2565 Y-0.5912
G1 X-0.2372 Y-0.6152
G1 X-0.212 Y-0.6224
G1 X-0.15
G1 X-0.1482
G1 F5.0 X-0.1483 Y-0.6195
G1 F10.0 X-0.1206 Y-0.6084
G1 X-0.1061 Y-0.5823
G1 X-0.1113 Y-0.553
G1 X-0.1339 Y-0.5335
G1 X-0.15 Y-0.5305
G1 X-0.212
G1 X-0.2401 Y-0.5405
G1 X-0.2556 Y-0.566
G1 X-0.2565 Y-0.574
G1 X-0.2671 Y-0.5465
G1 X-0.2929 Y-0.5321
G1 X-0.3115 Y-0.533
G1 X-0.3535 Y-0.4911
G1 Y0.15
G1 X-0.3635 Y0.1682
G1 X-0.3676 Y0.1702
G1 X-0.4337 Y0.2363
G1 X-0.4315 Y0.25
G1 X-0.4415 Y0.2778
G1 X-0.4669 Y0.2927
G1 X-0.496 Y0.2881
G1 X-0.4968 Y0.2877
G1 X-0.5158 Y0.2651
G1 X-0.5161 Y0.2356
G1 X-0.4975 Y0.2127
G1 X-0.4968 Y0.2123
G1 X-0.4677 Y0.2071
G1 X-0.4613 Y0.2087
G1 X-0.3965 Y0.1439
G1 Y-0.5
G1 X-0.3902 Y-0.5152
G1 X-0.342 Y-0.5635
G1 X-0.3397 Y-0.5929
G1 X-0.3218 Y-0.6127
G1 X-0.2927 Y-0.6179
G1 X-0.267 Y-0.6034
G1 X-0.2565 Y-0.576
G1 X-0.2459 Y-0.6039
G1 X-0.22 Y-0.6188
G1 X-0.212 Y-0.6195
G1 X-0.15
G1 X-0.1483
G1 F5.0 X-0.1484 Y-0.6166
G1 F10.0 X-0.1218 Y-0.6056
G1 X-0.1087 Y-0.5799
G1 X-0.1154 Y-0.5518
G1 X-0.1388 Y-0.5349
G1 X-0.15 Y-0.5334
G1 X-0.212
G1 X-0.2391 Y-0.5434
G1 X-0.2531 Y-0.5686
G1 X-0.2474 Y-0.5969
G1 X-0.2247 Y-0.6146
G1 X-0.212 Y-0.6166
G1 X-0.15
G1 X-0.1484
G1 F5.0 X-0.1485 Y-0.6137
G1 F10.0 X-0.1229 Y-0.6027
G1 X-0.1113 Y-0.5774
G1 X-0.1197 Y-0.5509
G1 X-0.1437 Y-0.5368
G1 X-0.15 Y-0.5363
G1 X-0.212
G1 X-0.238 Y-0.5463
G1 X-0.2505 Y-0.5711
G1 X-0.2432 Y-0.5979
G1 X-0.2198 Y-0.613
G1 X-0.212 Y-0.6137
G1 X-0.15
G1 X-0.1485
G1 F5.0 X-0.1486 Y-0.6108
G1 F10.0 X-0.1242 Y-0.5999
G1 X-0.1141 Y-0.5751
G1 X-0.1241 Y-0.5502
G1 X-0.1485 Y-0.5392
G1 X-0.15 Y-0.5391
G1 X-0.212
G1 X-0.2368 Y-0.5491
G1 X-0.2478 Y-0.5736
G1 X-0.2388 Y-0.5988
G1 X-0.2149 Y-0.6107
G1 X-0.212 Y-0.6109
G1 X-0.15
G1 X-0.1486 Y-0.6108
G1 F5.0 X-0.1487 Y-0.6096
G1 F10.0 X-0.1248 Y-0.5987
G1 X-0.1154 Y-0.5741
G1 X-0.1261 Y-0.55
G1 X-0.15 Y-0.5404
G1 X-0.212
G1 X-0.2363 Y-0.5504
G1 X-0.2466 Y-0.5746
G1 X-0.2369 Y-0.5991
G1 X-0.2128 Y-0.6096
G1 X-0.212
G1 X-0.15
G1 X-0.1487
G0 Z0.125
G0 X-0.2604 Y-0.5841
G0 Z0.0735
G1 F5.0 Z-0.004
G1 F10.0 X-0.2594 Y-0.575
G1 X-0.2694 Y-0.5483
G1 X-0.2945 Y-0.5348
G1 X-0.3124 Y-0.5363
G1 X-0.3564 Y-0.4923
G1 Y0.15
G1 X-0.3664 Y0.1665
G1 X-0.3692 Y0.1677
G1 X-0.437 Y0.2355
G1 X-0.4344 Y0.25
G1 X-0.4444 Y0.2767
G1 X-0.4695 Y0.2902
G1 X-0.4953 Y0.2852
G1 X-0.5134 Y0.2632
G1 X-0.5126 Y0.2347
G1 X-0.4953 Y0.2148
G1 X-0.4672 Y0.2101
G1 X-0.4605 Y0.212
G1 X-0.3936 Y0.1451
G1 Y-0.5
G1 X-0.3882 Y-0.5132
G1 X-0.3387 Y-0.5626
G1 X-0.3373 Y-0.5911
G1 X-0.3203 Y-0.6102
G1 X-0.2922 Y-0.6149
G1 X-0.2679 Y-0.5999
G1 X-0.2604 Y-0.5841
G1 F5.0 X-0.2632 Y-0.5834
G1 F10.0 X-0.2623 Y-0.575
G1 X-0.2723 Y-0.5494
G1 X-0.297 Y-0.5374
G1 X-0.3131 Y-0.5396
G1 X-0.3593 Y-0.4935
G1 Y0.15
G1 X-0.3693 Y0.1647
G1 X-0.3707 Y0.1651
G1 X-0.4404 Y0.2349
G1 X-0.4373 Y0.25
G1 X-0.4473 Y0.2756
G1 X-0.472 Y0.2876
G1 X-0.4939 Y0.2827
G1 X-0.511 Y0.2612
G1 X-0.5091 Y0.2338
G1 X-0.4939 Y0.2173
G1 X-0.4667 Y0.2132
G1 X-0.4599 Y0.2154
G1 X-0.3907 Y0.1463
G1 Y-0.5
G1 X-0.3861 Y-0.5111
G1 X-0.3354 Y-0.5619
G1 X-0.3349 Y-0.5893
G1 X-0.3189 Y-0.6077
G1 X-0.2917 Y-0.6118
G1 X-0.2689 Y-0.5964
G1 X-0.2632 Y-0.5834
G1 F5.0 X-0.266 Y-0.5828
G1 F10.0 X-0.2651 Y-0.575
G1 X-0.2751 Y-0.5506
G1 X-0.2994 Y-0.5401
G1 X-0.3138 Y-0.543
G1 X-0.3621 Y-0.4947
G1 Y0.15
G1 X-0.3721 Y0.1625
G1 X-0.3722
G1 X-0.4439 Y0.2343
G1 X-0.4401 Y0.25
G1 X-0.4501 Y0.2744
G1 X-0.4744 Y0.2849
G1 X-0.4924 Y0.2802
G1 X-0.5086 Y0.2593
G1 X-0.5055 Y0.2331
G1 X-0.4924 Y0.2198
G1 X-0.4663 Y0.2163
G1 X-0.4593 Y0.2189
G1 X-0.3879 Y0.1475
G1 Y-0.5
G1 X-0.3841 Y-0.5091
G1 X-0.332 Y-0.5612
G1 X-0.3325 Y-0.5876
G1 X-0.3174 Y-0.6052
G1 X-0.2913 Y-0.6087
G1 X-0.2701 Y-0.5929
G1 X-0.266 Y-0.5828
G1 F5.0 X-0.2672 Y-0.5825
G1 F10.0 X-0.2664 Y-0.575
G1 X-0.2764 Y-0.5511
G1 X-0.3004 Y-0.5414
G1 X-0.3141 Y-0.5445
G1 X-0.3634 Y-0.4952
G1 Y0.15
G1 X-0.3728 Y0.1614
G1 X-0.4454 Y0.234
G1 X-0.4414 Y0.25
G1 X-0.4514 Y0.2739
G1 X-0.4754 Y0.2836
G1 X-0.4918 Y0.2791
G1 X-0.5075 Y0.2585
G1 X-0.5039 Y0.2328
G1 X-0.4918 Y0.2209
G1 X-0.4661 Y0.2176
G1 X-0.459 Y0.2204
G1 X-0.3866 Y0.148
G1 Y-0.5
G1 X-0.3832 Y-0.5082
G1 X-0.3305 Y-0.5609
G1 X-0.3315 Y-0.5868
G1 X-0.3168 Y-0.6041
G1 X-0.2911 Y-0.6074
G1 X-0.2707 Y-0.5914
G1 X-0.2672 Y-0.5825
G0 Z0.125
G0 X-0.2337 Y-0.5172
G0 Z0.0735
G1 F5.0 Z-0.004
G1 F10.0 X-0.212 Y-0.5224
G1 X-0.15
G1 X-0.1209 Y-0.5124
G1 X-0.1041 Y-0.4866
G1 X-0.1066 Y-0.4559
G1 X-0.1275 Y-0.4333
G1 X-0.15 Y-0.4276
G1 X-0.212
G1 X-0.2411 Y-0.4376
G1 X-0.2579 Y-0.4634
G1 X-0.2554 Y-0.4941
G1 X-0.2345 Y-0.5167
G1 X-0.2337 Y-0.5172
G1 F5.0 X-0.2323 Y-0.5146
G1 F10.0 X-0.212 Y-0.5195
G1 X-0.15
G1 X-0.1219 Y-0.5095
G1 X-0.1064 Y-0.484
G1 X-0.1105 Y-0.4545
G1 X-0.1324 Y-0.4341
G1 X-0.15 Y-0.4305
G1 X-0.212
G1 X-0.2401 Y-0.4405
G1 X-0.2556 Y-0.466
G1 X-0.2515 Y-0.4955
G1 X-0.2323 Y-0.5146
G1 F5.0 X-0.231 Y-0.512
G1 F10.0 X-0.212 Y-0.5166
G1 X-0.15
G1 X-0.1229 Y-0.5066
G1 X-0.1089 Y-0.4814
G1 X-0.1146 Y-0.4531
G1 X-0.1373 Y-0.4354
G1 X-0.15 Y-0.4334
G1 X-0.212
G1 X-0.2391 Y-0.4434
G1 X-0.2531 Y-0.4686
G1 X-0.2474 Y-0.4969
G1 X-0.231 Y-0.512
G1 F5.0 X-0.2297 Y-0.5095
G1 F10.0 X-0.212 Y-0.5137
G1 X-0.15
G1 X-0.124 Y-0.5037
G1 X-0.1115 Y-0.4789
G1 X-0.1188 Y-0.4521
G1 X-0.1422 Y-0.437
G1 X-0.15 Y-0.4363
G1 X-0.212
G1 X-0.238 Y-0.4463
G1 X-0.2505 Y-0.4711
G1 X-0.2432 Y-0.4979
G1 X-0.2297 Y-0.5095
G1 F5.0 X-0.2284 Y-0.5069
G1 F10.0 X-0.212 Y-0.5109
G1 X-0.15
G1 X-0.1252 Y-0.5009
G1 X-0.1142 Y-0.4764
G1 X-0.1232 Y-0.4512
G1 X-0.1471 Y-0.4393
G1 X-0.15 Y-0.4391
G1 X-0.212
G1 X-0.2368 Y-0.4491
G1 X-0.2478 Y-0.4736
G1 X-0.2388 Y-0.4988
G1 X-0.2284 Y-0.5069
G1 F5.0 X-0.2278 Y-0.5058
G1 F10.0 X-0.212 Y-0.5096
G1 X-0.15
G1 X-0.1257 Y-0.4996
G1 X-0.1154 Y-0.4754
G1 X-0.1251 Y-0.4509
G1 X-0.1492 Y-0.4404
G1 X-0.15
G1 X-0.212
G1 X-0.2363 Y-0.4504
G1 X-0.2466 Y-0.4746
G1 X-0.2369 Y-0.4991
G1 X-0.2278 Y-0.5058
G0 Z0.125
G0 X-0.2177 Y-0.4221
G0 Z0.0735
G1 F5.0 Z-0.004
G1 F10.0 X-0.212 Y-0.4224
G1 X-0.15
G1 X-0.1209 Y-0.4124
G1 X-0.1041 Y-0.3866
G1 X-0.1066 Y-0.3559
G1 X-0.1275 Y-0.3333
G1 X-0.15 Y-0.3276
G1 X-0.212
G1 X-0.2411 Y-0.3376
G1 X-0.2579 Y-0.3634
G1 X-0.2554 Y-0.3941
G1 X-0.2345 Y-0.4167
G1 X-0.2177 Y-0.4221
G1 F5.0 X-0.2173 Y-0.4192
G1 F10.0 X-0.212 Y-0.4195
G1 X-0.15
G1 X-0.1219 Y-0.4095
G1 X-0.1064 Y-0.384
G1 X-0.1105 Y-0.3545
G1 X-0.1324 Y-0.3341
G1 X-0.15 Y-0.3305
G1 X-0.212
G1 X-0.2401 Y-0.3405
G1 X-0.2556 Y-0.366
G1 X-0.2515 Y-0.3955
G1 X-0.2296 Y-0.4159
G1 X-0.2173 Y-0.4192
G1 F5.0 X-0.217 Y-0.4163
G1 F10.0 X-0.212 Y-0.4166
G1 X-0.15
G1 X-0.1229 Y-0.4066
G1 X-0.1089 Y-0.3814
G1 X-0.1146 Y-0.3531
G1 X-0.1373 Y-0.3354
G1 X-0.15 Y-0.3334
G1 X-0.212
G1 X-0.2391 Y-0.3434
G1 X-0.2531 Y-0.3686
G1 X-0.2474 Y-0.3969
G1 X-0.2247 Y-0.4146
G1 X-0.217 Y-0.4163
G1 F5.0 X-0.2167 Y-0.4135
G1 F10.0 X-0.212 Y-0.4137
G1 X-0.15
G1 X-0.124 Y-0.4037
G1 X-0.1115 Y-0.3789
G1 X-0.1188 Y-0.3521
G1 X-0.1422 Y-0.337
G1 X-0.15 Y-0.3363
G1 X-0.212
G1 X-0.238 Y-0.3463
G1 X-0.2505 Y-0.3711
G1 X-0.2432 Y-0.3979
G1 X-0.2198 Y-0.413
G1 X-0.2167 Y-0.4135
G1 F5.0 X-0.2163 Y-0.4106
G1 F10.0 X-0.212 Y-0.4109
G1 X-0.15
G1 X-0.1252 Y-0.4009
G1 X-0.1142 Y-0.3764
G1 X-0.1232 Y-0.3512
G1 X-0.1471 Y-0.3393
G1 X-0.15 Y-0.3391
G1 X-0.212
G1 X-0.2368 Y-0.3491
G1 X-0.2478 Y-0.3736
G1 X-0.2388 Y-0.3988
G1 X-0.2163 Y-0.4106
G1 F5.0 X-0.2162 Y-0.4094
G1 F10.0 X-0.212 Y-0.4096
G1 X-0.15
G1 X-0.1257 Y-0.3996
G1 X-0.1154 Y-0.3754
G1 X-0.1251 Y-0.3509
G1 X-0.1492 Y-0.3404
G1 X-0.15
G1 X-0.212
G1 X-0.2363 Y-0.3504
G1 X-0.2466 Y-0.3746
G1 X-0.2369 Y-0.3991
G1 X-0.2162 Y-0.4094
G0 Z0.125
G0 X-0.2135 Y-0.3224
G0 Z0.0735
G1 F5.0 Z-0.004
G1 F10.0 X-0.212
G1 X-0.15
G1 X-0.1209 Y-0.3124
G1 X-0.1041 Y-0.2866
G1 X-0.1066 Y-0.2559
G1 X-0.1275 Y-0.2333
G1 X-0.15 Y-0.2276
G1 X-0.212
G1 X-0.2411 Y-0.2376
G1 X-0.2579 Y-0.2634
G1 X-0.2554 Y-0.2941
G1 X-0.2345 Y-0.3167
G1 X-0.2135 Y-0.3224
G1 F5.0 X-0.2134 Y-0.3195
G1 F10.0 X-0.212
G1 X-0.15
G1 X-0.1219 Y-0.3095
G1 X-0.1064 Y-0.284
G1 X-0.1105 Y-0.2545
G1 X-0.1324 Y-0.2341
G1 X-0.15 Y-0.2305
G1 X-0.212
G1 X-0.2401 Y-0.2405
G1 X-0.2556 Y-0.266
G1 X-0.2515 Y-0.2955
G1 X-0.2296 Y-0.3159
G1 X-0.2134 Y-0.3195
G1 F5.0 X-0.2133 Y-0.3166
G1 F10.0 X-0.212
G1 X-0.15
G1 X-0.1229 Y-0.3066
G1 X-0.1089 Y-0.2814
G1 X-0.1146 Y-0.2531
G1 X-0.1373 Y-0.2354
G1 X-0.15 Y-0.2334
G1 X-0.212
G1 X-0.2391 Y-0.2434
G1 X-0.2531 Y-0.2686
G1 X-0.2474 Y-0.2969
G1 X-0.2247 Y-0.3146
G1 X-0.2133 Y-0.3166
G1 F5.0 X-0.2132 Y-0.3137
G1 F10.0 X-0.212
G1 X-0.15
G1 X-0.124 Y-0.3037
G1 X-0.1115 Y-0.2789
G1 X-0.1188 Y-0.2521
G1 X-0.1422 Y-0.237
G1 X-0.15 Y-0.2363
G1 X-0.212
G1 X-0.238 Y-0.2463
G1 X-0.2505 Y-0.2711
G1 X-0.2432 Y-0.2979
G1 X-0.2198 Y-0.313
G1 X-0.2132 Y-0.3137
G1 F5.0 X-0.2131 Y-0.3108
G1 F10.0 X-0.212 Y-0.3109
G1 X-0.15
G1 X-0.1252 Y-0.3009
G1 X-0.1142 Y-0.2764
G1 X-0.1232 Y-0.2512
G1 X-0.1471 Y-0.2393
G1 X-0.15 Y-0.2391
G1 X-0.212
G1 X-0.2368 Y-0.2491
G1 X-0.2478 Y-0.2736
G1 X-0.2388 Y-0.2988
G1 X-0.2149 Y-0.3107
G1 X-0.2131 Y-0.3108
G1 F5.0 Y-0.3096
G1 F10.0 X-0.212
G1 X-0.15
G1 X-0.1257 Y-0.2996
G1 X-0.1154 Y-0.2754
G1 X-0.1251 Y-0.2509
G1 X-0.1492 Y-0.2404
G1 X-0.15
G1 X-0.212
G1 X-0.2363 Y-0.2504
G1 X-0.2466 Y-0.2746
G1 X-0.2369 Y-0.2991
G1 X-0.2131 Y-0.3096
G0 Z0.125
G0 X-0.2124 Y-0.2224
G0 Z0.0735
G1 F5.0 Z-0.004
G1 F10.0 X-0.212
G1 X-0.15
G1 X-0.1209 Y-0.2124
G1 X-0.1041 Y-0.1866
G1 X-0.1066 Y-0.1559
G1 X-0.1275 Y-0.1333
G1 X-0.15 Y-0.1276
G1 X-0.212
G1 X-0.2411 Y-0.1376
G1 X-0.2579 Y-0.1634
G1 X-0.2554 Y-0.1941
G1 X-0.2345 Y-0.2167
G1 X-0.2124 Y-0.2224
G1 F5.0 Y-0.2195
G1 F10.0 X-0.212
G1 X-0.15
G1 X-0.1219 Y-0.2095
G1 X-0.1064 Y-0.184
G1 X-0.1105 Y-0.1545
G1 X-0.1324 Y-0.1341
G1 X-0.15 Y-0.1305
G1 X-0.212
G1 X-0.2401 Y-0.1405
G1 X-0.2556 Y-0.166
G1 X-0.2515 Y-0.1955
G1 X-0.2296 Y-0.2159
G1 X-0.2124 Y-0.2195
G1 F5.0 X-0.2123 Y-0.2166
G1 F10.0 X-0.212
G1 X-0.15
G1 X-0.1229 Y-0.2066
G1 X-0.1089 Y-0.1814
G1 X-0.1146 Y-0.1531
G1 X-0.1373 Y-0.1354
G1 X-0.15 Y-0.1334
G1 X-0.212
G1 X-0.2391 Y-0.1434
G1 X-0.2531 Y-0.1686
G1 X-0.2474 Y-0.1969
G1 X-0.2247 Y-0.2146
G1 X-0.2123 Y-0.2166
G1 F5.0 Y-0.2137
G1 F10.0 X-0.212
G1 X-0.15
G1 X-0.124 Y-0.2037
G1 X-0.1115 Y-0.1789
G1 X-0.1188 Y-0.1521
G1 X-0.1422 Y-0.137
G1 X-0.15 Y-0.1363
G1 X-0.212
G1 X-0.238 Y-0.1463
G1 X-0.2505 Y-0.1711
G1 X-0.2432 Y-0.1979
G1 X-0.2198 Y-0.213
G1 X-0.2123 Y-0.2137
G1 F5.0 Y-0.2109
G1 F10.0 X-0.212
G1 X-0.15
G1 X-0.1252 Y-0.2009
G1 X-0.1142 Y-0.1764
G1 X-0.1232 Y-0.1512
G1 X-0.1471 Y-0.1393
G1 X-0.15 Y-0.1391
G1 X-0.212
G1 X-0.2368 Y-0.1491
G1 X-0.2478 Y-0.1736
G1 X-0.2388 Y-0.1988
G1 X-0.2149 Y-0.2107
G1 X-0.2123 Y-0.2109
G1 F5.0 Y-0.2096
G1 F10.0 X-0.212
G1 X-0.15
G1 X-0.1257 Y-0.1996
G1 X-0.1154 Y-0.1754
G1 X-0.1251 Y-0.1509
G1 X-0.1492 Y-0.1404
G1 X-0.15
G1 X-0.212
G1 X-0.2363 Y-0.1504
G1 X-0.2466 Y-0.1746
G1 X-0.2369 Y-0.1991
G1 X-0.2128 Y-0.2096
G1 X-0.2123
G0 Z0.125
G0 X-0.2121 Y-0.1224
G0 Z0.0735
G1 F5.0 Z-0.004
G1 F10.0 X-0.212
G1 X-0.15
G1 X-0.1209 Y-0.1124
G1 X-0.1041 Y-0.0866
G1 X-0.1066 Y-0.0559
G1 X-0.1275 Y-0.0333
G1 X-0.15 Y-0.0276
G1 X-0.212
G1 X-0.2411 Y-0.0376
G1 X-0.2579 Y-0.0634
G1 X-0.2554 Y-0.0941
G1 X-0.2345 Y-0.1167
G1 X-0.2121 Y-0.1224
G1 F5.0 Y-0.1195
G1 F10.0 X-0.212
G1 X-0.15
G1 X-0.1219 Y-0.1095
G1 X-0.1064 Y-0.084
G1 X-0.1105 Y-0.0545
G1 X-0.1324 Y-0.0341
G1 X-0.15 Y-0.0305
G1 X-0.212
G1 X-0.2401 Y-0.0405
G1 X-0.2556 Y-0.066
G1 X-0.2515 Y-0.0955
G1 X-0.2296 Y-0.1159
G1 X-0.2121 Y-0.1195
G1 F5.0 Y-0.1166
G1 F10.0 X-0.212
G1 X-0.15
G1 X-0.1229 Y-0.1066
G1 X-0.1089 Y-0.0814
G1 X-0.1146 Y-0.0531
G1 X-0.1373 Y-0.0354
G1 X-0.15 Y-0.0334
G1 X-0.212
G1 X-0.2391 Y-0.0434
G1 X-0.2531 Y-0.0686
G1 X-0.2474 Y-0.0969
G1 X-0.2247 Y-0.1146
G1 X-0.2121 Y-0.1166
G1 F5.0 Y-0.1137
G1 F10.0 X-0.212
G1 X-0.15
G1 X-0.124 Y-0.1037
G1 X-0.1115 Y-0.0789
G1 X-0.1188 Y-0.0521
G1 X-0.1422 Y-0.037
G1 X-0.15 Y-0.0363
G1 X-0.212
G1 X-0.238 Y-0.0463
G1 X-0.2505 Y-0.0711
G1 X-0.2432 Y-0.0979
G1 X-0.2198 Y-0.113
G1 X-0.2121 Y-0.1137
G1 F5.0 Y-0.1109
G1 F10.0 X-0.212
G1 X-0.15
G1 X-0.1252 Y-0.1009
G1 X-0.1142 Y-0.0764
G1 X-0.1232 Y-0.0512
G1 X-0.1471 Y-0.0393
G1 X-0.15 Y-0.0391
G1 X-0.212
G1 X-0.2368 Y-0.0491
G1 X-0.2478 Y-0.0736
G1 X-0.2388 Y-0.0988
G1 X-0.2149 Y-0.1107
G1 X-0.2121 Y-0.1109
G1 F5.0 Y-0.1096
G1 F10.0 X-0.212
G1 X-0.15
G1 X-0.1257 Y-0.0996
G1 X-0.1154 Y-0.0754
G1 X-0.1251 Y-0.0509
G1 X-0.1492 Y-0.0404
G1 X-0.15
G1 X-0.212
G1 X-0.2363 Y-0.0504
G1 X-0.2466 Y-0.0746
G1 X-0.2369 Y-0.0991
G1 X-0.2128 Y-0.1096
G1 X-0.2121
G0 Z0.125
G0 X-0.0135 Y0.0241
G0 Z0.0735
G1 F5.0 Z-0.004
G1 F10.0 X0.0018 Y0.0098
G1 X0.0317 Y0.0041
G1 X0.0587 Y0.0182
G1 X0.0712 Y0.0459
G1 X0.0714 Y0.05
G1 X0.0614 Y0.0788
G1 X0.0357 Y0.0951
G1 X0.0143 Y0.0952
G1 X-0.1006 Y0.2101
G1 Y0.7256
G1 X-0.0145
G1 X0.0018 Y0.7098
G1 X0.0317 Y0.7041
G1 X0.0587 Y0.7182
G1 X0.0712 Y0.7459
G1 X0.0714 Y0.75
G1 X0.0614 Y0.7788
G1 X0.0357 Y0.7951
G1 X0.0054 Y0.7921
G1 X0.0018 Y0.7902
G1 X-0.0145 Y0.7744
G1 X-0.125
G1 X-0.525
G1 X-0.5422 Y0.7672
G1 X-0.6143 Y0.6952
G1 X-0.6446 Y0.692
G1 X-0.6482 Y0.6902
G1 X-0.6681 Y0.6671
G1 X-0.6694 Y0.6367
G1 X-0.6516 Y0.612
G1 X-0.6482 Y0.6098
G1 X-0.6183 Y0.6041
G1 X-0.5913 Y0.6182
G1 X-0.5788 Y0.6459
G1 X-0.5786 Y0.65
G1 X-0.5798 Y0.6607
G1 X-0.5149 Y0.7256
G1 X-0.1494
G1 Y0.2
G1 X-0.1422 Y0.1828
G1 X-0.0202 Y0.0607
G1 X-0.017 Y0.0304
G1 X-0.0135 Y0.0241
G1 F5.0 X-0.0111 Y0.0257
G1 F10.0 X0.0032 Y0.0123
G1 X0.0323 Y0.0071
G1 X0.058 Y0.0216
G1 X0.0685 Y0.0492
G1 Y0.05
G1 X0.0585 Y0.0778
G1 X0.0331 Y0.0927
G1 X0.0135 Y0.092
G1 X-0.1035 Y0.2089
G1 Y0.7285
G1 X-0.0128
G1 X0.0032 Y0.7123
G1 X0.0323 Y0.7071
G1 X0.058 Y0.7216
G1 X0.0685 Y0.7492
G1 Y0.75
G1 X0.0585 Y0.7778
G1 X0.0331 Y0.7927
G1 X0.004 Y0.7881
G1 X0.0032 Y0.7877
G1 X-0.0128 Y0.7715
G1 X-0.125
G1 X-0.525
G1 X-0.5402 Y0.7652
G1 X-0.6135 Y0.692
G1 X-0.6429 Y0.6897
G1 X-0.6468 Y0.6877
G1 X-0.6658 Y0.6651
G1 X-0.6661 Y0.6356
G1 X-0.6475 Y0.6127
G1 X-0.6468 Y0.6123
G1 X-0.6177 Y0.6071
G1 X-0.592 Y0.6216
G1 X-0.5815 Y0.6492
G1 Y0.65
G1 X-0.583 Y0.6615
G1 X-0.5161 Y0.7285
G1 X-0.1465
G1 Y0.2
G1 X-0.1402 Y0.1848
G1 X-0.017 Y0.0615
G1 X-0.0147 Y0.0321
G1 X-0.0111 Y0.0257
G1 F5.0 X-0.0087 Y0.0273
G1 F10.0 X0.0047 Y0.0148
G1 X0.0328 Y0.0101
G1 X0.0571 Y0.0251
G1 X0.0656 Y0.05
G1 X0.0556 Y0.0767
G1 X0.0305 Y0.0902
G1 X0.0126 Y0.0887
G1 X-0.1064 Y0.2077
G1 Y0.7314
G1 X-0.0111
G1 X0.0047 Y0.7148
G1 X0.0328 Y0.7101
G1 X0.0571 Y0.7251
G1 X0.0656 Y0.75
G1 X0.0556 Y0.7767
G1 X0.0305 Y0.7902
G1 X0.0047 Y0.7852
G1 X-0.0111 Y0.7686
G1 X-0.125
G1 X-0.525
G1 X-0.5382 Y0.7632
G1 X-0.6126 Y0.6887
G1 X-0.6411 Y0.6873
G1 X-0.6453 Y0.6852
G1 X-0.6634 Y0.6632
G1 X-0.6626 Y0.6347
G1 X-0.6453 Y0.6148
G1 X-0.6172 Y0.6101
G1 X-0.5929 Y0.6251
G1 X-0.5844 Y0.65
G1 X-0.5863 Y0.6624
G1 X-0.5173 Y0.7314
G1 X-0.1436
G1 Y0.2
G1 X-0.1382 Y0.1868
G1 X-0.0137 Y0.0624
G1 X-0.0123 Y0.0339
G1 X-0.0087 Y0.0273
G1 F5.0 X-0.0063 Y0.0289
G1 F10.0 X0.0061 Y0.0173
G1 X0.0333 Y0.0132
G1 X0.0561 Y0.0286
G1 X0.0627 Y0.05
G1 X0.0527 Y0.0756
G1 X0.028 Y0.0876
G1 X0.0119 Y0.0854
G1 X-0.1093 Y0.2065
G1 Y0.7343
G1 X-0.0093
G1 X0.0061 Y0.7173
G1 X0.0333 Y0.7132
G1 X0.0561 Y0.7286
G1 X0.0627 Y0.75
G1 X0.0527 Y0.7756
G1 X0.028 Y0.7876
G1 X0.0061 Y0.7827
G1 X-0.0093 Y0.7657
G1 X-0.125
G1 X-0.525
G1 X-0.5361 Y0.7611
G1 X-0.6119 Y0.6854
G1 X-0.6393 Y0.6849
G1 X-0.6439 Y0.6827
G1 X-0.661 Y0.6612
G1 X-0.6591 Y0.6338
G1 X-0.6439 Y0.6173
G1 X-0.6167 Y0.6132
G1 X-0.5939 Y0.6286
G1 X-0.5873 Y0.65
G1 X-0.5896 Y0.6631
G1 X-0.5185 Y0.7343
G1 X-0.1407
G1 Y0.2
G1 X-0.1361 Y0.1889
G1 X-0.0104 Y0.0631
G1 X-0.0099 Y0.0357
G1 X-0.0063 Y0.0289
G1 F5.0 X-0.0039 Y0.0305
G1 F10.0 X0.0076 Y0.0198
G1 X0.0337 Y0.0163
G1 X0.0549 Y0.0321
G1 X0.0599 Y0.05
G1 X0.0499 Y0.0744
G1 X0.0256 Y0.0849
G1 X0.0112 Y0.082
G1 X-0.1121 Y0.2053
G1 Y0.7371
G1 X-0.0074
G1 X0.0076 Y0.7198
G1 X0.0337 Y0.7163
G1 X0.0549 Y0.7321
G1 X0.0599 Y0.75
G1 X0.0499 Y0.7744
G1 X0.0256 Y0.7849
G1 X0.0076 Y0.7802
G1 X-0.0074 Y0.7629
G1 X-0.125
G1 X-0.525
G1 X-0.5341 Y0.7591
G1 X-0.6112 Y0.682
G1 X-0.6376 Y0.6825
G1 X-0.6424 Y0.6802
G1 X-0.6586 Y0.6593
G1 X-0.6555 Y0.6331
G1 X-0.6424 Y0.6198
G1 X-0.6163 Y0.6163
G1 X-0.5951 Y0.6321
G1 X-0.5901 Y0.65
G1 X-0.593 Y0.6638
G1 X-0.5197 Y0.7371
G1 X-0.1379
G1 Y0.2
G1 X-0.1341 Y0.1909
G1 X-0.007 Y0.0638
G1 X-0.0075 Y0.0374
G1 X-0.0039 Y0.0305
G1 F5.0 X-0.0029 Y0.0312
G1 F10.0 X0.0082 Y0.0209
G1 X0.0339 Y0.0176
G1 X0.0543 Y0.0336
G1 X0.0586 Y0.05
G1 X0.0486 Y0.0739
G1 X0.0246 Y0.0836
G1 X0.0109 Y0.0805
G1 X-0.1134 Y0.2048
G1 Y0.7384
G1 X-0.0065
G1 X0.0082 Y0.7209
G1 X0.0339 Y0.7176
G1 X0.0543 Y0.7336
G1 X0.0586 Y0.75
G1 X0.0486 Y0.7739
G1 X0.0246 Y0.7836
G1 X0.0082 Y0.7791
G1 X-0.0065 Y0.7616
G1 X-0.125
G1 X-0.525
G1 X-0.5332 Y0.7582
G1 X-0.6109 Y0.6805
G1 X-0.6368 Y0.6815
G1 X-0.6418 Y0.6791
G1 X-0.6575 Y0.6585
G1 X-0.6539 Y0.6328
G1 X-0.6418 Y0.6209
G1 X-0.6161 Y0.6176
G1 X-0.5957 Y0.6336
G1 X-0.5914 Y0.65
G1 X-0.5945 Y0.6641
G1 X-0.5202 Y0.7384
G1 X-0.1366
G1 Y0.2
G1 X-0.1332 Y0.1918
G1 X-0.0055 Y0.0641
G1 X-0.0065 Y0.0382
G1 X-0.0029 Y0.0312
G0 Z0.125
G0 X0.1111 Y-0.048
G0 Z0.0735
G1 F5.0 Z-0.004
G1 F10.0 X0.1027 Y-0.0776
G1 X0.1142 Y-0.1061
G1 X0.1409 Y-0.1215
G1 X0.15 Y-0.1224
G1 X0.212
G1 X0.2411 Y-0.1124
G1 X0.2579 Y-0.0866
G1 X0.2554 Y-0.0559
G1 X0.2345 Y-0.0333
G1 X0.212 Y-0.0276
G1 X0.15
G1 X0.1209 Y-0.0376
G1 X0.1111 Y-0.048
G1 F5.0 X0.1134 Y-0.0496
G1 F10.0 X0.1056 Y-0.0784
G1 X0.1177 Y-0.1057
G1 X0.1443 Y-0.1192
G1 X0.15 Y-0.1195
G1 X0.212
G1 X0.2401 Y-0.1095
G1 X0.2556 Y-0.084
G1 X0.2515 Y-0.0545
G1 X0.2296 Y-0.0341
G1 X0.212 Y-0.0305
G1 X0.15
G1 X0.1219 Y-0.0405
G1 X0.1134 Y-0.0496
G1 F5.0 X0.1158 Y-0.0512
G1 F10.0 X0.1086 Y-0.0792
G1 X0.1212 Y-0.1051
G1 X0.1477 Y-0.1166
G1 X0.15
G1 X0.212
G1 X0.2391 Y-0.1066
G1 X0.2531 Y-0.0814
G1 X0.2474 Y-0.0531
G1 X0.2247 Y-0.0354
G1 X0.212 Y-0.0334
G1 X0.15
G1 X0.1229 Y-0.0434
G1 X0.1158 Y-0.0512
G1 F5.0 X0.1182 Y-0.0529
G1 F10.0 X0.1116 Y-0.0799
G1 X0.1248 Y-0.1044
G1 X0.15 Y-0.1137
G1 X0.212
G1 X0.238 Y-0.1037
G1 X0.2505 Y-0.0789
G1 X0.2432 Y-0.0521
G1 X0.2198 Y-0.037
G1 X0.212 Y-0.0363
G1 X0.15
G1 X0.124 Y-0.0463
G1 X0.1182 Y-0.0529
G1 F5.0 X0.1206 Y-0.0545
G1 F10.0 X0.1146 Y-0.0806
G1 X0.1284 Y-0.1036
G1 X0.15 Y-0.1109
G1 X0.212
G1 X0.2368 Y-0.1009
G1 X0.2478 Y-0.0764
G1 X0.2388 Y-0.0512
G1 X0.2149 Y-0.0393
G1 X0.212 Y-0.0391
G1 X0.15
G1 X0.1252 Y-0.0491
G1 X0.1206 Y-0.0545
G1 F5.0 X0.1216 Y-0.0553
G1 F10.0 X0.1159 Y-0.0809
G1 X0.1299 Y-0.1032
G1 X0.15 Y-0.1096
G1 X0.212
G1 X0.2363 Y-0.0996
G1 X0.2466 Y-0.0754
G1 X0.2369 Y-0.0509
G1 X0.2128 Y-0.0404
G1 X0.212
G1 X0.15
G1 X0.1257 Y-0.0504
G1 X0.1216 Y-0.0553
G0 Z0.125
G0 X0.1391 Y-0.1289
G0 Z0.0735
G1 F5.0 Z-0.004
G1 F10.0 X0.113 Y-0.1453
G1 X0.1026 Y-0.1743
G1 X0.1122 Y-0.2036
G1 X0.1377 Y-0.2208
G1 X0.15 Y-0.2224
G1 X0.212
G1 X0.2411 Y-0.2124
G1 X0.2579 Y-0.1866
G1 X0.2554 Y-0.1559
G1 X0.2345 Y-0.1333
G1 X0.212 Y-0.1276
G1 X0.15
G1 X0.1391 Y-0.1289
G1 F5.0 X0.1397 Y-0.1317
G1 F10.0 X0.1147 Y-0.1479
G1 X0.1055 Y-0.1763
G1 X0.1163 Y-0.2041
G1 X0.1423 Y-0.2188
G1 X0.15 Y-0.2195
G1 X0.212
G1 X0.2401 Y-0.2095
G1 X0.2556 Y-0.184
G1 X0.2515 Y-0.1545
G1 X0.2296 Y-0.1341
G1 X0.212 Y-0.1305
G1 X0.15
G1 X0.1397 Y-0.1317
G1 F5.0 X0.1404 Y-0.1345
G1 F10.0 X0.1164 Y-0.1505
G1 X0.1085 Y-0.1782
G1 X0.1206 Y-0.2044
G1 X0.1468 Y-0.2165
G1 X0.15 Y-0.2166
G1 X0.212
G1 X0.2391 Y-0.2066
G1 X0.2531 Y-0.1814
G1 X0.2474 Y-0.1531
G1 X0.2247 Y-0.1354
G1 X0.212 Y-0.1334
G1 X0.15
G1 X0.1404 Y-0.1345
G1 F5.0 X0.1411 Y-0.1373
G1 F10.0 X0.1181 Y-0.153
G1 X0.1116 Y-0.1801
G1 X0.1249 Y-0.2045
G1 X0.15 Y-0.2137
G1 X0.212
G1 X0.238 Y-0.2037
G1 X0.2505 Y-0.1789
G1 X0.2432 Y-0.1521
G1 X0.2198 Y-0.137
G1 X0.212 Y-0.1363
G1 X0.15
G1 X0.1411 Y-0.1373
G1 F5.0 X0.1417 Y-0.1401
G1 F10.0 X0.1199 Y-0.1556
G1 X0.1148 Y-0.1819
G1 X0.1294 Y-0.2043
G1 X0.15 Y-0.2109
G1 X0.212
G1 X0.2368 Y-0.2009
G1 X0.2478 Y-0.1764
G1 X0.2388 Y-0.1512
G1 X0.2149 Y-0.1393
G1 X0.212 Y-0.1391
G1 X0.15
G1 X0.1417 Y-0.1401
G1 F5.0 X0.142 Y-0.1413
G1 F10.0 X0.1206 Y-0.1567
G1 X0.1162 Y-0.1826
G1 X0.1314 Y-0.2042
G1 X0.15 Y-0.2096
G1 X0.212
G1 X0.2363 Y-0.1996
G1 X0.2466 Y-0.1754
G1 X0.2369 Y-0.1509
G1 X0.2128 Y-0.1404
G1 X0.212
G1 X0.15
G1 X0.142 Y-0.1413
G0 Z0.125
G0 X0.1472 Y-0.2277
G0 Z0.0735
G1 F5.0 Z-0.004
G1 F10.0 X0.1187 Y-0.2394
G1 X0.1034 Y-0.2661
G1 X0.1078 Y-0.2966
G1 X0.13 Y-0.318
G1 X0.15 Y-0.3224
G1 X0.212
G1 X0.2411 Y-0.3124
G1 X0.2579 Y-0.2866
G1 X0.2554 Y-0.2559
G1 X0.2345 Y-0.2333
G1 X0.212 Y-0.2276
G1 X0.15
G1 X0.1472 Y-0.2277
G1 F5.0 X0.1473 Y-0.2306
G1 F10.0 X0.1199 Y-0.2422
G1 X0.1059 Y-0.2686
G1 X0.1118 Y-0.2979
G1 X0.1348 Y-0.3168
G1 X0.15 Y-0.3195
G1 X0.212
G1 X0.2401 Y-0.3095
G1 X0.2556 Y-0.284
G1 X0.2515 Y-0.2545
G1 X0.2296 Y-0.2341
G1 X0.212 Y-0.2305
G1 X0.15
G1 X0.1473 Y-0.2306
G1 F5.0 X0.1475 Y-0.2334
G1 F10.0 X0.1211 Y-0.245
G1 X0.1086 Y-0.271
G1 X0.1159 Y-0.2989
G1 X0.1397 Y-0.3153
G1 X0.15 Y-0.3166
G1 X0.212
G1 X0.2391 Y-0.3066
G1 X0.2531 Y-0.2814
G1 X0.2474 Y-0.2531
G1 X0.2247 Y-0.2354
G1 X0.212 Y-0.2334
G1 X0.15
G1 X0.1475
G1 F5.0 X0.1477 Y-0.2363
G1 F10.0 X0.1224 Y-0.2479
G1 X0.1113 Y-0.2734
G1 X0.1202 Y-0.2998
G1 X0.1445 Y-0.3134
G1 X0.15 Y-0.3137
G1 X0.212
G1 X0.238 Y-0.3037
G1 X0.2505 Y-0.2789
G1 X0.2432 Y-0.2521
G1 X0.2198 Y-0.237
G1 X0.212 Y-0.2363
G1 X0.15
G1 X0.1477
G1 F5.0 X0.1479 Y-0.2392
G1 F10.0 X0.1237 Y-0.2507
G1 X0.1141 Y-0.2757
G1 X0.1246 Y-0.3003
G1 X0.1493 Y-0.3109
G1 X0.15
G1 X0.212
G1 X0.2368 Y-0.3009
G1 X0.2478 Y-0.2764
G1 X0.2388 Y-0.2512
G1 X0.2149 Y-0.2393
G1 X0.212 Y-0.2391
G1 X0.15
G1 X0.1479 Y-0.2392
G1 F5.0 Y-0.2405
G1 F10.0 X0.1242 Y-0.2519
G1 X0.1154 Y-0.2767
G1 X0.1266 Y-0.3005
G1 X0.15 Y-0.3096
G1 X0.212
G1 X0.2363 Y-0.2996
G1 X0.2466 Y-0.2754
G1 X0.2369 Y-0.2509
G1 X0.2128 Y-0.2404
G1 X0.212
G1 X0.15
G1 X0.1479 Y-0.2405
G0 Z0.125
G0 X0.1493 Y-0.3276
G0 Z0.0735
G1 F5.0 Z-0.004
G1 F10.0 X0.1203 Y-0.3381
G1 X0.1039 Y-0.3641
G1 X0.1069 Y-0.3947
G1 X0.1281 Y-0.417
G1 X0.15 Y-0.4224
G1 X0.212
G1 X0.2411 Y-0.4124
G1 X0.2579 Y-0.3866
G1 X0.2554 Y-0.3559
G1 X0.2345 Y-0.3333
G1 X0.212 Y-0.3276
G1 X0.15
G1 X0.1493
G1 F5.0 Y-0.3305
G1 F10.0 X0.1214 Y-0.3409
G1 X0.1063 Y-0.3667
G1 X0.1108 Y-0.3962
G1 X0.133 Y-0.4161
G1 X0.15 Y-0.4195
G1 X0.212
G1 X0.2401 Y-0.4095
G1 X0.2556 Y-0.384
G1 X0.2515 Y-0.3545
G1 X0.2296 Y-0.3341
G1 X0.212 Y-0.3305
G1 X0.15
G1 X0.1493
G1 F5.0 X0.1494 Y-0.3334
G1 F10.0 X0.1225 Y-0.3438
G1 X0.1088 Y-0.3692
G1 X0.1149 Y-0.3974
G1 X0.1379 Y-0.4148
G1 X0.15 Y-0.4166
G1 X0.212
G1 X0.2391 Y-0.4066
G1 X0.2531 Y-0.3814
G1 X0.2474 Y-0.3531
G1 X0.2247 Y-0.3354
G1 X0.212 Y-0.3334
G1 X0.15
G1 X0.1494
G1 F5.0 Y-0.3363
G1 F10.0 X0.1236 Y-0.3467
G1 X0.1114 Y-0.3717
G1 X0.1191 Y-0.3984
G1 X0.1428 Y-0.4131
G1 X0.15 Y-0.4137
G1 X0.212
G1 X0.238 Y-0.4037
G1 X0.2505 Y-0.3789
G1 X0.2432 Y-0.3521
G1 X0.2198 Y-0.337
G1 X0.212 Y-0.3363
G1 X0.15
G1 X0.1494
G1 F5.0 Y-0.3391
G1 F10.0 X0.1248 Y-0.3495
G1 X0.1142 Y-0.3741
G1 X0.1235 Y-0.3992
G1 X0.1477 Y-0.4108
G1 X0.15 Y-0.4109
G1 X0.212
G1 X0.2368 Y-0.4009
G1 X0.2478 Y-0.3764
G1 X0.2388 Y-0.3512
G1 X0.2149 Y-0.3393
G1 X0.212 Y-0.3391
G1 X0.15
G1 X0.1494
G1 F5.0 X0.1495 Y-0.3404
G1 F10.0 X0.1253 Y-0.3508
G1 X0.1154 Y-0.3751
G1 X0.1255 Y-0.3994
G1 X0.1498 Y-0.4096
G1 X0.15
G1 X0.212
G1 X0.2363 Y-0.3996
G1 X0.2466 Y-0.3754
G1 X0.2369 Y-0.3509
G1 X0.2128 Y-0.3404
G1 X0.212
G1 X0.15
G1 X0.1495
G0 Z0.125
G0 X0.1498 Y-0.4276
G0 Z0.0735
G1 F5.0 Z-0.004
G1 F10.0 X0.1207 Y-0.4377
G1 X0.104 Y-0.4636
G1 X0.1067 Y-0.4942
G1 X0.1276 Y-0.5168
G1 X0.15 Y-0.5224
G1 X0.212
G1 X0.2411 Y-0.5124
G1 X0.2579 Y-0.4866
G1 X0.2554 Y-0.4559
G1 X0.2345 Y-0.4333
G1 X0.212 Y-0.4276
G1 X0.15
G1 X0.1498
G1 F5.0 Y-0.4305
G1 F10.0 X0.1218 Y-0.4406
G1 X0.1064 Y-0.4662
G1 X0.1106 Y-0.4957
G1 X0.1325 Y-0.5159
G1 X0.15 Y-0.5195
G1 X0.212
G1 X0.2401 Y-0.5095
G1 X0.2556 Y-0.484
G1 X0.2515 Y-0.4545
G1 X0.2296 Y-0.4341
G1 X0.212 Y-0.4305
G1 X0.15
G1 X0.1498
G1 F5.0 Y-0.4334
G1 F10.0 X0.1228 Y-0.4435
G1 X0.1088 Y-0.4687
G1 X0.1147 Y-0.497
G1 X0.1374 Y-0.5147
G1 X0.15 Y-0.5166
G1 X0.212
G1 X0.2391 Y-0.5066
G1 X0.2531 Y-0.4814
G1 X0.2474 Y-0.4531
G1 X0.2247 Y-0.4354
G1 X0.212 Y-0.4334
G1 X0.15
G1 X0.1498
G1 F5.0 Y-0.4363
G1 F10.0 X0.1239 Y-0.4464
G1 X0.1114 Y-0.4712
G1 X0.1189 Y-0.4981
G1 X0.1424 Y-0.513
G1 X0.15 Y-0.5137
G1 X0.212
G1 X0.238 Y-0.5037
G1 X0.2505 Y-0.4789
G1 X0.2432 Y-0.4521
G1 X0.2198 Y-0.437
G1 X0.212 Y-0.4363
G1 X0.15
G1 X0.1498
G1 F5.0 X0.1499 Y-0.4391
G1 F10.0 X0.1251 Y-0.4492
G1 X0.1142 Y-0.4737
G1 X0.1233 Y-0.4989
G1 X0.1473 Y-0.5108
G1 X0.15 Y-0.5109
G1 X0.212
G1 X0.2368 Y-0.5009
G1 X0.2478 Y-0.4764
G1 X0.2388 Y-0.4512
G1 X0.2149 Y-0.4393
G1 X0.212 Y-0.4391
G1 X0.15
G1 X0.1499
G1 F5.0 Y-0.4404
G1 F10.0 X0.1256 Y-0.4505
G1 X0.1154 Y-0.4748
G1 X0.1252 Y-0.4992
G1 X0.1494 Y-0.5096
G1 X0.15
G1 X0.212
G1 X0.2363 Y-0.4996
G1 X0.2466 Y-0.4754
G1 X0.2369 Y-0.4509
G1 X0.2128 Y-0.4404
G1 X0.212
G1 X0.15
G1 X0.1499
G0 Z0.125
G0 X0.15 Y-0.5276
G0 Z0.0735
G1 F5.0 Z-0.004
G1 F10.0 X0.1208 Y-0.5376
G1 X0.104 Y-0.5634
G1 X0.1066 Y-0.5941
G1 X0.1275 Y-0.6167
G1 X0.15 Y-0.6224
G1 X0.212
G1 X0.2411 Y-0.6124
G1 X0.2579 Y-0.5866
G1 X0.2554 Y-0.5559
G1 X0.2345 Y-0.5333
G1 X0.212 Y-0.5276
G1 X0.15
G1 F5.0 Y-0.5305
G1 F10.0 X0.1219 Y-0.5405
G1 X0.1064 Y-0.566
G1 X0.1105 Y-0.5956
G1 X0.1324 Y-0.6159
G1 X0.15 Y-0.6195
G1 X0.212
G1 X0.2401 Y-0.6095
G1 X0.2556 Y-0.584
G1 X0.2515 Y-0.5545
G1 X0.2296 Y-0.5341
G1 X0.212 Y-0.5305
G1 X0.15
G1 F5.0 Y-0.5334
G1 F10.0 X0.1229 Y-0.5434
G1 X0.1089 Y-0.5686
G1 X0.1146 Y-0.5969
G1 X0.1373 Y-0.6147
G1 X0.15 Y-0.6166
G1 X0.212
G1 X0.2391 Y-0.6066
G1 X0.2531 Y-0.5814
G1 X0.2474 Y-0.5531
G1 X0.2247 Y-0.5354
G1 X0.212 Y-0.5334
G1 X0.15
G1 F5.0 Y-0.5363
G1 F10.0 X0.124 Y-0.5463
G1 X0.1115 Y-0.5711
G1 X0.1188 Y-0.598
G1 X0.1423 Y-0.613
G1 X0.15 Y-0.6137
G1 X0.212
G1 X0.238 Y-0.6037
G1 X0.2505 Y-0.5789
G1 X0.2432 Y-0.5521
G1 X0.2198 Y-0.537
G1 X0.212 Y-0.5363
G1 X0.15
G1 F5.0 Y-0.5391
G1 F10.0 X0.1251 Y-0.5492
G1 X0.1142 Y-0.5736
G1 X0.1232 Y-0.5988
G1 X0.1472 Y-0.6107
G1 X0.15 Y-0.6109
G1 X0.212
G1 X0.2368 Y-0.6009
G1 X0.2478 Y-0.5764
G1 X0.2388 Y-0.5512
G1 X0.2149 Y-0.5393
G1 X0.212 Y-0.5391
G1 X0.15
G1 F5.0 Y-0.5404
G1 F10.0 X0.1256 Y-0.5504
G1 X0.1154 Y-0.5747
G1 X0.1252 Y-0.5991
G1 X0.1493 Y-0.6096
G1 X0.15
G1 X0.212
G1 X0.2363 Y-0.5996
G1 X0.2466 Y-0.5754
G1 X0.2369 Y-0.5509
G1 X0.2128 Y-0.5404
G1 X0.212
G1 X0.15
G0 Z0.125
G0 Y-0.6276
G0 Z0.0735
G1 F5.0 Z-0.004
G1 F10.0 X0.1209 Y-0.6376
G1 X0.104 Y-0.6634
G1 X0.1066 Y-0.6941
G1 X0.1275 Y-0.7167
G1 X0.15 Y-0.7224
G1 X0.212
G1 X0.2411 Y-0.7124
G1 X0.2579 Y-0.6866
G1 X0.2554 Y-0.6559
G1 X0.2345 Y-0.6333
G1 X0.212 Y-0.6276
G1 X0.15
G1 F5.0 Y-0.6305
G1 F10.0 X0.1219 Y-0.6405
G1 X0.1064 Y-0.666
G1 X0.1105 Y-0.6956
G1 X0.1324 Y-0.7159
G1 X0.15 Y-0.7195
G1 X0.212
G1 X0.2401 Y-0.7095
G1 X0.2556 Y-0.684
G1 X0.2515 Y-0.6545
G1 X0.2296 Y-0.6341
G1 X0.212 Y-0.6305
G1 X0.15
G1 F5.0 Y-0.6334
G1 F10.0 X0.1229 Y-0.6434
G1 X0.1089 Y-0.6686
G1 X0.1146 Y-0.6969
G1 X0.1373 Y-0.7146
G1 X0.15 Y-0.7166
G1 X0.212
G1 X0.2391 Y-0.7066
G1 X0.2531 Y-0.6814
G1 X0.2474 Y-0.6531
G1 X0.2247 Y-0.6354
G1 X0.212 Y-0.6334
G1 X0.15
G1 F5.0 Y-0.6363
G1 F10.0 X0.124 Y-0.6463
G1 X0.1115 Y-0.6711
G1 X0.1188 Y-0.698
G1 X0.1422 Y-0.713
G1 X0.15 Y-0.7137
G1 X0.212
G1 X0.238 Y-0.7037
G1 X0.2505 Y-0.6789
G1 X0.2432 Y-0.6521
G1 X0.2198 Y-0.637
G1 X0.212 Y-0.6363
G1 X0.15
G1 F5.0 Y-0.6391
G1 F10.0 X0.1252 Y-0.6491
G1 X0.1142 Y-0.6736
G1 X0.1232 Y-0.6988
G1 X0.1471 Y-0.7107
G1 X0.15 Y-0.7109
G1 X0.212
G1 X0.2368 Y-0.7009
G1 X0.2478 Y-0.6764
G1 X0.2388 Y-0.6512
G1 X0.2149 Y-0.6393
G1 X0.212 Y-0.6391
G1 X0.15
G1 F5.0 Y-0.6404
G1 F10.0 X0.1257 Y-0.6504
G1 X0.1154 Y-0.6746
G1 X0.1251 Y-0.6991
G1 X0.1492 Y-0.7096
G1 X0.15
G1 X0.212
G1 X0.2363 Y-0.6996
G1 X0.2466 Y-0.6754
G1 X0.2369 Y-0.6509
G1 X0.2128 Y-0.6404
G1 X0.212
G1 X0.15
G0 Z0.125
G0 Y-0.7276
G0 Z0.0735
G1 F5.0 Z-0.004
G1 F10.0 X0.1209 Y-0.7376
G1 X0.104 Y-0.7634
G1 X0.1066 Y-0.7941
G1 X0.1275 Y-0.8167
G1 X0.15 Y-0.8224
G1 X0.212
G1 X0.2411 Y-0.8124
G1 X0.2579 Y-0.7866
G1 X0.2554 Y-0.7559
G1 X0.2345 Y-0.7333
G1 X0.212 Y-0.7276
G1 X0.15
G1 F5.0 Y-0.7305
G1 F10.0 X0.1219 Y-0.7405
G1 X0.1064 Y-0.766
G1 X0.1105 Y-0.7956
G1 X0.1324 Y-0.8159
G1 X0.15 Y-0.8195
G1 X0.212
G1 X0.2401 Y-0.8095
G1 X0.2556 Y-0.784
G1 X0.2515 Y-0.7545
G1 X0.2296 Y-0.7341
G1 X0.212 Y-0.7305
G1 X0.15
G1 F5.0 Y-0.7334
G1 F10.0 X0.1229 Y-0.7434
G1 X0.1089 Y-0.7686
G1 X0.1146 Y-0.7969
G1 X0.1373 Y-0.8146
G1 X0.15 Y-0.8166
G1 X0.212
G1 X0.2391 Y-0.8066
G1 X0.2531 Y-0.7814
G1 X0.2474 Y-0.7531
G1 X0.2247 Y-0.7354
G1 X0.212 Y-0.7334
G1 X0.15
G1 F5.0 Y-0.7363
G1 F10.0 X0.124 Y-0.7463
G1 X0.1115 Y-0.7711
G1 X0.1188 Y-0.798
G1 X0.1422 Y-0.813
G1 X0.15 Y-0.8137
G1 X0.212
G1 X0.238 Y-0.8037
G1 X0.2505 Y-0.7789
G1 X0.2432 Y-0.7521
G1 X0.2198 Y-0.737
G1 X0.212 Y-0.7363
G1 X0.15
G1 F5.0 Y-0.7391
G1 F10.0 X0.1252 Y-0.7491
G1 X0.1142 Y-0.7736
G1 X0.1232 Y-0.7988
G1 X0.1471 Y-0.8107
G1 X0.15 Y-0.8109
G1 X0.212
G1 X0.2368 Y-0.8009
G1 X0.2478 Y-0.7764
G1 X0.2388 Y-0.7512
G1 X0.2149 Y-0.7393
G1 X0.212 Y-0.7391
G1 X0.15
G1 F5.0 Y-0.7404
G1 F10.0 X0.1257 Y-0.7504
G1 X0.1154 Y-0.7746
G1 X0.1251 Y-0.7991
G1 X0.1492 Y-0.8096
G1 X0.15
G1 X0.212
G1 X0.2363 Y-0.7996
G1 X0.2466 Y-0.7754
G1 X0.2369 Y-0.7509
G1 X0.2128 Y-0.7404
G1 X0.212
G1 X0.15
G0 Z0.125
G0 X0.557 Y-0.7298
G0 Z0.0735
G1 F5.0 Z-0.004
G1 F10.0 X0.5678 Y-0.7605
G1 X0.5835 Y-0.7744
G1 X0.6153 Y-0.7812
G1 X0.6452 Y-0.7681
G1 X0.6617 Y-0.7401
G1 X0.663 Y-0.7284
G1 X0.653 Y-0.6974
G1 X0.6268 Y-0.6781
G1 X0.5942 Y-0.6778
G1 X0.5835 Y-0.6825
G1 X0.5616 Y-0.7066
G1 X0.557 Y-0.7298
G1 F5.0 X0.5599 Y-0.7297
G1 F10.0 X0.5706 Y-0.7595
G1 X0.5849 Y-0.7719
G1 X0.6159 Y-0.7782
G1 X0.6446 Y-0.7647
G1 X0.6595 Y-0.7368
G1 X0.6602 Y-0.7284
G1 X0.6502 Y-0.6984
G1 X0.6242 Y-0.6803
G1 X0.5925 Y-0.6814
G1 X0.5849 Y-0.685
G1 X0.5639 Y-0.7087
G1 X0.5599 Y-0.7297
G1 F5.0 X0.5627
G1 F10.0 X0.5735 Y-0.7585
G1 X0.5864 Y-0.7694
G1 X0.6165 Y-0.7753
G1 X0.644 Y-0.7613
G1 X0.657 Y-0.7335
G1 X0.6573 Y-0.7284
G1 X0.6473 Y-0.6993
G1 X0.6215 Y-0.6826
G1 X0.5909 Y-0.6852
G1 X0.5864 Y-0.6875
G1 X0.5662 Y-0.7107
G1 X0.5627 Y-0.7297
G1 F5.0 X0.5656 Y-0.7296
G1 F10.0 X0.5763 Y-0.7574
G1 X0.5878 Y-0.7669
G1 X0.6171 Y-0.7722
G1 X0.6432 Y-0.7579
G1 X0.6544 Y-0.7302
G1 Y-0.7284
G1 X0.6444 Y-0.7004
G1 X0.6189 Y-0.6849
G1 X0.5894 Y-0.6891
G1 X0.5878 Y-0.69
G1 X0.5685 Y-0.7127
G1 X0.5656 Y-0.7296
G1 F5.0 X0.5685 Y-0.7295
G1 F10.0 X0.5792 Y-0.7563
G1 X0.5892 Y-0.7644
G1 X0.6176 Y-0.7692
G1 X0.6424 Y-0.7544
G1 X0.6515 Y-0.7284
G1 X0.6415 Y-0.7014
G1 X0.6163 Y-0.6874
G1 X0.5892 Y-0.6925
G1 X0.5708 Y-0.7146
G1 X0.5685 Y-0.7295
G1 F5.0 X0.5698
G1 F10.0 X0.5804 Y-0.7558
G1 X0.5899 Y-0.7633
G1 X0.6179 Y-0.7679
G1 X0.642 Y-0.7529
G1 X0.6503 Y-0.7284
G1 X0.6403 Y-0.7019
G1 X0.6152 Y-0.6885
G1 X0.5899 Y-0.6936
G1 X0.5719 Y-0.7155
G1 X0.5698 Y-0.7295
G0 Z0.125
G0 X0.5994 Y-0.5836
G0 Z0.0735
G1 F5.0 Z-0.004
G1 F10.0 X0.6318 Y-0.5799
G1 X0.656 Y-0.5581
G1 X0.663 Y-0.5316
G1 X0.653 Y-0.5006
G1 X0.6268 Y-0.4813
G1 X0.5942 Y-0.4809
G1 X0.5835 Y-0.4856
G1 X0.5616 Y-0.5098
G1 X0.558 Y-0.5422
G1 X0.574 Y-0.5705
G1 X0.5835 Y-0.5775
G1 X0.5994 Y-0.5836
G1 F5.0 X0.6 Y-0.5807
G1 F10.0 X0.6314 Y-0.5769
G1 X0.6543 Y-0.555
G1 X0.6602 Y-0.5316
G1 X0.6502 Y-0.5015
G1 X0.6242 Y-0.4834
G1 X0.5925 Y-0.4846
G1 X0.5849 Y-0.4881
G1 X0.5639 Y-0.5118
G1 X0.5612 Y-0.5434
G1 X0.578 Y-0.5702
G1 X0.5849 Y-0.575
G1 X0.6 Y-0.5807
G1 F5.0 X0.6006 Y-0.5779
G1 F10.0 X0.6311 Y-0.5739
G1 X0.6526 Y-0.552
G1 X0.6573 Y-0.5316
G1 X0.6473 Y-0.5025
G1 X0.6215 Y-0.4857
G1 X0.5909 Y-0.4883
G1 X0.5864 Y-0.4906
G1 X0.5662 Y-0.5138
G1 X0.5645 Y-0.5445
G1 X0.5821 Y-0.5698
G1 X0.5864 Y-0.5725
G1 X0.6006 Y-0.5779
G1 F5.0 X0.6012 Y-0.5751
G1 F10.0 X0.6307 Y-0.5709
G1 X0.6508 Y-0.549
G1 X0.6544 Y-0.5316
G1 X0.6444 Y-0.5035
G1 X0.6189 Y-0.4881
G1 X0.5894 Y-0.4922
G1 X0.5878 Y-0.4931
G1 X0.5685 Y-0.5158
G1 X0.5679 Y-0.5456
G1 X0.5862 Y-0.5691
G1 X0.5878 Y-0.57
G1 X0.6012 Y-0.5751
G1 F5.0 X0.6017 Y-0.5723
G1 F10.0 X0.6302 Y-0.5678
G1 X0.6489 Y-0.546
G1 X0.6515 Y-0.5316
G1 X0.6415 Y-0.5046
G1 X0.6163 Y-0.4905
G1 X0.5892 Y-0.4956
G1 X0.5708 Y-0.5178
G1 X0.5713 Y-0.5466
G1 X0.5892 Y-0.5675
G1 X0.6017 Y-0.5723
G1 F5.0 X0.602 Y-0.571
G1 F10.0 X0.63 Y-0.5665
G1 X0.6481 Y-0.5447
G1 X0.6503 Y-0.5316
G1 X0.6403 Y-0.505
G1 X0.6152 Y-0.4917
G1 X0.5899 Y-0.4967
G1 X0.5719 Y-0.5186
G1 X0.5728 Y-0.547
G1 X0.5899 Y-0.5664
G1 X0.602 Y-0.571
G0 Z0.125
G0 X0.6044 Y-0.3724
G0 Z0.0735
G1 F5.0 Z-0.004
G1 F10.0 X0.6337 Y-0.3627
G1 X0.6508 Y-0.3372
G1 X0.6524 Y-0.325
G1 X0.6424 Y-0.2959
G1 X0.6166 Y-0.2791
G1 X0.5859 Y-0.2816
G1 X0.5813 Y-0.284
G1 X0.5611 Y-0.3072
G1 X0.5594 Y-0.3379
G1 X0.577 Y-0.3632
G1 X0.5813 Y-0.366
G1 X0.6044 Y-0.3724
G1 F5.0 X0.6045 Y-0.3695
G1 F10.0 X0.6327 Y-0.3599
G1 X0.6485 Y-0.3345
G1 X0.6495 Y-0.325
G1 X0.6395 Y-0.2969
G1 X0.614 Y-0.2814
G1 X0.5845 Y-0.2855
G1 X0.5827 Y-0.2865
G1 X0.5634 Y-0.3092
G1 X0.5627 Y-0.339
G1 X0.5811 Y-0.3625
G1 X0.5827 Y-0.3635
G1 X0.6045 Y-0.3695
G1 F5.0 Y-0.3666
G1 F10.0 X0.6317 Y-0.357
G1 X0.646 Y-0.3319
G1 X0.6466 Y-0.325
G1 X0.6366 Y-0.2979
G1 X0.6114 Y-0.2839
G1 X0.5842 Y-0.2889
G1 X0.5657 Y-0.3111
G1 X0.5662 Y-0.34
G1 X0.5842 Y-0.3611
G1 X0.6045 Y-0.3666
G1 F5.0 Y-0.3637
G1 F10.0 X0.6306 Y-0.3541
G1 X0.6435 Y-0.3294
G1 X0.6437 Y-0.325
G1 X0.6337 Y-0.299
G1 X0.6089 Y-0.2865
G1 X0.5856 Y-0.2914
G1 X0.5681 Y-0.3131
G1 X0.5697 Y-0.3409
G1 X0.5856 Y-0.3586
G1 X0.6045 Y-0.3637
G1 F5.0 X0.6046 Y-0.3609
G1 F10.0 X0.6295 Y-0.3512
G1 X0.6408 Y-0.3269
G1 X0.6409 Y-0.325
G1 X0.6309 Y-0.3002
G1 X0.6064 Y-0.2892
G1 X0.5871 Y-0.2939
G1 X0.5706 Y-0.315
G1 X0.5733 Y-0.3417
G1 X0.5871 Y-0.3561
G1 X0.6046 Y-0.3609
G1 F5.0 Y-0.3596
G1 F10.0 X0.629 Y-0.3499
G1 X0.6396 Y-0.3258
G1 Y-0.325
G1 X0.6296 Y-0.3007
G1 X0.6054 Y-0.2904
G1 X0.5877 Y-0.295
G1 X0.5716 Y-0.3159
G1 X0.5748 Y-0.342
G1 X0.5877 Y-0.355
G1 X0.6046 Y-0.3596
G0 Z0.125
G0 X0.6049 Y-0.1824
G0 Z0.0735
G1 F5.0 Z-0.004
G1 F10.0 X0.634 Y-0.1725
G1 X0.6509 Y-0.1467
G1 X0.6524 Y-0.135
G1 X0.6424 Y-0.1059
G1 X0.6166 Y-0.0891
G1 X0.5859 Y-0.0916
G1 X0.5813 Y-0.094
G1 X0.5611 Y-0.1172
G1 X0.5594 Y-0.1479
G1 X0.577 Y-0.1732
G1 X0.5813 Y-0.176
G1 X0.6049 Y-0.1824
G1 F5.0 Y-0.1795
G1 F10.0 X0.633 Y-0.1696
G1 X0.6486 Y-0.1441
G1 X0.6495 Y-0.135
G1 X0.6395 Y-0.1069
G1 X0.614 Y-0.0914
G1 X0.5845 Y-0.0955
G1 X0.5827 Y-0.0965
G1 X0.5634 Y-0.1192
G1 X0.5627 Y-0.149
G1 X0.5811 Y-0.1725
G1 X0.5827 Y-0.1735
G1 X0.6049 Y-0.1795
G1 F5.0 Y-0.1766
G1 F10.0 X0.632 Y-0.1667
G1 X0.6461 Y-0.1415
G1 X0.6466 Y-0.135
G1 X0.6366 Y-0.1079
G1 X0.6114 Y-0.0939
G1 X0.5842 Y-0.0989
G1 X0.5657 Y-0.1211
G1 X0.5662 Y-0.15
G1 X0.5842 Y-0.1711
G1 X0.6049 Y-0.1766
G1 F5.0 Y-0.1737
G1 F10.0 X0.6309 Y-0.1638
G1 X0.6435 Y-0.139
G1 X0.6437 Y-0.135
G1 X0.6337 Y-0.109
G1 X0.6089 Y-0.0965
G1 X0.5856 Y-0.1014
G1 X0.5681 Y-0.1231
G1 X0.5697 Y-0.1509
G1 X0.5856 Y-0.1686
G1 X0.6049 Y-0.1737
G1 F5.0 Y-0.1709
G1 F10.0 X0.6298 Y-0.1609
G1 X0.6408 Y-0.1365
G1 X0.6409 Y-0.135
G1 X0.6309 Y-0.1102
G1 X0.6064 Y-0.0992
G1 X0.5871 Y-0.1039
G1 X0.5706 Y-0.125
G1 X0.5733 Y-0.1517
G1 X0.5871 Y-0.1661
G1 X0.6049 Y-0.1709
G1 F5.0 Y-0.1696
G1 F10.0 X0.6293 Y-0.1597
G1 X0.6396 Y-0.1355
G1 Y-0.135
G1 X0.6296 Y-0.1107
G1 X0.6054 Y-0.1004
G1 X0.5877 Y-0.105
G1 X0.5716 Y-0.1259
G1 X0.5748 Y-0.152
G1 X0.5877 Y-0.165
G1 X0.6049 Y-0.1696
G0 Z0.125
G0 X0.612 Y0.5026
G0 Z0.0735
G1 F5.0 Z-0.004
G1 F10.0 X0.6122
G1 X0.6378
G1 X0.6494 Y0.5074
G1 X0.6676 Y0.5256
G1 X0.6724 Y0.5372
G1 Y0.5628
G1 X0.6676 Y0.5744
G1 X0.6494 Y0.5926
G1 X0.6378 Y0.5974
G1 X0.6122
G1 X0.6006 Y0.5926
G1 X0.5824 Y0.5744
G1 X0.5776 Y0.5628
G1 Y0.5372
G1 X0.5824 Y0.5256
G1 X0.6006 Y0.5074
G1 X0.612 Y0.5026
G1 F5.0 Y0.5055
G1 F10.0 X0.6122
G1 X0.6378
G1 X0.6474 Y0.5094
G1 X0.6656 Y0.5276
G1 X0.6695 Y0.5372
G1 Y0.5628
G1 X0.6656 Y0.5724
G1 X0.6474 Y0.5906
G1 X0.6378 Y0.5945
G1 X0.6122
G1 X0.6026 Y0.5906
G1 X0.5844 Y0.5724
G1 X0.5805 Y0.5628
G1 Y0.5372
G1 X0.5844 Y0.5276
G1 X0.6026 Y0.5094
G1 X0.612 Y0.5055
G1 F5.0 Y0.5084
G1 F10.0 X0.6122
G1 X0.6378
G1 X0.6454 Y0.5115
G1 X0.6635 Y0.5296
G1 X0.6666 Y0.5372
G1 Y0.5628
G1 X0.6635 Y0.5704
G1 X0.6454 Y0.5885
G1 X0.6378 Y0.5916
G1 X0.6122
G1 X0.6046 Y0.5885
G1 X0.5865 Y0.5704
G1 X0.5834 Y0.5628
G1 Y0.5372
G1 X0.5865 Y0.5296
G1 X0.6046 Y0.5115
G1 X0.612 Y0.5084
G1 F5.0 X0.6121 Y0.5113
G1 F10.0 X0.6122
G1 X0.6378
G1 X0.6433 Y0.5135
G1 X0.6615 Y0.5317
G1 X0.6637 Y0.5372
G1 Y0.5628
G1 X0.6615 Y0.5683
G1 X0.6433 Y0.5865
G1 X0.6378 Y0.5887
G1 X0.6122
G1 X0.6067 Y0.5865
G1 X0.5885 Y0.5683
G1 X0.5863 Y0.5628
G1 Y0.5372
G1 X0.5885 Y0.5317
G1 X0.6067 Y0.5135
G1 X0.6121 Y0.5113
G1 F5.0 Y0.5141
G1 F10.0 X0.6122
G1 X0.6378
G1 X0.6413 Y0.5156
G1 X0.6594 Y0.5337
G1 X0.6609 Y0.5372
G1 Y0.5628
G1 X0.6594 Y0.5663
G1 X0.6413 Y0.5844
G1 X0.6378 Y0.5859
G1 X0.6122
G1 X0.6087 Y0.5844
G1 X0.5906 Y0.5663
G1 X0.5891 Y0.5628
G1 Y0.5372
G1 X0.5906 Y0.5337
G1 X0.6087 Y0.5156
G1 X0.6121 Y0.5141
G1 F5.0 Y0.5154
G1 F10.0 X0.6122
G1 X0.6378
G1 X0.6404 Y0.5165
G1 X0.6585 Y0.5346
G1 X0.6596 Y0.5372
G1 Y0.5628
G1 X0.6585 Y0.5654
G1 X0.6404 Y0.5835
G1 X0.6378 Y0.5846
G1 X0.6122
G1 X0.6096 Y0.5835
G1 X0.5915 Y0.5654
G1 X0.5904 Y0.5628
G1 Y0.5372
G1 X0.5915 Y0.5346
G1 X0.6096 Y0.5165
G1 X0.6121 Y0.5154
G0 Z0.125
G0 X0.6122 Y0.7026
G0 Z0.0735
G1 F5.0 Z-0.004
G1 F10.0 X0.6378
G1 X0.6494 Y0.7074
G1 X0.6676 Y0.7256
G1 X0.6724 Y0.7372
G1 Y0.7628
G1 X0.6676 Y0.7744
G1 X0.6494 Y0.7926
G1 X0.6378 Y0.7974
G1 X0.6122
G1 X0.6006 Y0.7926
G1 X0.5824 Y0.7744
G1 X0.5776 Y0.7628
G1 Y0.7372
G1 X0.5824 Y0.7256
G1 X0.6006 Y0.7074
G1 X0.6122 Y0.7026
G1 F5.0 Y0.7055
G1 F10.0 X0.6378
G1 X0.6474 Y0.7094
G1 X0.6656 Y0.7276
G1 X0.6695 Y0.7372
G1 Y0.7628
G1 X0.6656 Y0.7724
G1 X0.6474 Y0.7906
G1 X0.6378 Y0.7945
G1 X0.6122
G1 X0.6026 Y0.7906
G1 X0.5844 Y0.7724
G1 X0.5805 Y0.7628
G1 Y0.7372
G1 X0.5844 Y0.7276
G1 X0.6026 Y0.7094
G1 X0.6122 Y0.7055
G1 F5.0 Y0.7084
G1 F10.0 X0.6378
G1 X0.6454 Y0.7115
G1 X0.6635 Y0.7296
G1 X0.6666 Y0.7372
G1 Y0.7628
G1 X0.6635 Y0.7704
G1 X0.6454 Y0.7885
G1 X0.6378 Y0.7916
G1 X0.6122
G1 X0.6046 Y0.7885
G1 X0.5865 Y0.7704
G1 X0.5834 Y0.7628
G1 Y0.7372
G1 X0.5865 Y0.7296
G1 X0.6046 Y0.7115
G1 X0.6122 Y0.7084
G1 F5.0 Y0.7113
G1 F10.0 X0.6378
G1 X0.6433 Y0.7135
G1 X0.6615 Y0.7317
G1 X0.6637 Y0.7372
G1 Y0.7628
G1 X0.6615 Y0.7683
G1 X0.6433 Y0.7865
G1 X0.6378 Y0.7887
G1 X0.6122
G1 X0.6067 Y0.7865
G1 X0.5885 Y0.7683
G1 X0.5863 Y0.7628
G1 Y0.7372
G1 X0.5885 Y0.7317
G1 X0.6067 Y0.7135
G1 X0.6122 Y0.7113
G1 F5.0 Y0.7141
G1 F10.0 X0.6378
G1 X0.6413 Y0.7156
G1 X0.6594 Y0.7337
G1 X0.6609 Y0.7372
G1 Y0.7628
G1 X0.6594 Y0.7663
G1 X0.6413 Y0.7844
G1 X0.6378 Y0.7859
G1 X0.6122
G1 X0.6087 Y0.7844
G1 X0.5906 Y0.7663
G1 X0.5891 Y0.7628
G1 Y0.7372
G1 X0.5906 Y0.7337
G1 X0.6087 Y0.7156
G1 X0.6122 Y0.7141
G1 F5.0 Y0.7154
G1 F10.0 X0.6378
G1 X0.6404 Y0.7165
G1 X0.6585 Y0.7346
G1 X0.6596 Y0.7372
G1 Y0.7628
G1 X0.6585 Y0.7654
G1 X0.6404 Y0.7835
G1 X0.6378 Y0.7846
G1 X0.6122
G1 X0.6096 Y0.7835
G1 X0.5915 Y0.7654
G1 X0.5904 Y0.7628
G1 Y0.7372
G1 X0.5915 Y0.7346
G1 X0.6096 Y0.7165
G1 X0.6122 Y0.7154
G0 Z0.125
G0 X0.4223 Y0.7354
G0 Z0.0735
G1 F5.0 Z-0.004
G1 F10.0 X0.4224 Y0.7372
G1 Y0.7628
G1 X0.4176 Y0.7744
G1 X0.3994 Y0.7926
G1 X0.3878 Y0.7974
G1 X0.3622
G1 X0.3506 Y0.7926
G1 X0.3324 Y0.7744
G1 X0.3276 Y0.7628
G1 Y0.7372
G1 X0.3324 Y0.7256
G1 X0.3506 Y0.7074
G1 X0.3622 Y0.7026
G1 X0.3878
G1 X0.3994 Y0.7074
G1 X0.4176 Y0.7256
G1 X0.4223 Y0.7354
G1 F5.0 X0.4194 Y0.7357
G1 F10.0 X0.4195 Y0.7372
G1 Y0.7628
G1 X0.4156 Y0.7724
G1 X0.3974 Y0.7906
G1 X0.3878 Y0.7945
G1 X0.3622
G1 X0.3526 Y0.7906
G1 X0.3344 Y0.7724
G1 X0.3305 Y0.7628
G1 Y0.7372
G1 X0.3344 Y0.7276
G1 X0.3526 Y0.7094
G1 X0.3622 Y0.7055
G1 X0.3878
G1 X0.3974 Y0.7094
G1 X0.4156 Y0.7276
G1 X0.4194 Y0.7357
G1 F5.0 X0.4166 Y0.736
G1 F10.0 Y0.7372
G1 Y0.7628
G1 X0.4135 Y0.7704
G1 X0.3954 Y0.7885
G1 X0.3878 Y0.7916
G1 X0.3622
G1 X0.3546 Y0.7885
G1 X0.3365 Y0.7704
G1 X0.3334 Y0.7628
G1 Y0.7372
G1 X0.3365 Y0.7296
G1 X0.3546 Y0.7115
G1 X0.3622 Y0.7084
G1 X0.3878
G1 X0.3954 Y0.7115
G1 X0.4135 Y0.7296
G1 X0.4166 Y0.736
G1 F5.0 X0.4137 Y0.7363
G1 F10.0 Y0.7372
G1 Y0.7628
G1 X0.4115 Y0.7683
G1 X0.3933 Y0.7865
G1 X0.3878 Y0.7887
G1 X0.3622
G1 X0.3567 Y0.7865
G1 X0.3385 Y0.7683
G1 X0.3363 Y0.7628
G1 Y0.7372
G1 X0.3385 Y0.7317
G1 X0.3567 Y0.7135
G1 X0.3622 Y0.7113
G1 X0.3878
G1 X0.3933 Y0.7135
G1 X0.4115 Y0.7317
G1 X0.4137 Y0.7363
G1 F5.0 X0.4108 Y0.7366
G1 F10.0 X0.4109 Y0.7372
G1 Y0.7628
G1 X0.4094 Y0.7663
G1 X0.3913 Y0.7844
G1 X0.3878 Y0.7859
G1 X0.3622
G1 X0.3587 Y0.7844
G1 X0.3406 Y0.7663
G1 X0.3391 Y0.7628
G1 Y0.7372
G1 X0.3406 Y0.7337
G1 X0.3587 Y0.7156
G1 X0.3622 Y0.7141
G1 X0.3878
G1 X0.3913 Y0.7156
G1 X0.4094 Y0.7337
G1 X0.4108 Y0.7366
G1 F5.0 X0.4096 Y0.7368
G1 F10.0 Y0.7372
G1 Y0.7628
G1 X0.4085 Y0.7654
G1 X0.3904 Y0.7835
G1 X0.3878 Y0.7846
G1 X0.3622
G1 X0.3596 Y0.7835
G1 X0.3415 Y0.7654
G1 X0.3404 Y0.7628
G1 Y0.7372
G1 X0.3415 Y0.7346
G1 X0.3596 Y0.7165
G1 X0.3622 Y0.7154
G1 X0.3878
G1 X0.3904 Y0.7165
G1 X0.4085 Y0.7346
G1 X0.4096 Y0.7368
G0 Z0.125
G0 X0.3901 Y0.5972
G0 Z0.0735
G1 F5.0 Z-0.004
G1 F10.0 X0.3878 Y0.5974
G1 X0.3622
G1 X0.3506 Y0.5926
G1 X0.3324 Y0.5744
G1 X0.3276 Y0.5628
G1 Y0.5372
G1 X0.3324 Y0.5256
G1 X0.3506 Y0.5074
G1 X0.3622 Y0.5026
G1 X0.3878
G1 X0.3994 Y0.5074
G1 X0.4176 Y0.5256
G1 X0.4224 Y0.5372
G1 Y0.5628
G1 X0.4176 Y0.5744
G1 X0.3994 Y0.5926
G1 X0.3901 Y0.5972
G1 F5.0 X0.3897 Y0.5944
G1 F10.0 X0.3878 Y0.5945
G1 X0.3622
G1 X0.3526 Y0.5906
G1 X0.3344 Y0.5724
G1 X0.3305 Y0.5628
G1 Y0.5372
G1 X0.3344 Y0.5276
G1 X0.3526 Y0.5094
G1 X0.3622 Y0.5055
G1 X0.3878
G1 X0.3974 Y0.5094
G1 X0.4156 Y0.5276
G1 X0.4195 Y0.5372
G1 Y0.5628
G1 X0.4156 Y0.5724
G1 X0.3974 Y0.5906
G1 X0.3897 Y0.5944
G1 F5.0 X0.3893 Y0.5915
G1 F10.0 X0.3878 Y0.5916
G1 X0.3622
G1 X0.3546 Y0.5885
G1 X0.3365 Y0.5704
G1 X0.3334 Y0.5628
G1 Y0.5372
G1 X0.3365 Y0.5296
G1 X0.3546 Y0.5115
G1 X0.3622 Y0.5084
G1 X0.3878
G1 X0.3954 Y0.5115
G1 X0.4135 Y0.5296
G1 X0.4166 Y0.5372
G1 Y0.5628
G1 X0.4135 Y0.5704
G1 X0.3954 Y0.5885
G1 X0.3893 Y0.5915
G1 F5.0 X0.3889 Y0.5887
G1 F10.0 X0.3878
G1 X0.3622
G1 X0.3567 Y0.5865
G1 X0.3385 Y0.5683
G1 X0.3363 Y0.5628
G1 Y0.5372
G1 X0.3385 Y0.5317
G1 X0.3567 Y0.5135
G1 X0.3622 Y0.5113
G1 X0.3878
G1 X0.3933 Y0.5135
G1 X0.4115 Y0.5317
G1 X0.4137 Y0.5372
G1 Y0.5628
G1 X0.4115 Y0.5683
G1 X0.3933 Y0.5865
G1 X0.3889 Y0.5887
G1 F5.0 X0.3885 Y0.5858
G1 F10.0 X0.3878 Y0.5859
G1 X0.3622
G1 X0.3587 Y0.5844
G1 X0.3406 Y0.5663
G1 X0.3391 Y0.5628
G1 Y0.5372
G1 X0.3406 Y0.5337
G1 X0.3587 Y0.5156
G1 X0.3622 Y0.5141
G1 X0.3878
G1 X0.3913 Y0.5156
G1 X0.4094 Y0.5337
G1 X0.4109 Y0.5372
G1 Y0.5628
G1 X0.4094 Y0.5663
G1 X0.3913 Y0.5844
G1 X0.3885 Y0.5858
G1 F5.0 X0.3883 Y0.5846
G1 F10.0 X0.3878
G1 X0.3622
G1 X0.3596 Y0.5835
G1 X0.3415 Y0.5654
G1 X0.3404 Y0.5628
G1 Y0.5372
G1 X0.3415 Y0.5346
G1 X0.3596 Y0.5165
G1 X0.3622 Y0.5154
G1 X0.3878
G1 X0.3904 Y0.5165
G1 X0.4085 Y0.5346
G1 X0.4096 Y0.5372
G1 Y0.5628
G1 X0.4085 Y0.5654
G1 X0.3904 Y0.5835
G1 X0.3883 Y0.5846
G0 Z0.125
G0 X0.1723 Y0.5644
G0 Z0.0735
G1 F5.0 Z-0.004
G1 F10.0 X0.1676 Y0.5744
G1 X0.1494 Y0.5926
G1 X0.1378 Y0.5974
G1 X0.1122
G1 X0.1006 Y0.5926
G1 X0.0824 Y0.5744
G1 X0.0776 Y0.5628
G1 Y0.5372
G1 X0.0824 Y0.5256
G1 X0.1006 Y0.5074
G1 X0.1122 Y0.5026
G1 X0.1378
G1 X0.1494 Y0.5074
G1 X0.1676 Y0.5256
G1 X0.1724 Y0.5372
G1 Y0.5628
G1 X0.1723 Y0.5644
G1 F5.0 X0.1695 Y0.5641
G1 F10.0 X0.1656 Y0.5724
G1 X0.1474 Y0.5906
G1 X0.1378 Y0.5945
G1 X0.1122
G1 X0.1026 Y0.5906
G1 X0.0844 Y0.5724
G1 X0.0805 Y0.5628
G1 Y0.5372
G1 X0.0844 Y0.5276
G1 X0.1026 Y0.5094
G1 X0.1122 Y0.5055
G1 X0.1378
G1 X0.1474 Y0.5094
G1 X0.1656 Y0.5276
G1 X0.1695 Y0.5372
G1 Y0.5628
G1 Y0.5641
G1 F5.0 X0.1666 Y0.5638
G1 F10.0 X0.1635 Y0.5704
G1 X0.1454 Y0.5885
G1 X0.1378 Y0.5916
G1 X0.1122
G1 X0.1046 Y0.5885
G1 X0.0865 Y0.5704
G1 X0.0834 Y0.5628
G1 Y0.5372
G1 X0.0865 Y0.5296
G1 X0.1046 Y0.5115
G1 X0.1122 Y0.5084
G1 X0.1378
G1 X0.1454 Y0.5115
G1 X0.1635 Y0.5296
G1 X0.1666 Y0.5372
G1 Y0.5628
G1 Y0.5638
G1 F5.0 X0.1637 Y0.5636
G1 F10.0 X0.1615 Y0.5683
G1 X0.1433 Y0.5865
G1 X0.1378 Y0.5887
G1 X0.1122
G1 X0.1067 Y0.5865
G1 X0.0885 Y0.5683
G1 X0.0863 Y0.5628
G1 Y0.5372
G1 X0.0885 Y0.5317
G1 X0.1067 Y0.5135
G1 X0.1122 Y0.5113
G1 X0.1378
G1 X0.1433 Y0.5135
G1 X0.1615 Y0.5317
G1 X0.1637 Y0.5372
G1 Y0.5628
G1 Y0.5636
G1 F5.0 X0.1608 Y0.5633
G1 F10.0 X0.1594 Y0.5663
G1 X0.1413 Y0.5844
G1 X0.1378 Y0.5859
G1 X0.1122
G1 X0.1087 Y0.5844
G1 X0.0906 Y0.5663
G1 X0.0891 Y0.5628
G1 Y0.5372
G1 X0.0906 Y0.5337
G1 X0.1087 Y0.5156
G1 X0.1122 Y0.5141
G1 X0.1378
G1 X0.1413 Y0.5156
G1 X0.1594 Y0.5337
G1 X0.1609 Y0.5372
G1 Y0.5628
G1 X0.1608 Y0.5633
G1 F5.0 X0.1596 Y0.5632
G1 F10.0 X0.1585 Y0.5654
G1 X0.1404 Y0.5835
G1 X0.1378 Y0.5846
G1 X0.1122
G1 X0.1096 Y0.5835
G1 X0.0915 Y0.5654
G1 X0.0904 Y0.5628
G1 Y0.5372
G1 X0.0915 Y0.5346
G1 X0.1096 Y0.5165
G1 X0.1122 Y0.5154
G1 X0.1378
G1 X0.1404 Y0.5165
G1 X0.1585 Y0.5346
G1 X0.1596 Y0.5372
G1 Y0.5628
G1 Y0.5632
G0 Z0.125
G0 X0.1401 Y0.7028
G0 Z0.0735
G1 F5.0 Z-0.004
G1 F10.0 X0.1494 Y0.7074
G1 X0.1676 Y0.7256
G1 X0.1724 Y0.7372
G1 Y0.7628
G1 X0.1676 Y0.7744
G1 X0.1494 Y0.7926
G1 X0.1378 Y0.7974
G1 X0.1122
G1 X0.1006 Y0.7926
G1 X0.0824 Y0.7744
G1 X0.0776 Y0.7628
G1 Y0.7372
G1 X0.0824 Y0.7256
G1 X0.1006 Y0.7074
G1 X0.1122 Y0.7026
G1 X0.1378
G1 X0.1401 Y0.7028
G1 F5.0 X0.1397 Y0.7056
G1 F10.0 X0.1474 Y0.7094
G1 X0.1656 Y0.7276
G1 X0.1695 Y0.7372
G1 Y0.7628
G1 X0.1656 Y0.7724
G1 X0.1474 Y0.7906
G1 X0.1378 Y0.7945
G1 X0.1122
G1 X0.1026 Y0.7906
G1 X0.0844 Y0.7724
G1 X0.0805 Y0.7628
G1 Y0.7372
G1 X0.0844 Y0.7276
G1 X0.1026 Y0.7094
G1 X0.1122 Y0.7055
G1 X0.1378
G1 X0.1397 Y0.7056
G1 F5.0 X0.1393 Y0.7085
G1 F10.0 X0.1454 Y0.7115
G1 X0.1635 Y0.7296
G1 X0.1666 Y0.7372
G1 Y0.7628
G1 X0.1635 Y0.7704
G1 X0.1454 Y0.7885
G1 X0.1378 Y0.7916
G1 X0.1122
G1 X0.1046 Y0.7885
G1 X0.0865 Y0.7704
G1 X0.0834 Y0.7628
G1 Y0.7372
G1 X0.0865 Y0.7296
G1 X0.1046 Y0.7115
G1 X0.1122 Y0.7084
G1 X0.1378
G1 X0.1393 Y0.7085
G1 F5.0 X0.1389 Y0.7113
G1 F10.0 X0.1433 Y0.7135
G1 X0.1615 Y0.7317
G1 X0.1637 Y0.7372
G1 Y0.7628
G1 X0.1615 Y0.7683
G1 X0.1433 Y0.7865
G1 X0.1378 Y0.7887
G1 X0.1122
G1 X0.1067 Y0.7865
G1 X0.0885 Y0.7683
G1 X0.0863 Y0.7628
G1 Y0.7372
G1 X0.0885 Y0.7317
G1 X0.1067 Y0.7135
G1 X0.1122 Y0.7113
G1 X0.1378
G1 X0.1389
G1 F5.0 X0.1385 Y0.7142
G1 F10.0 X0.1413 Y0.7156
G1 X0.1594 Y0.7337
G1 X0.1609 Y0.7372
G1 Y0.7628
G1 X0.1594 Y0.7663
G1 X0.1413 Y0.7844
G1 X0.1378 Y0.7859
G1 X0.1122
G1 X0.1087 Y0.7844
G1 X0.0906 Y0.7663
G1 X0.0891 Y0.7628
G1 Y0.7372
G1 X0.0906 Y0.7337
G1 X0.1087 Y0.7156
G1 X0.1122 Y0.7141
G1 X0.1378
G1 X0.1385 Y0.7142
G1 F5.0 X0.1383 Y0.7154
G1 F10.0 X0.1404 Y0.7165
G1 X0.1585 Y0.7346
G1 X0.1596 Y0.7372
G1 Y0.7628
G1 X0.1585 Y0.7654
G1 X0.1404 Y0.7835
G1 X0.1378 Y0.7846
G1 X0.1122
G1 X0.1096 Y0.7835
G1 X0.0915 Y0.7654
G1 X0.0904 Y0.7628
G1 Y0.7372
G1 X0.0915 Y0.7346
G1 X0.1096 Y0.7165
G1 X0.1122 Y0.7154
G1 X0.1378
G1 X0.1383
G0 Z0.125
G0 X-0.6886 Y0.748
G0 Z0.0735
G1 F5.0 Z-0.004
G1 F10.0 X-0.6974 Y0.7788
G1 X-0.7228 Y0.7984
G1 X-0.74 Y0.8014
G1 X-0.81
G1 X-0.8405 Y0.7914
G1 X-0.8591 Y0.7653
G1 X-0.8586 Y0.7332
G1 X-0.8392 Y0.7077
G1 X-0.8219 Y0.7
G1 X-0.8492 Y0.6832
G1 X-0.8613 Y0.6535
G1 X-0.8534 Y0.6224
G1 X-0.8286 Y0.6021
G1 X-0.8219 Y0.6
G1 X-0.8492 Y0.5832
G1 X-0.8613 Y0.5535
G1 X-0.8534 Y0.5224
G1 X-0.8286 Y0.5021
G1 X-0.81 Y0.4986
G1 X-0.74
G1 X-0.7095 Y0.5086
G1 X-0.6909 Y0.5347
G1 X-0.6914 Y0.5668
G1 X-0.7108 Y0.5923
G1 X-0.7281 Y0.6
G1 X-0.7008 Y0.6168
G1 X-0.6887 Y0.6465
G1 X-0.6966 Y0.6776
G1 X-0.7214 Y0.6979
G1 X-0.7281 Y0.7
G1 X-0.7008 Y0.7168
G1 X-0.6887 Y0.7465
G1 X-0.6886 Y0.748
G1 F5.0 X-0.6915 Y0.7481
G1 F10.0 X-0.7004 Y0.778
G1 X-0.7255 Y0.7963
G1 X-0.74 Y0.7985
G1 X-0.81
G1 X-0.8395 Y0.7885
G1 X-0.8568 Y0.7626
G1 X-0.8549 Y0.7315
G1 X-0.8344 Y0.7081
G1 X-0.81 Y0.7015
G1 X-0.74
G1 X-0.7105 Y0.7115
G1 X-0.6932 Y0.7374
G1 X-0.6915 Y0.7481
G1 F5.0 X-0.6944 Y0.7482
G1 F10.0 X-0.7033 Y0.7771
G1 X-0.7282 Y0.7941
G1 X-0.74 Y0.7956
G1 X-0.81
G1 X-0.8385 Y0.7856
G1 X-0.8545 Y0.76
G1 X-0.851 Y0.73
G1 X-0.8295 Y0.7088
G1 X-0.81 Y0.7044
G1 X-0.74
G1 X-0.7115 Y0.7144
G1 X-0.6955 Y0.74
G1 X-0.6944 Y0.7482
G1 F5.0 X-0.6973 Y0.7483
G1 F10.0 X-0.7062 Y0.7762
G1 X-0.7309 Y0.7918
G1 X-0.74 Y0.7927
G1 X-0.81
G1 X-0.8375 Y0.7827
G1 X-0.8521 Y0.7574
G1 X-0.847 Y0.7286
G1 X-0.8246 Y0.7098
G1 X-0.81 Y0.7073
G1 X-0.74
G1 X-0.7125 Y0.7173
G1 X-0.6979 Y0.7426
G1 X-0.6973 Y0.7483
G1 F5.0 X-0.7002 Y0.7484
G1 F10.0 X-0.7091 Y0.7752
G1 X-0.7336 Y0.7893
G1 X-0.74 Y0.7899
G1 X-0.81
G1 X-0.8364 Y0.7799
G1 X-0.8496 Y0.7549
G1 X-0.8429 Y0.7274
G1 X-0.8197 Y0.7113
G1 X-0.81 Y0.7101
G1 X-0.74
G1 X-0.7136 Y0.7201
G1 X-0.7004 Y0.7451
G1 X-0.7002 Y0.7484
G1 F5.0 X-0.7014 Y0.7485
G1 F10.0 X-0.7104 Y0.7748
G1 X-0.7347 Y0.7882
G1 X-0.74 Y0.7886
G1 X-0.81
G1 X-0.8359 Y0.7786
G1 X-0.8484 Y0.7538
G1 X-0.841 Y0.727
G1 X-0.8175 Y0.7121
G1 X-0.81 Y0.7114
G1 X-0.74
G1 X-0.7141 Y0.7214
G1 X-0.7016 Y0.7462
G1 X-0.7014 Y0.7485
G0 Z0.125
G0 X-0.7223 Y0.6952
G0 Z0.0735
G1 F5.0 Z-0.004
G1 F10.0 X-0.74 Y0.6985
G1 X-0.81
G1 X-0.8395 Y0.6885
G1 X-0.8568 Y0.6626
G1 X-0.8549 Y0.6315
G1 X-0.8344 Y0.6081
G1 X-0.81 Y0.6015
G1 X-0.74
G1 X-0.7105 Y0.6115
G1 X-0.6932 Y0.6374
G1 X-0.6951 Y0.6685
G1 X-0.7156 Y0.6919
G1 X-0.7223 Y0.6952
G1 F5.0 X-0.7234 Y0.6925
G1 F10.0 X-0.74 Y0.6956
G1 X-0.81
G1 X-0.8385 Y0.6856
G1 X-0.8545 Y0.66
G1 X-0.851 Y0.63
G1 X-0.8295 Y0.6088
G1 X-0.81 Y0.6044
G1 X-0.74
G1 X-0.7115 Y0.6144
G1 X-0.6955 Y0.64
G1 X-0.699 Y0.67
G1 X-0.7205 Y0.6912
G1 X-0.7234 Y0.6925
G1 F5.0 X-0.7244 Y0.6898
G1 F10.0 X-0.74 Y0.6927
G1 X-0.81
G1 X-0.8375 Y0.6827
G1 X-0.8521 Y0.6574
G1 X-0.847 Y0.6286
G1 X-0.8246 Y0.6098
G1 X-0.81 Y0.6073
G1 X-0.74
G1 X-0.7125 Y0.6173
G1 X-0.6979 Y0.6426
G1 X-0.703 Y0.6714
G1 X-0.7244 Y0.6898
G1 F5.0 X-0.7255 Y0.6871
G1 F10.0 X-0.74 Y0.6899
G1 X-0.81
G1 X-0.8364 Y0.6799
G1 X-0.8496 Y0.6549
G1 X-0.8429 Y0.6274
G1 X-0.8197 Y0.6113
G1 X-0.81 Y0.6101
G1 X-0.74
G1 X-0.7136 Y0.6201
G1 X-0.7004 Y0.6451
G1 X-0.7071 Y0.6726
G1 X-0.7255 Y0.6871
G1 F5.0 X-0.7259 Y0.6859
G1 F10.0 X-0.74 Y0.6886
G1 X-0.81
G1 X-0.8359 Y0.6786
G1 X-0.8484 Y0.6538
G1 X-0.841 Y0.627
G1 X-0.8175 Y0.6121
G1 X-0.81 Y0.6114
G1 X-0.74
G1 X-0.7141 Y0.6214
G1 X-0.7016 Y0.6462
G1 X-0.709 Y0.673
G1 X-0.7259 Y0.6859
G0 Z0.125
G0 X-0.735 Y0.5983
G0 Z0.0735
G1 F5.0 Z-0.004
G1 F10.0 X-0.74 Y0.5985
G1 X-0.81
G1 X-0.8395 Y0.5885
G1 X-0.8568 Y0.5626
G1 X-0.8549 Y0.5315
G1 X-0.8344 Y0.5081
G1 X-0.81 Y0.5015
G1 X-0.74
G1 X-0.7105 Y0.5115
G1 X-0.6932 Y0.5374
G1 X-0.6951 Y0.5685
G1 X-0.7156 Y0.5919
G1 X-0.735 Y0.5983
G1 F5.0 X-0.7353 Y0.5954
G1 F10.0 X-0.74 Y0.5956
G1 X-0.81
G1 X-0.8385 Y0.5856
G1 X-0.8545 Y0.56
G1 X-0.851 Y0.53
G1 X-0.8295 Y0.5088
G1 X-0.81 Y0.5044
G1 X-0.74
G1 X-0.7115 Y0.5144
G1 X-0.6955 Y0.54
G1 X-0.699 Y0.57
G1 X-0.7205 Y0.5912
G1 X-0.7353 Y0.5954
G1 F5.0 X-0.7356 Y0.5925
G1 F10.0 X-0.74 Y0.5927
G1 X-0.81
G1 X-0.8375 Y0.5827
G1 X-0.8521 Y0.5574
G1 X-0.847 Y0.5286
G1 X-0.8246 Y0.5098
G1 X-0.81 Y0.5073
G1 X-0.74
G1 X-0.7125 Y0.5173
G1 X-0.6979 Y0.5426
G1 X-0.703 Y0.5714
G1 X-0.7254 Y0.5902
G1 X-0.7356 Y0.5925
G1 F5.0 X-0.7359 Y0.5896
G1 F10.0 X-0.74 Y0.5899
G1 X-0.81
G1 X-0.8364 Y0.5799
G1 X-0.8496 Y0.5549
G1 X-0.8429 Y0.5274
G1 X-0.8197 Y0.5113
G1 X-0.81 Y0.5101
G1 X-0.74
G1 X-0.7136 Y0.5201
G1 X-0.7004 Y0.5451
G1 X-0.7071 Y0.5726
G1 X-0.7303 Y0.5887
G1 X-0.7359 Y0.5896
G1 F5.0 X-0.736 Y0.5884
G1 F10.0 X-0.74 Y0.5886
G1 X-0.81
G1 X-0.8359 Y0.5786
G1 X-0.8484 Y0.5538
G1 X-0.841 Y0.527
G1 X-0.8175 Y0.5121
G1 X-0.81 Y0.5114
G1 X-0.74
G1 X-0.7141 Y0.5214
G1 X-0.7016 Y0.5462
G1 X-0.709 Y0.573
G1 X-0.7325 Y0.5879
G1 X-0.736 Y0.5884
G0 Z0.125
G0 X-0.7394 Y0.3014
G0 Z0.0735
G1 F5.0 Z-0.004
G1 F10.0 X-0.74
G1 X-0.81
G1 X-0.8405 Y0.2914
G1 X-0.8591 Y0.2653
G1 X-0.8586 Y0.2332
G1 X-0.8392 Y0.2077
G1 X-0.8219 Y0.2
G1 X-0.8492 Y0.1832
G1 X-0.8613 Y0.1535
G1 X-0.8534 Y0.1224
G1 X-0.8286 Y0.1021
G1 X-0.8219 Y0.1
G1 X-0.8492 Y0.0832
G1 X-0.8613 Y0.0535
G1 X-0.8534 Y0.0224
G1 X-0.8286 Y0.0021
G1 X-0.8219 Y0.0
G1 X-0.8492 Y-0.0168
G1 X-0.8613 Y-0.0465
G1 X-0.8534 Y-0.0776
G1 X-0.8286 Y-0.0979
G1 X-0.8219 Y-0.1
G1 X-0.8492 Y-0.1168
G1 X-0.8613 Y-0.1465
G1 X-0.8534 Y-0.1776
G1 X-0.8286 Y-0.1979
G1 X-0.8219 Y-0.2
G1 X-0.8492 Y-0.2168
G1 X-0.8613 Y-0.2465
G1 X-0.8534 Y-0.2776
G1 X-0.8286 Y-0.2979
G1 X-0.81 Y-0.3014
G1 X-0.74
G1 X-0.7095 Y-0.2914
G1 X-0.6909 Y-0.2653
G1 X-0.6914 Y-0.2332
G1 X-0.7108 Y-0.2077
G1 X-0.7281 Y-0.2
G1 X-0.7008 Y-0.1832
G1 X-0.6887 Y-0.1535
G1 X-0.6966 Y-0.1224
G1 X-0.7214 Y-0.1021
G1 X-0.7281 Y-0.1
G1 X-0.7008 Y-0.0832
G1 X-0.6887 Y-0.0535
G1 X-0.6966 Y-0.0224
G1 X-0.7214 Y-0.0021
G1 X-0.7281 Y0.0
G1 X-0.7008 Y0.0168
G1 X-0.6887 Y0.0465
G1 X-0.6966 Y0.0776
G1 X-0.7214 Y0.0979
G1 X-0.7281 Y0.1
G1 X-0.7008 Y0.1168
G1 X-0.6887 Y0.1465
G1 X-0.6966 Y0.1776
G1 X-0.7214 Y0.1979
G1 X-0.7281 Y0.2
G1 X-0.7008 Y0.2168
G1 X-0.6887 Y0.2465
G1 X-0.6966 Y0.2776
G1 X-0.7214 Y0.2979
G1 X-0.7394 Y0.3014
G1 F5.0 Y0.2985
G1 F10.0 X-0.74
G1 X-0.81
G1 X-0.8395 Y0.2885
G1 X-0.8568 Y0.2626
G1 X-0.8549 Y0.2315
G1 X-0.8344 Y0.2081
G1 X-0.81 Y0.2015
G1 X-0.74
G1 X-0.7105 Y0.2115
G1 X-0.6932 Y0.2374
G1 X-0.6951 Y0.2685
G1 X-0.7156 Y0.2919
G1 X-0.7394 Y0.2985
G1 F5.0 X-0.7395 Y0.2956
G1 F10.0 X-0.74
G1 X-0.81
G1 X-0.8385 Y0.2856
G1 X-0.8545 Y0.26
G1 X-0.851 Y0.23
G1 X-0.8295 Y0.2088
G1 X-0.81 Y0.2044
G1 X-0.74
G1 X-0.7115 Y0.2144
G1 X-0.6955 Y0.24
G1 X-0.699 Y0.27
G1 X-0.7205 Y0.2912
G1 X-0.7395 Y0.2956
G1 F5.0 Y0.2927
G1 F10.0 X-0.74
G1 X-0.81
G1 X-0.8375 Y0.2827
G1 X-0.8521 Y0.2574
G1 X-0.847 Y0.2286
G1 X-0.8246 Y0.2098
G1 X-0.81 Y0.2073
G1 X-0.74
G1 X-0.7125 Y0.2173
G1 X-0.6979 Y0.2426
G1 X-0.703 Y0.2714
G1 X-0.7254 Y0.2902
G1 X-0.7395 Y0.2927
G1 F5.0 Y0.2899
G1 F10.0 X-0.74
G1 X-0.81
G1 X-0.8364 Y0.2799
G1 X-0.8496 Y0.2549
G1 X-0.8429 Y0.2274
G1 X-0.8197 Y0.2113
G1 X-0.81 Y0.2101
G1 X-0.74
G1 X-0.7136 Y0.2201
G1 X-0.7004 Y0.2451
G1 X-0.7071 Y0.2726
G1 X-0.7303 Y0.2887
G1 X-0.7395 Y0.2899
G1 F5.0 Y0.2886
G1 F10.0 X-0.74
G1 X-0.81
G1 X-0.8359 Y0.2786
G1 X-0.8484 Y0.2538
G1 X-0.841 Y0.227
G1 X-0.8175 Y0.2121
G1 X-0.81 Y0.2114
G1 X-0.74
G1 X-0.7141 Y0.2214
G1 X-0.7016 Y0.2462
G1 X-0.709 Y0.273
G1 X-0.7325 Y0.2879
G1 X-0.7395 Y0.2886
G0 Z0.125
G0 X-0.7398 Y0.1985
G0 Z0.0735
G1 F5.0 Z-0.004
G1 F10.0 X-0.74
G1 X-0.81
G1 X-0.8395 Y0.1885
G1 X-0.8568 Y0.1626
G1 X-0.8549 Y0.1315
G1 X-0.8344 Y0.1081
G1 X-0.81 Y0.1015
G1 X-0.74
G1 X-0.7105 Y0.1115
G1 X-0.6932 Y0.1374
G1 X-0.6951 Y0.1685
G1 X-0.7156 Y0.1919
G1 X-0.7398 Y0.1985
G1 F5.0 X-0.7399 Y0.1956
G1 F10.0 X-0.74
G1 X-0.81
G1 X-0.8385 Y0.1856
G1 X-0.8545 Y0.16
G1 X-0.851 Y0.13
G1 X-0.8295 Y0.1088
G1 X-0.81 Y0.1044
G1 X-0.74
G1 X-0.7115 Y0.1144
G1 X-0.6955 Y0.14
G1 X-0.699 Y0.17
G1 X-0.7205 Y0.1912
G1 X-0.7399 Y0.1956
G1 F5.0 Y0.1927
G1 F10.0 X-0.74
G1 X-0.81
G1 X-0.8375 Y0.1827
G1 X-0.8521 Y0.1574
G1 X-0.847 Y0.1286
G1 X-0.8246 Y0.1098
G1 X-0.81 Y0.1073
G1 X-0.74
G1 X-0.7125 Y0.1173
G1 X-0.6979 Y0.1426
G1 X-0.703 Y0.1714
G1 X-0.7254 Y0.1902
G1 X-0.7399 Y0.1927
G1 F5.0 Y0.1899
G1 F10.0 X-0.74
G1 X-0.81
G1 X-0.8364 Y0.1799
G1 X-0.8496 Y0.1549
G1 X-0.8429 Y0.1274
G1 X-0.8197 Y0.1113
G1 X-0.81 Y0.1101
G1 X-0.74
G1 X-0.7136 Y0.1201
G1 X-0.7004 Y0.1451
G1 X-0.7071 Y0.1726
G1 X-0.7303 Y0.1887
G1 X-0.7399 Y0.1899
G1 F5.0 Y0.1886
G1 F10.0 X-0.74
G1 X-0.81
G1 X-0.8359 Y0.1786
G1 X-0.8484 Y0.1538
G1 X-0.841 Y0.127
G1 X-0.8175 Y0.1121
G1 X-0.81 Y0.1114
G1 X-0.74
G1 X-0.7141 Y0.1214
G1 X-0.7016 Y0.1462
G1 X-0.709 Y0.173
G1 X-0.7325 Y0.1879
G1 X-0.7399 Y0.1886
G0 Z0.125
G0 X-0.74 Y0.0985
G0 Z0.0735
G1 F5.0 Z-0.004
G1 F10.0 X-0.81
G1 X-0.8395 Y0.0885
G1 X-0.8568 Y0.0626
G1 X-0.8549 Y0.0315
G1 X-0.8344 Y0.0081
G1 X-0.81 Y0.0015
G1 X-0.74
G1 X-0.7105 Y0.0115
G1 X-0.6932 Y0.0374
G1 X-0.6951 Y0.0685
G1 X-0.7156 Y0.0919
G1 X-0.74 Y0.0985
G1 F5.0 Y0.0956
G1 F10.0 X-0.81
G1 X-0.8385 Y0.0856
G1 X-0.8545 Y0.06
G1 X-0.851 Y0.03
G1 X-0.8295 Y0.0088
G1 X-0.81 Y0.0044
G1 X-0.74
G1 X-0.7115 Y0.0144
G1 X-0.6955 Y0.04
G1 X-0.699 Y0.07
G1 X-0.7205 Y0.0912
G1 X-0.74 Y0.0956
G1 F5.0 Y0.0927
G1 F10.0 X-0.81
G1 X-0.8375 Y0.0827
G1 X-0.8521 Y0.0574
G1 X-0.847 Y0.0286
G1 X-0.8246 Y0.0098
G1 X-0.81 Y0.0073
G1 X-0.74
G1 X-0.7125 Y0.0173
G1 X-0.6979 Y0.0426
G1 X-0.703 Y0.0714
G1 X-0.7254 Y0.0902
G1 X-0.74 Y0.0927
G1 F5.0 Y0.0899
G1 F10.0 X-0.81
G1 X-0.8364 Y0.0799
G1 X-0.8496 Y0.0549
G1 X-0.8429 Y0.0274
G1 X-0.8197 Y0.0113
G1 X-0.81 Y0.0101
G1 X-0.74
G1 X-0.7136 Y0.0201
G1 X-0.7004 Y0.0451
G1 X-0.7071 Y0.0726
G1 X-0.7303 Y0.0887
G1 X-0.74 Y0.0899
G1 F5.0 Y0.0886
G1 F10.0 X-0.81
G1 X-0.8359 Y0.0786
G1 X-0.8484 Y0.0538
G1 X-0.841 Y0.027
G1 X-0.8175 Y0.0121
G1 X-0.81 Y0.0114
G1 X-0.74
G1 X-0.7141 Y0.0214
G1 X-0.7016 Y0.0462
G1 X-0.709 Y0.073
G1 X-0.7325 Y0.0879
G1 X-0.74 Y0.0886
G0 Z0.125
G0 Y-0.0015
G0 Z0.0735
G1 F5.0 Z-0.004
G1 F10.0 X-0.81
G1 X-0.8395 Y-0.0115
G1 X-0.8568 Y-0.0374
G1 X-0.8549 Y-0.0685
G1 X-0.8344 Y-0.0919
G1 X-0.81 Y-0.0985
G1 X-0.74
G1 X-0.7105 Y-0.0885
G1 X-0.6932 Y-0.0626
G1 X-0.6951 Y-0.0315
G1 X-0.7156 Y-0.0081
G1 X-0.74 Y-0.0015
G1 F5.0 Y-0.0044
G1 F10.0 X-0.81
G1 X-0.8385 Y-0.0144
G1 X-0.8545 Y-0.04
G1 X-0.851 Y-0.07
G1 X-0.8295 Y-0.0912
G1 X-0.81 Y-0.0956
G1 X-0.74
G1 X-0.7115 Y-0.0856
G1 X-0.6955 Y-0.06
G1 X-0.699 Y-0.03
G1 X-0.7205 Y-0.0088
G1 X-0.74 Y-0.0044
G1 F5.0 Y-0.0073
G1 F10.0 X-0.81
G1 X-0.8375 Y-0.0173
G1 X-0.8521 Y-0.0426
G1 X-0.847 Y-0.0714
G1 X-0.8246 Y-0.0902
G1 X-0.81 Y-0.0927
G1 X-0.74
G1 X-0.7125 Y-0.0827
G1 X-0.6979 Y-0.0574
G1 X-0.703 Y-0.0286
G1 X-0.7254 Y-0.0098
G1 X-0.74 Y-0.0073
G1 F5.0 Y-0.0101
G1 F10.0 X-0.81
G1 X-0.8364 Y-0.0201
G1 X-0.8496 Y-0.0451
G1 X-0.8429 Y-0.0726
G1 X-0.8197 Y-0.0887
G1 X-0.81 Y-0.0899
G1 X-0.74
G1 X-0.7136 Y-0.0799
G1 X-0.7004 Y-0.0549
G1 X-0.7071 Y-0.0274
G1 X-0.7303 Y-0.0113
G1 X-0.74 Y-0.0101
G1 F5.0 Y-0.0114
G1 F10.0 X-0.81
G1 X-0.8359 Y-0.0214
G1 X-0.8484 Y-0.0462
G1 X-0.841 Y-0.073
G1 X-0.8175 Y-0.0879
G1 X-0.81 Y-0.0886
G1 X-0.74
G1 X-0.7141 Y-0.0786
G1 X-0.7016 Y-0.0538
G1 X-0.709 Y-0.027
G1 X-0.7325 Y-0.0121
G1 X-0.74 Y-0.0114
G0 Z0.125
G0 Y-0.1015
G0 Z0.0735
G1 F5.0 Z-0.004
G1 F10.0 X-0.81
G1 X-0.8395 Y-0.1115
G1 X-0.8568 Y-0.1374
G1 X-0.8549 Y-0.1685
G1 X-0.8344 Y-0.1919
G1 X-0.81 Y-0.1985
G1 X-0.74
G1 X-0.7105 Y-0.1885
G1 X-0.6932 Y-0.1626
G1 X-0.6951 Y-0.1315
G1 X-0.7156 Y-0.1081
G1 X-0.74 Y-0.1015
G1 F5.0 Y-0.1044
G1 F10.0 X-0.81
G1 X-0.8385 Y-0.1144
G1 X-0.8545 Y-0.14
G1 X-0.851 Y-0.17
G1 X-0.8295 Y-0.1912
G1 X-0.81 Y-0.1956
G1 X-0.74
G1 X-0.7115 Y-0.1856
G1 X-0.6955 Y-0.16
G1 X-0.699 Y-0.13
G1 X-0.7205 Y-0.1088
G1 X-0.74 Y-0.1044
G1 F5.0 Y-0.1073
G1 F10.0 X-0.81
G1 X-0.8375 Y-0.1173
G1 X-0.8521 Y-0.1426
G1 X-0.847 Y-0.1714
G1 X-0.8246 Y-0.1902
G1 X-0.81 Y-0.1927
G1 X-0.74
G1 X-0.7125 Y-0.1827
G1 X-0.6979 Y-0.1574
G1 X-0.703 Y-0.1286
G1 X-0.7254 Y-0.1098
G1 X-0.74 Y-0.1073
G1 F5.0 Y-0.1101
G1 F10.0 X-0.81
G1 X-0.8364 Y-0.1201
G1 X-0.8496 Y-0.1451
G1 X-0.8429 Y-0.1726
G1 X-0.8197 Y-0.1887
G1 X-0.81 Y-0.1899
G1 X-0.74
G1 X-0.7136 Y-0.1799
G1 X-0.7004 Y-0.1549
G1 X-0.7071 Y-0.1274
G1 X-0.7303 Y-0.1113
G1 X-0.74 Y-0.1101
G1 F5.0 Y-0.1114
G1 F10.0 X-0.81
G1 X-0.8359 Y-0.1214
G1 X-0.8484 Y-0.1462
G1 X-0.841 Y-0.173
G1 X-0.8175 Y-0.1879
G1 X-0.81 Y-0.1886
G1 X-0.74
G1 X-0.7141 Y-0.1786
G1 X-0.7016 Y-0.1538
G1 X-0.709 Y-0.127
G1 X-0.7325 Y-0.1121
G1 X-0.74 Y-0.1114
G0 Z0.125
G0 Y-0.2015
G0 Z0.0735
G1 F5.0 Z-0.004
G1 F10.0 X-0.81
G1 X-0.8395 Y-0.2115
G1 X-0.8568 Y-0.2374
G1 X-0.8549 Y-0.2685
G1 X-0.8344 Y-0.2919
G1 X-0.81 Y-0.2985
G1 X-0.74
G1 X-0.7105 Y-0.2885
G1 X-0.6932 Y-0.2626
G1 X-0.6951 Y-0.2315
G1 X-0.7156 Y-0.2081
G1 X-0.74 Y-0.2015
G1 F5.0 Y-0.2044
G1 F10.0 X-0.81
G1 X-0.8385 Y-0.2144
G1 X-0.8545 Y-0.24
G1 X-0.851 Y-0.27
G1 X-0.8295 Y-0.2912
G1 X-0.81 Y-0.2956
G1 X-0.74
G1 X-0.7115 Y-0.2856
G1 X-0.6955 Y-0.26
G1 X-0.699 Y-0.23
G1 X-0.7205 Y-0.2088
G1 X-0.74 Y-0.2044
G1 F5.0 Y-0.2073
G1 F10.0 X-0.81
G1 X-0.8375 Y-0.2173
G1 X-0.8521 Y-0.2426
G1 X-0.847 Y-0.2714
G1 X-0.8246 Y-0.2902
G1 X-0.81 Y-0.2927
G1 X-0.74
G1 X-0.7125 Y-0.2827
G1 X-0.6979 Y-0.2574
G1 X-0.703 Y-0.2286
G1 X-0.7254 Y-0.2098
G1 X-0.74 Y-0.2073
G1 F5.0 Y-0.2101
G1 F10.0 X-0.81
G1 X-0.8364 Y-0.2201
G1 X-0.8496 Y-0.2451
G1 X-0.8429 Y-0.2726
G1 X-0.8197 Y-0.2887
G1 X-0.81 Y-0.2899
G1 X-0.74
G1 X-0.7136 Y-0.2799
G1 X-0.7004 Y-0.2549
G1 X-0.7071 Y-0.2274
G1 X-0.7303 Y-0.2113
G1 X-0.74 Y-0.2101
G1 F5.0 Y-0.2114
G1 F10.0 X-0.81
G1 X-0.8359 Y-0.2214
G1 X-0.8484 Y-0.2462
G1 X-0.841 Y-0.273
G1 X-0.8175 Y-0.2879
G1 X-0.81 Y-0.2886
G1 X-0.74
G1 X-0.7141 Y-0.2786
G1 X-0.7016 Y-0.2538
G1 X-0.709 Y-0.227
G1 X-0.7325 Y-0.2121
G1 X-0.74 Y-0.2114
G0 Z0.125
G0 X-0.5707 Y-0.2418
G0 Z0.0735
G1 F5.0 Z-0.004
G1 F10.0 X-0.5659 Y-0.2719
G1 X-0.5482 Y-0.2902
G1 X-0.5183 Y-0.2959
G1 X-0.5143 Y-0.2952
G1 X-0.4744 Y-0.3351
G1 Y-0.675
G1 X-0.4672 Y-0.6922
G1 X-0.3952 Y-0.7643
G1 X-0.392 Y-0.7946
G1 X-0.3732 Y-0.8152
G1 X-0.3433 Y-0.8209
G1 X-0.3163 Y-0.8068
G1 X-0.3038 Y-0.7791
G1 X-0.3036 Y-0.775
G1 X-0.3136 Y-0.7462
G1 X-0.3393 Y-0.7299
G1 X-0.3607 Y-0.7298
G1 X-0.4256 Y-0.6649
G1 Y-0.325
G1 X-0.4328 Y-0.3078
G1 X-0.4798 Y-0.2607
G1 X-0.4786 Y-0.25
G1 X-0.4886 Y-0.2212
G1 X-0.5143 Y-0.2049
G1 X-0.5446 Y-0.2079
G1 X-0.5482 Y-0.2098
G1 X-0.5681 Y-0.2329
G1 X-0.5707 Y-0.2418
G1 F5.0 X-0.5678 Y-0.2423
G1 F10.0 X-0.5629 Y-0.2714
G1 X-0.5468 Y-0.2877
G1 X-0.5177 Y-0.2929
G1 X-0.5135 Y-0.292
G1 X-0.4715 Y-0.3339
G1 Y-0.675
G1 X-0.4652 Y-0.6902
G1 X-0.392 Y-0.7635
G1 X-0.3897 Y-0.7929
G1 X-0.3718 Y-0.8127
G1 X-0.3427 Y-0.8179
G1 X-0.317 Y-0.8034
G1 X-0.3065 Y-0.7758
G1 Y-0.775
G1 X-0.3165 Y-0.7472
G1 X-0.3419 Y-0.7323
G1 X-0.3615 Y-0.733
G1 X-0.4285 Y-0.6661
G1 Y-0.325
G1 X-0.4348 Y-0.3098
G1 X-0.483 Y-0.2615
G1 X-0.4815 Y-0.25
G1 X-0.4915 Y-0.2222
G1 X-0.5169 Y-0.2073
G1 X-0.546 Y-0.2119
G1 X-0.5468 Y-0.2123
G1 X-0.5658 Y-0.2349
G1 X-0.5678 Y-0.2423
G1 F5.0 X-0.565 Y-0.2428
G1 F10.0 X-0.5599 Y-0.2709
G1 X-0.5453 Y-0.2852
G1 X-0.5172 Y-0.2899
G1 X-0.5126 Y-0.2887
G1 X-0.4686 Y-0.3327
G1 Y-0.675
G1 X-0.4632 Y-0.6882
G1 X-0.3887 Y-0.7626
G1 X-0.3873 Y-0.7911
G1 X-0.3703 Y-0.8102
G1 X-0.3422 Y-0.8149
G1 X-0.3179 Y-0.7999
G1 X-0.3094 Y-0.775
G1 X-0.3194 Y-0.7483
G1 X-0.3445 Y-0.7348
G1 X-0.3624 Y-0.7363
G1 X-0.4314 Y-0.6673
G1 Y-0.325
G1 X-0.4368 Y-0.3118
G1 X-0.4863 Y-0.2624
G1 X-0.4844 Y-0.25
G1 X-0.4944 Y-0.2233
G1 X-0.5195 Y-0.2098
G1 X-0.5453 Y-0.2148
G1 X-0.5634 Y-0.2368
G1 X-0.565 Y-0.2428
G1 F5.0 X-0.5621 Y-0.2433
G1 F10.0 X-0.5568 Y-0.2703
G1 X-0.5439 Y-0.2827
G1 X-0.5167 Y-0.2868
G1 X-0.5119 Y-0.2854
G1 X-0.4657 Y-0.3315
G1 Y-0.675
G1 X-0.4611 Y-0.6861
G1 X-0.3854 Y-0.7619
G1 X-0.3849 Y-0.7893
G1 X-0.3689 Y-0.8077
G1 X-0.3417 Y-0.8118
G1 X-0.3189 Y-0.7964
G1 X-0.3123 Y-0.775
G1 X-0.3223 Y-0.7494
G1 X-0.347 Y-0.7374
G1 X-0.3631 Y-0.7396
G1 X-0.4343 Y-0.6685
G1 Y-0.325
G1 X-0.4389 Y-0.3139
G1 X-0.4896 Y-0.2631
G1 X-0.4873 Y-0.25
G1 X-0.4973 Y-0.2244
G1 X-0.522 Y-0.2124
G1 X-0.5439 Y-0.2173
G1 X-0.561 Y-0.2388
G1 X-0.5621 Y-0.2433
G1 F5.0 X-0.5593 Y-0.2438
G1 F10.0 X-0.5538 Y-0.2697
G1 X-0.5424 Y-0.2802
G1 X-0.5163 Y-0.2837
G1 X-0.5112 Y-0.282
G1 X-0.4629 Y-0.3303
G1 Y-0.675
G1 X-0.4591 Y-0.6841
G1 X-0.382 Y-0.7612
G1 X-0.3825 Y-0.7876
G1 X-0.3674 Y-0.8052
G1 X-0.3413 Y-0.8087
G1 X-0.3201 Y-0.7929
G1 X-0.3151 Y-0.775
G1 X-0.3251 Y-0.7506
G1 X-0.3494 Y-0.7401
G1 X-0.3638 Y-0.743
G1 X-0.4371 Y-0.6697
G1 Y-0.325
G1 X-0.4409 Y-0.3159
G1 X-0.493 Y-0.2638
G1 X-0.4901 Y-0.25
G1 X-0.5001 Y-0.2256
G1 X-0.5244 Y-0.2151
G1 X-0.5424 Y-0.2198
G1 X-0.5586 Y-0.2407
G1 X-0.5593 Y-0.2438
G1 F5.0 X-0.5581 Y-0.2441
G1 F10.0 X-0.5525 Y-0.2694
G1 X-0.5418 Y-0.2791
G1 X-0.5161 Y-0.2824
G1 X-0.5109 Y-0.2805
G1 X-0.4616 Y-0.3298
G1 Y-0.675
G1 X-0.4582 Y-0.6832
G1 X-0.3805 Y-0.7609
G1 X-0.3815 Y-0.7868
G1 X-0.3668 Y-0.8041
G1 X-0.3411 Y-0.8074
G1 X-0.3207 Y-0.7914
G1 X-0.3164 Y-0.775
G1 X-0.3264 Y-0.7511
G1 X-0.3504 Y-0.7414
G1 X-0.3641 Y-0.7445
G1 X-0.4384 Y-0.6702
G1 Y-0.325
G1 X-0.4418 Y-0.3168
G1 X-0.4945 Y-0.2641
G1 X-0.4914 Y-0.25
G1 X-0.5014 Y-0.2261
G1 X-0.5254 Y-0.2164
G1 X-0.5418 Y-0.2209
G1 X-0.5575 Y-0.2415
G1 X-0.5581 Y-0.2441
G0 Z0.125
G0 X-0.5961 Y-0.4366
G0 Z0.0735
G1 F5.0 Z-0.004
G1 F10.0 X-0.6279 Y-0.4405
G1 X-0.6512 Y-0.4625
G1 X-0.6574 Y-0.487
G1 Y-0.557
G1 X-0.6474 Y-0.5875
G1 X-0.6213 Y-0.6061
G1 X-0.5892 Y-0.6056
G1 X-0.5637 Y-0.5862
G1 X-0.5546 Y-0.557
G1 Y-0.487
G1 X-0.5646 Y-0.4565
G1 X-0.5907 Y-0.4379
G1 X-0.5961 Y-0.4366
G1 F5.0 X-0.5966 Y-0.4394
G1 F10.0 X-0.6275 Y-0.4435
G1 X-0.6495 Y-0.4655
G1 X-0.6545 Y-0.487
G1 Y-0.557
G1 X-0.6445 Y-0.5865
G1 X-0.6186 Y-0.6038
G1 X-0.5875 Y-0.6019
G1 X-0.5641 Y-0.5814
G1 X-0.5575 Y-0.557
G1 Y-0.487
G1 X-0.5675 Y-0.4575
G1 X-0.5934 Y-0.4402
G1 X-0.5966 Y-0.4394
G1 F5.0 X-0.5972 Y-0.4422
G1 F10.0 X-0.6271 Y-0.4465
G1 X-0.6477 Y-0.4686
G1 X-0.6516 Y-0.487
G1 Y-0.557
G1 X-0.6416 Y-0.5855
G1 X-0.616 Y-0.6015
G1 X-0.586 Y-0.598
G1 X-0.5648 Y-0.5765
G1 X-0.5604 Y-0.557
G1 Y-0.487
G1 X-0.5704 Y-0.4585
G1 X-0.596 Y-0.4425
G1 X-0.5972 Y-0.4422
G1 F5.0 X-0.5977 Y-0.4451
G1 F10.0 X-0.6266 Y-0.4496
G1 X-0.6459 Y-0.4716
G1 X-0.6487 Y-0.487
G1 Y-0.557
G1 X-0.6387 Y-0.5845
G1 X-0.6134 Y-0.5991
G1 X-0.5846 Y-0.594
G1 X-0.5658 Y-0.5716
G1 X-0.5633 Y-0.557
G1 Y-0.487
G1 X-0.5733 Y-0.4595
G1 X-0.5977 Y-0.4451
G1 F5.0 X-0.5983 Y-0.4479
G1 F10.0 X-0.6261 Y-0.4526
G1 X-0.6439 Y-0.4746
G1 X-0.6459 Y-0.487
G1 Y-0.557
G1 X-0.6359 Y-0.5834
G1 X-0.6109 Y-0.5966
G1 X-0.5834 Y-0.5899
G1 X-0.5673 Y-0.5667
G1 X-0.5661 Y-0.557
G1 Y-0.487
G1 X-0.5761 Y-0.4606
G1 X-0.5983 Y-0.4479
G1 F5.0 X-0.5985 Y-0.4491
G1 F10.0 X-0.6259 Y-0.4539
G1 X-0.643 Y-0.4759
G1 X-0.6446 Y-0.487
G1 Y-0.557
G1 X-0.6346 Y-0.5829
G1 X-0.6098 Y-0.5954
G1 X-0.583 Y-0.588
G1 X-0.5681 Y-0.5645
G1 X-0.5674 Y-0.557
G1 Y-0.487
G1 X-0.5774 Y-0.4611
G1 X-0.5985 Y-0.4491
G0 Z0.125
G0 X-0.7336 Y-0.4767
G0 Z0.0735
G1 F5.0 Z-0.004
G1 F10.0 X-0.7495 Y-0.4489
G1 X-0.7788 Y-0.4359
G1 X-0.8102 Y-0.4428
G1 X-0.8313 Y-0.4669
G1 X-0.8354 Y-0.487
G1 Y-0.557
G1 X-0.8254 Y-0.5875
G1 X-0.7993 Y-0.6061
G1 X-0.7672 Y-0.6056
G1 X-0.7417 Y-0.5862
G1 X-0.7326 Y-0.557
G1 Y-0.487
G1 X-0.7336 Y-0.4767
G1 F5.0 X-0.7365 Y-0.4773
G1 F10.0 X-0.7522 Y-0.4504
G1 X-0.781 Y-0.4386
G1 X-0.8111 Y-0.4467
G1 X-0.83 Y-0.4715
G1 X-0.8325 Y-0.487
G1 Y-0.557
G1 X-0.8225 Y-0.5865
G1 X-0.7966 Y-0.6038
G1 X-0.7655 Y-0.6019
G1 X-0.7421 Y-0.5814
G1 X-0.7355 Y-0.557
G1 Y-0.487
G1 X-0.7365 Y-0.4773
G1 F5.0 X-0.7393 Y-0.4779
G1 F10.0 X-0.7548 Y-0.4519
G1 X-0.7831 Y-0.4414
G1 X-0.8118 Y-0.4508
G1 X-0.8283 Y-0.4761
G1 X-0.8296 Y-0.487
G1 Y-0.557
G1 X-0.8196 Y-0.5855
G1 X-0.794 Y-0.6015
G1 X-0.764 Y-0.598
G1 X-0.7428 Y-0.5765
G1 X-0.7384 Y-0.557
G1 Y-0.487
G1 X-0.7393 Y-0.4779
G1 F5.0 X-0.7421 Y-0.4784
G1 F10.0 X-0.7574 Y-0.4535
G1 X-0.7852 Y-0.4443
G1 X-0.8123 Y-0.455
G1 X-0.8263 Y-0.4807
G1 X-0.8267 Y-0.487
G1 Y-0.557
G1 X-0.8167 Y-0.5845
G1 X-0.7914 Y-0.5991
G1 X-0.7626 Y-0.594
G1 X-0.7438 Y-0.5716
G1 X-0.7413 Y-0.557
G1 Y-0.487
G1 X-0.7421 Y-0.4784
G1 F5.0 X-0.7449 Y-0.479
G1 F10.0 X-0.76 Y-0.4552
G1 X-0.7871 Y-0.4473
G1 X-0.8127 Y-0.4593
G1 X-0.8238 Y-0.4853
G1 X-0.8239 Y-0.487
G1 Y-0.557
G1 X-0.8139 Y-0.5834
G1 X-0.7889 Y-0.5966
G1 X-0.7614 Y-0.5899
G1 X-0.7453 Y-0.5667
G1 X-0.7441 Y-0.557
G1 Y-0.487
G1 X-0.7449 Y-0.479
G1 F5.0 X-0.7462 Y-0.4793
G1 F10.0 X-0.7612 Y-0.4559
G1 X-0.788 Y-0.4486
G1 X-0.8127 Y-0.4612
G1 X-0.8226 Y-0.487
G1 Y-0.557
G1 X-0.8126 Y-0.5829
G1 X-0.7878 Y-0.5954
G1 X-0.761 Y-0.588
G1 X-0.7461 Y-0.5645
G1 X-0.7454 Y-0.557
G1 Y-0.487
G1 X-0.7462 Y-0.4793
G0 Z0.125
G0 X-0.7767 Y-0.6921
G0 Z0.0735
G1 F5.0 Z-0.004
G1 F10.0 X-0.8083 Y-0.6977
G1 X-0.8304 Y-0.7209
G1 X-0.8354 Y-0.743
G1 Y-0.813
G1 X-0.8254 Y-0.8435
G1 X-0.7993 Y-0.8621
G1 X-0.7672 Y-0.8616
G1 X-0.7417 Y-0.8422
G1 X-0.7326 Y-0.813
G1 Y-0.743
G1 X-0.7426 Y-0.7125
G1 X-0.7687 Y-0.6939
G1 X-0.7767 Y-0.6921
G1 F5.0 X-0.7771 Y-0.695
G1 F10.0 X-0.8077 Y-0.7007
G1 X-0.8286 Y-0.7238
G1 X-0.8325 Y-0.743
G1 Y-0.813
G1 X-0.8225 Y-0.8425
G1 X-0.7966 Y-0.8598
G1 X-0.7655 Y-0.8579
G1 X-0.7421 Y-0.8374
G1 X-0.7355 Y-0.813
G1 Y-0.743
G1 X-0.7455 Y-0.7135
G1 X-0.7714 Y-0.6962
G1 X-0.7771 Y-0.695
G1 F5.0 X-0.7775 Y-0.6978
G1 F10.0 X-0.8072 Y-0.7037
G1 X-0.8266 Y-0.7268
G1 X-0.8296 Y-0.743
G1 Y-0.813
G1 X-0.8196 Y-0.8415
G1 X-0.794 Y-0.8575
G1 X-0.764 Y-0.854
G1 X-0.7428 Y-0.8325
G1 X-0.7384 Y-0.813
G1 Y-0.743
G1 X-0.7484 Y-0.7145
G1 X-0.774 Y-0.6985
G1 X-0.7775 Y-0.6978
G1 F5.0 X-0.7779 Y-0.7007
G1 F10.0 X-0.8065 Y-0.7067
G1 X-0.8246 Y-0.7297
G1 X-0.8267 Y-0.743
G1 Y-0.813
G1 X-0.8167 Y-0.8405
G1 X-0.7914 Y-0.8551
G1 X-0.7626 Y-0.85
G1 X-0.7438 Y-0.8276
G1 X-0.7413 Y-0.813
G1 Y-0.743
G1 X-0.7513 Y-0.7155
G1 X-0.7766 Y-0.7009
G1 X-0.7779 Y-0.7007
G1 F5.0 X-0.7783 Y-0.7035
G1 F10.0 X-0.8059 Y-0.7097
G1 X-0.8225 Y-0.7326
G1 X-0.8239 Y-0.743
G1 Y-0.813
G1 X-0.8139 Y-0.8394
G1 X-0.7889 Y-0.8526
G1 X-0.7614 Y-0.8459
G1 X-0.7453 Y-0.8227
G1 X-0.7441 Y-0.813
G1 Y-0.743
G1 X-0.7541 Y-0.7166
G1 X-0.7783 Y-0.7035
G1 F5.0 X-0.7785 Y-0.7048
G1 F10.0 X-0.8056 Y-0.711
G1 X-0.8215 Y-0.7338
G1 X-0.8226 Y-0.743
G1 Y-0.813
G1 X-0.8126 Y-0.8389
G1 X-0.7878 Y-0.8514
G1 X-0.761 Y-0.844
G1 X-0.7461 Y-0.8205
G1 X-0.7454 Y-0.813
G1 Y-0.743
G1 X-0.7554 Y-0.7171
G1 X-0.7785 Y-0.7048
G0 Z0.125
G0 X-0.6562 Y-0.7319
G0 Z0.0735
G1 F5.0 Z-0.004
G1 F10.0 X-0.6574 Y-0.743
G1 Y-0.813
G1 X-0.6474 Y-0.8435
G1 X-0.6213 Y-0.8621
G1 X-0.5892 Y-0.8616
G1 X-0.5637 Y-0.8422
G1 X-0.5546 Y-0.813
G1 Y-0.743
G1 X-0.5646 Y-0.7125
G1 X-0.5907 Y-0.6939
G1 X-0.6228 Y-0.6944
G1 X-0.6483 Y-0.7138
G1 X-0.6562 Y-0.7319
G1 F5.0 X-0.6534 Y-0.7325
G1 F10.0 X-0.6545 Y-0.743
G1 Y-0.813
G1 X-0.6445 Y-0.8425
G1 X-0.6186 Y-0.8598
G1 X-0.5875 Y-0.8579
G1 X-0.5641 Y-0.8374
G1 X-0.5575 Y-0.813
G1 Y-0.743
G1 X-0.5675 Y-0.7135
G1 X-0.5934 Y-0.6962
G1 X-0.6245 Y-0.6981
G1 X-0.6479 Y-0.7186
G1 X-0.6534 Y-0.7325
G1 F5.0 X-0.6505 Y-0.7331
G1 F10.0 X-0.6516 Y-0.743
G1 Y-0.813
G1 X-0.6416 Y-0.8415
G1 X-0.616 Y-0.8575
G1 X-0.586 Y-0.854
G1 X-0.5648 Y-0.8325
G1 X-0.5604 Y-0.813
G1 Y-0.743
G1 X-0.5704 Y-0.7145
G1 X-0.596 Y-0.6985
G1 X-0.626 Y-0.702
G1 X-0.6472 Y-0.7235
G1 X-0.6505 Y-0.7331
G1 F5.0 X-0.6477 Y-0.7338
G1 F10.0 X-0.6487 Y-0.743
G1 Y-0.813
G1 X-0.6387 Y-0.8405
G1 X-0.6134 Y-0.8551
G1 X-0.5846 Y-0.85
G1 X-0.5658 Y-0.8276
G1 X-0.5633 Y-0.813
G1 Y-0.743
G1 X-0.5733 Y-0.7155
G1 X-0.5986 Y-0.7009
G1 X-0.6274 Y-0.706
G1 X-0.6462 Y-0.7284
G1 X-0.6477 Y-0.7338
G1 F5.0 X-0.6449 Y-0.7344
G1 F10.0 X-0.6459 Y-0.743
G1 Y-0.813
G1 X-0.6359 Y-0.8394
G1 X-0.6109 Y-0.8526
G1 X-0.5834 Y-0.8459
G1 X-0.5673 Y-0.8227
G1 X-0.5661 Y-0.813
G1 Y-0.743
G1 X-0.5761 Y-0.7166
G1 X-0.6011 Y-0.7034
G1 X-0.6286 Y-0.7101
G1 X-0.6447 Y-0.7333
G1 X-0.6449 Y-0.7344
G1 F5.0 X-0.6437 Y-0.7347
G1 F10.0 X-0.6446 Y-0.743
G1 Y-0.813
G1 X-0.6346 Y-0.8389
G1 X-0.6098 Y-0.8514
G1 X-0.583 Y-0.844
G1 X-0.5681 Y-0.8205
G1 X-0.5674 Y-0.813
G1 Y-0.743
G1 X-0.5774 Y-0.7171
G1 X-0.6022 Y-0.7046
G1 X-0.629 Y-0.712
G1 X-0.6437 Y-0.7347
( Isolation, 0.0071" StubV )
M5
G0 Z3.0
M1
M3 S1000
G0 Z0.125
G0 X0.7761 Y-0.8521
G0 Z0.0735
G1 F5.0 Z-0.004
G1 F10.0 X0.7522 Y-0.8371
G1 X0.7441 Y-0.813
G1 Y-0.7859
G1 X0.7439
G1 Y-0.821
G1 X0.75 Y-0.8357
G1 X0.7613 Y-0.847
G1 X0.776 Y-0.8531
G1 X0.7761
G1 Y-0.8521
G1 F5.0 X0.7764 Y-0.8508
G1 F10.0 X0.7529 Y-0.8359
G1 X0.7454 Y-0.813
G1 Y-0.7846
G1 X0.7426
G1 Y-0.8212
G1 X0.7489 Y-0.8365
G1 X0.7605 Y-0.8481
G1 X0.7758 Y-0.8544
G1 X0.7774
G1 Y-0.851
G1 X0.7764 Y-0.8508
G0 Z0.125
G0 X0.7441 Y-0.7701
G0 Z0.0735
G1 F5.0 Z-0.004
G1 F10.0 Y-0.743
G1 X0.7541 Y-0.7166
G1 X0.7761 Y-0.7039
G1 Y-0.7029
G1 X0.776
G1 X0.7613 Y-0.709
G1 X0.75 Y-0.7203
G1 X0.7439 Y-0.735
G1 Y-0.7701
G1 X0.7441
G1 F5.0 X0.7454
G1 F10.0 Y-0.743
G1 X0.7554 Y-0.7171
G1 X0.7774 Y-0.705
G1 Y-0.7016
G1 X0.7758
G1 X0.7605 Y-0.7079
G1 X0.7489 Y-0.7195
G1 X0.7426 Y-0.7348
G1 Y-0.7714
G1 X0.7454
G1 Y-0.7701
G0 Z0.125
G0 X0.776 Y-0.5971
G0 Z0.0735
G1 F5.0 Z-0.004
G1 F10.0 X0.7761
G1 Y-0.5961
G1 X0.7522 Y-0.5811
G1 X0.7441 Y-0.557
G1 Y-0.5299
G1 X0.7439
G1 Y-0.565
G1 X0.75 Y-0.5797
G1 X0.7613 Y-0.591
G1 X0.776 Y-0.5971
G1 F5.0 X0.7755 Y-0.5983
G1 F10.0 X0.7758 Y-0.5984
G1 X0.7774
G1 Y-0.595
G1 X0.7536 Y-0.5807
G1 X0.7454 Y-0.557
G1 Y-0.5286
G1 X0.7426
G1 Y-0.5652
G1 X0.7489 Y-0.5805
G1 X0.7605 Y-0.5921
G1 X0.7755 Y-0.5983
G0 Z0.125
G0 X0.7441 Y-0.5141
G0 Z0.0735
G1 F5.0 Z-0.004
G1 F10.0 Y-0.487
G1 X0.7541 Y-0.4606
G1 X0.7761 Y-0.4479
G1 Y-0.4469
G1 X0.776
G1 X0.7613 Y-0.453
G1 X0.75 Y-0.4643
G1 X0.7439 Y-0.479
G1 Y-0.5141
G1 X0.7441
G1 F5.0 X0.7454
G1 F10.0 Y-0.487
G1 X0.7554 Y-0.4611
G1 X0.7774 Y-0.449
G1 Y-0.4456
G1 X0.7758
G1 X0.7605 Y-0.4519
G1 X0.7489 Y-0.4635
G1 X0.7426 Y-0.4788
G1 Y-0.5154
G1 X0.7454
G1 Y-0.5141
G0 Z0.125
G0 X0.5633 Y-0.7611
G0 Z0.0735
G1 F5.0 Z-0.004
G1 F10.0 X0.5621 Y-0.7623
G1 X0.5633
G1 Y-0.7611
G0 Z0.125
G0 Y-0.7937
G0 Z0.0735
G1 F5.0 Z-0.004
G1 F10.0 X0.5621
G1 X0.5633 Y-0.7949
G1 Y-0.7937
G1 F5.0 Y-0.7909
G1 F10.0 X0.5294
G1 X0.5144 Y-0.8082
G1 X0.4883 Y-0.8117
G1 X0.4671 Y-0.7959
G1 X0.4621 Y-0.778
G1 X0.4721 Y-0.7536
G1 X0.4964 Y-0.7431
G1 X0.5144 Y-0.7478
G1 X0.5294 Y-0.7651
G1 X0.5661
G1 Y-0.743
G1 X0.5761 Y-0.7166
G1 X0.5931 Y-0.7053
G1 Y-0.5947
G1 X0.5714 Y-0.5767
G1 X0.5661 Y-0.557
G1 Y-0.487
G1 X0.5761 Y-0.4606
G1 X0.6011 Y-0.4474
G1 X0.6286 Y-0.4541
G1 X0.6447 Y-0.4773
G1 X0.6459 Y-0.487
G1 Y-0.557
G1 X0.6359 Y-0.5834
G1 X0.6189 Y-0.5947
G1 Y-0.7053
G1 X0.6406 Y-0.7233
G1 X0.6459 Y-0.743
G1 Y-0.813
G1 X0.6359 Y-0.8394
G1 X0.6109 Y-0.8526
G1 X0.5834 Y-0.8459
G1 X0.5673 Y-0.8227
G1 X0.5661 Y-0.813
G1 Y-0.7909
G1 X0.5633
G1 F5.0 Y-0.7896
G1 F10.0 X0.5285
G1 X0.5138 Y-0.8071
G1 X0.4881 Y-0.8104
G1 X0.4677 Y-0.7944
G1 X0.4634 Y-0.778
G1 X0.4734 Y-0.7541
G1 X0.4974 Y-0.7444
G1 X0.5138 Y-0.7489
G1 X0.5285 Y-0.7664
G1 X0.5674
G1 Y-0.743
G1 X0.5774 Y-0.7171
G1 X0.5944 Y-0.7062
G1 Y-0.5938
G1 X0.5727 Y-0.5765
G1 X0.5674 Y-0.557
G1 Y-0.487
G1 X0.5774 Y-0.4611
G1 X0.6022 Y-0.4486
G1 X0.629 Y-0.456
G1 X0.6439 Y-0.4795
G1 X0.6446 Y-0.487
G1 Y-0.557
G1 X0.6346 Y-0.5829
G1 X0.6176 Y-0.5938
G1 Y-0.7062
G1 X0.6393 Y-0.7235
G1 X0.6446 Y-0.743
G1 Y-0.813
G1 X0.6346 Y-0.8389
G1 X0.6098 Y-0.8514
G1 X0.583 Y-0.844
G1 X0.5681 Y-0.8205
G1 X0.5674 Y-0.813
G1 Y-0.7896
G1 X0.5633
G0 Z0.125
G0 X0.5586 Y-0.7964
G0 Z0.0735
G1 F5.0 Z-0.004
G1 F10.0 X0.5593 Y-0.7969
G1 X0.5603 Y-0.7979
G1 X0.5616 Y-0.7999
G1 X0.5621 Y-0.8012
G1 X0.5625 Y-0.8033
G1 X0.5626 Y-0.804
G1 Y-0.8216
G1 X0.5692 Y-0.8376
G1 X0.5814 Y-0.8498
G1 X0.5974 Y-0.8564
G1 X0.6146
G1 X0.6306 Y-0.8498
G1 X0.6428 Y-0.8376
G1 X0.6494 Y-0.8216
G1 Y-0.7344
G1 X0.6428 Y-0.7184
G1 X0.6306 Y-0.7062
G1 X0.6283 Y-0.7053
G1 X0.6277 Y-0.7049
G1 X0.6257 Y-0.7036
G1 X0.6247 Y-0.7026
G1 X0.6234 Y-0.7006
G1 X0.6229 Y-0.6993
G1 X0.6225 Y-0.6971
G1 X0.6224 Y-0.6964
G1 Y-0.6036
G1 X0.6225 Y-0.6029
G1 X0.6229 Y-0.6005
G1 X0.6235 Y-0.5992
G1 X0.6249 Y-0.5972
G1 X0.6258 Y-0.5963
G1 X0.6277 Y-0.595
G1 X0.6283 Y-0.5947
G1 X0.6306 Y-0.5938
G1 X0.6428 Y-0.5816
G1 X0.6494 Y-0.5656
G1 Y-0.4784
G1 X0.6428 Y-0.4624
G1 X0.6306 Y-0.4502
G1 X0.6146 Y-0.4436
G1 X0.5974
G1 X0.5814 Y-0.4502
G1 X0.5692 Y-0.4624
G1 X0.5626 Y-0.4784
G1 Y-0.5656
G1 X0.5692 Y-0.5816
G1 X0.5814 Y-0.5938
G1 X0.5837 Y-0.5947
G1 X0.5843 Y-0.5951
G1 X0.5863 Y-0.5964
G1 X0.5873 Y-0.5974
G1 X0.5886 Y-0.5994
G1 X0.5891 Y-0.6007
G1 X0.5895 Y-0.6029
G1 X0.5896 Y-0.6036
G1 Y-0.6964
G1 X0.5895 Y-0.6971
G1 X0.5891 Y-0.6995
G1 X0.5885 Y-0.7008
G1 X0.5871 Y-0.7028
G1 X0.5862 Y-0.7037
G1 X0.5843 Y-0.705
G1 X0.5837 Y-0.7053
G1 X0.5814 Y-0.7062
G1 X0.5692 Y-0.7184
G1 X0.5626 Y-0.7344
G1 Y-0.752
G1 X0.5625 Y-0.7527
G1 X0.5621 Y-0.7551
G1 X0.5615 Y-0.7564
G1 X0.5601 Y-0.7583
G1 X0.5591 Y-0.7593
G1 X0.5571 Y-0.7606
G1 X0.5558 Y-0.7611
G1 X0.5537 Y-0.7615
G1 X0.553 Y-0.7616
G1 X0.5382
G1 X0.5375 Y-0.7615
G1 X0.5351 Y-0.7611
G1 X0.5338 Y-0.7605
G1 X0.5318 Y-0.7591
G1 X0.5309 Y-0.7582
G1 X0.5297 Y-0.7564
G1 X0.5187 Y-0.7454
G1 X0.5046 Y-0.7396
G1 X0.4894
G1 X0.4753 Y-0.7454
G1 X0.4644 Y-0.7563
G1 X0.4586 Y-0.7704
G1 Y-0.7856
G1 X0.4644 Y-0.7997
G1 X0.4753 Y-0.8106
G1 X0.4894 Y-0.8164
G1 X0.5046
G1 X0.5187 Y-0.8106
G1 X0.5297 Y-0.7996
G1 X0.531 Y-0.7977
G1 X0.532 Y-0.7967
G1 X0.534 Y-0.7954
G1 X0.5353 Y-0.7949
G1 X0.5375 Y-0.7945
G1 X0.5382 Y-0.7944
G1 X0.553
G1 X0.5537 Y-0.7945
G1 X0.5561 Y-0.7949
G1 X0.5574 Y-0.7955
G1 X0.5586 Y-0.7964
G1 F5.0 X0.5593 Y-0.7953
G1 F10.0 X0.5581 Y-0.7945
G1 X0.5563 Y-0.7937
G1 X0.554 Y-0.7932
G1 X0.553 Y-0.7931
G1 X0.5382
G1 X0.5373 Y-0.7932
G1 X0.5351 Y-0.7936
G1 X0.5333 Y-0.7944
G1 X0.5313 Y-0.7957
G1 X0.5299 Y-0.797
G1 X0.5288 Y-0.7988
G1 X0.518 Y-0.8095
G1 X0.5044 Y-0.8151
G1 X0.4896
G1 X0.476 Y-0.8095
G1 X0.4655 Y-0.799
G1 X0.4599 Y-0.7854
G1 Y-0.7706
G1 X0.4655 Y-0.757
G1 X0.476 Y-0.7465
G1 X0.4896 Y-0.7409
G1 X0.5044
G1 X0.518 Y-0.7465
G1 X0.5288 Y-0.7572
G1 X0.5298 Y-0.7588
G1 X0.5311 Y-0.7602
G1 X0.5331 Y-0.7615
G1 X0.5349 Y-0.7623
G1 X0.5372 Y-0.7628
G1 X0.5382 Y-0.7629
G1 X0.553
G1 X0.5539 Y-0.7628
G1 X0.556 Y-0.7624
G1 X0.5578 Y-0.7617
G1 X0.5598 Y-0.7604
G1 X0.5612 Y-0.7591
G1 X0.5625 Y-0.7571
G1 X0.5633 Y-0.7553
G1 X0.5638 Y-0.753
G1 X0.5639 Y-0.752
G1 Y-0.7346
G1 X0.5703 Y-0.7191
G1 X0.5821 Y-0.7073
G1 X0.5842 Y-0.7064
G1 X0.585 Y-0.706
G1 X0.5868 Y-0.7048
G1 X0.5882 Y-0.7035
G1 X0.5895 Y-0.7015
G1 X0.5903 Y-0.6997
G1 X0.5908 Y-0.6974
G1 X0.5909 Y-0.6964
G1 Y-0.6036
G1 X0.5908 Y-0.6027
G1 X0.5904 Y-0.6005
G1 X0.5896 Y-0.5987
G1 X0.5883 Y-0.5967
G1 X0.587 Y-0.5954
G1 X0.585 Y-0.594
G1 X0.5842 Y-0.5936
G1 X0.5821 Y-0.5927
G1 X0.5703 Y-0.5809
G1 X0.5639 Y-0.5654
G1 Y-0.4786
G1 X0.5703 Y-0.4631
G1 X0.5821 Y-0.4513
G1 X0.5976 Y-0.4449
G1 X0.6144
G1 X0.6299 Y-0.4513
G1 X0.6417 Y-0.4631
G1 X0.6481 Y-0.4786
G1 Y-0.5654
G1 X0.6417 Y-0.5809
G1 X0.6299 Y-0.5927
G1 X0.6278 Y-0.5936
G1 X0.627 Y-0.594
G1 X0.6252 Y-0.5952
G1 X0.6238 Y-0.5965
G1 X0.6225 Y-0.5985
G1 X0.6217 Y-0.6003
G1 X0.6212 Y-0.6026
G1 X0.6211 Y-0.6036
G1 Y-0.6964
G1 X0.6212 Y-0.6973
G1 X0.6216 Y-0.6995
G1 X0.6224 Y-0.7013
G1 X0.6237 Y-0.7033
G1 X0.625 Y-0.7046
G1 X0.627 Y-0.706
G1 X0.6278 Y-0.7064
G1 X0.6299 Y-0.7073
G1 X0.6417 Y-0.7191
G1 X0.6481 Y-0.7346
G1 Y-0.8214
G1 X0.6417 Y-0.8369
G1 X0.6299 Y-0.8487
G1 X0.6144 Y-0.8551
G1 X0.5976
G1 X0.5821 Y-0.8487
G1 X0.5703 Y-0.8369
G1 X0.5639 Y-0.8214
G1 Y-0.804
G1 X0.5638 Y-0.8031
G1 X0.5634 Y-0.801
G1 X0.5627 Y-0.7992
G1 X0.5614 Y-0.7972
G1 X0.5601 Y-0.7958
G1 X0.5593 Y-0.7953
G0 Z0.125
G0 X0.3884 Y-0.7826
G0 Z0.0735
G1 F5.0 Z-0.004
G1 F10.0 Y-0.7674
G1 X0.3826 Y-0.7533
G1 X0.3717 Y-0.7424
G1 X0.3576 Y-0.7366
G1 X0.3424
G1 X0.3283 Y-0.7424
G1 X0.3173 Y-0.7534
G1 X0.316 Y-0.7553
G1 X0.315 Y-0.7563
G1 X0.313 Y-0.7576
G1 X0.3117 Y-0.7581
G1 X0.3095 Y-0.7585
G1 X0.3088 Y-0.7586
G1 X0.2543
G1 X0.2535 Y-0.7585
G1 X0.2512 Y-0.7581
G1 X0.2499 Y-0.7575
G1 X0.2479 Y-0.7561
G1 X0.2469 Y-0.7552
G1 X0.2457 Y-0.7533
G1 X0.2454 Y-0.7527
G1 X0.2343 Y-0.7416
G1 X0.2198 Y-0.7356
G1 X0.1422
G1 X0.1277 Y-0.7416
G1 X0.1166 Y-0.7527
G1 X0.1106 Y-0.7672
G1 Y-0.7828
G1 X0.1166 Y-0.7973
G1 X0.1277 Y-0.8084
G1 X0.1422 Y-0.8144
G1 X0.2198
G1 X0.2343 Y-0.8084
G1 X0.2454 Y-0.7973
G1 X0.2457 Y-0.7967
G1 X0.2471 Y-0.7947
G1 X0.2481 Y-0.7937
G1 X0.2501 Y-0.7924
G1 X0.2514 Y-0.7919
G1 X0.2536 Y-0.7915
G1 X0.2543 Y-0.7914
G1 X0.3088
G1 X0.3095 Y-0.7915
G1 X0.3119 Y-0.7919
G1 X0.3132 Y-0.7925
G1 X0.3152 Y-0.7939
G1 X0.3161 Y-0.7948
G1 X0.3173 Y-0.7966
G1 X0.3283 Y-0.8076
G1 X0.3424 Y-0.8134
G1 X0.3576
G1 X0.3717 Y-0.8076
G1 X0.3826 Y-0.7967
G1 X0.3884 Y-0.7826
G1 F5.0 X0.3871 Y-0.7824
G1 F10.0 X0.3815 Y-0.796
G1 X0.371 Y-0.8065
G1 X0.3574 Y-0.8121
G1 X0.3426
G1 X0.329 Y-0.8065
G1 X0.3182 Y-0.7958
G1 X0.3172 Y-0.7942
G1 X0.3159 Y-0.7928
G1 X0.3139 Y-0.7915
G1 X0.3121 Y-0.7907
G1 X0.3098 Y-0.7902
G1 X0.3088 Y-0.7901
G1 X0.2543
G1 X0.2534 Y-0.7902
G1 X0.2511 Y-0.7906
G1 X0.2494 Y-0.7914
G1 X0.2474 Y-0.7927
G1 X0.246 Y-0.794
G1 X0.2447 Y-0.796
G1 X0.2444 Y-0.7966
G1 X0.2336 Y-0.8073
G1 X0.2196 Y-0.8131
G1 X0.1424
G1 X0.1284 Y-0.8073
G1 X0.1177 Y-0.7966
G1 X0.1119 Y-0.7826
G1 Y-0.7674
G1 X0.1177 Y-0.7534
G1 X0.1284 Y-0.7427
G1 X0.1424 Y-0.7369
G1 X0.2196
G1 X0.2336 Y-0.7427
G1 X0.2444 Y-0.7534
G1 X0.2447 Y-0.754
G1 X0.2459 Y-0.7558
G1 X0.2472 Y-0.7572
G1 X0.2492 Y-0.7585
G1 X0.251 Y-0.7593
G1 X0.2533 Y-0.7598
G1 X0.2543 Y-0.7599
G1 X0.3088
G1 X0.3097 Y-0.7598
G1 X0.3119 Y-0.7594
G1 X0.3137 Y-0.7586
G1 X0.3157 Y-0.7573
G1 X0.3171 Y-0.756
G1 X0.3182 Y-0.7542
G1 X0.329 Y-0.7435
G1 X0.3426 Y-0.7379
G1 X0.3574
G1 X0.371 Y-0.7435
G1 X0.3815 Y-0.754
G1 X0.3871 Y-0.7676
G1 Y-0.7824
G1 F5.0 X0.3842 Y-0.7818
G1 F10.0 X0.3696 Y-0.8038
G1 X0.3674 Y-0.8052
G1 X0.3413 Y-0.8087
G1 X0.3201 Y-0.7929
G1 X0.3176 Y-0.7879
G1 X0.2455
G1 X0.2272 Y-0.8075
G1 X0.212 Y-0.8109
G1 X0.15
G1 X0.1252 Y-0.8009
G1 X0.1142 Y-0.7764
G1 X0.1232 Y-0.7512
G1 X0.1471 Y-0.7393
G1 X0.15 Y-0.7391
G1 X0.212
G1 X0.2368 Y-0.7491
G1 X0.2455 Y-0.7621
G1 X0.3176
G1 X0.3359 Y-0.7431
G1 X0.3623 Y-0.7424
G1 X0.3674 Y-0.7448
G1 X0.3836 Y-0.7657
G1 X0.3842 Y-0.7818
G1 F5.0 X0.383 Y-0.7816
G1 F10.0 X0.3685 Y-0.8031
G1 X0.3668 Y-0.8041
G1 X0.3411 Y-0.8074
G1 X0.3207 Y-0.7914
G1 X0.3185 Y-0.7866
G1 X0.2446
G1 X0.227 Y-0.8062
G1 X0.212 Y-0.8096
G1 X0.15
G1 X0.1257 Y-0.7996
G1 X0.1154 Y-0.7754
G1 X0.1251 Y-0.7509
G1 X0.1492 Y-0.7404
G1 X0.15
G1 X0.212
G1 X0.2363 Y-0.7504
G1 X0.2446 Y-0.7634
G1 X0.3185
G1 X0.3361 Y-0.7444
G1 X0.362 Y-0.7436
G1 X0.3668 Y-0.7459
G1 X0.3825 Y-0.7665
G1 X0.383 Y-0.7816
G0 Z0.125
G0 X0.3125 Y-0.6114
G0 Z0.0735
G1 F5.0 Z-0.004
G1 F10.0 X0.3217 Y-0.6076
G1 X0.3326 Y-0.5967
G1 X0.3384 Y-0.5826
G1 Y-0.5674
G1 X0.3326 Y-0.5533
G1 X0.3217 Y-0.5424
G1 X0.3076 Y-0.5366
G1 X0.2924
G1 X0.2783 Y-0.5424
G1 X0.2673 Y-0.5534
G1 X0.266 Y-0.5553
G1 X0.265 Y-0.5563
G1 X0.263 Y-0.5576
G1 X0.2617 Y-0.5581
G1 X0.2595 Y-0.5585
G1 X0.2588 Y-0.5586
G1 X0.2543
G1 X0.2535 Y-0.5585
G1 X0.2512 Y-0.5581
G1 X0.2499 Y-0.5575
G1 X0.2479 Y-0.5561
G1 X0.2469 Y-0.5552
G1 X0.2457 Y-0.5533
G1 X0.2454 Y-0.5527
G1 X0.2343 Y-0.5416
G1 X0.2198 Y-0.5356
G1 X0.1422
G1 X0.1277 Y-0.5416
G1 X0.1166 Y-0.5527
G1 X0.1106 Y-0.5672
G1 Y-0.5828
G1 X0.1166 Y-0.5973
G1 X0.1277 Y-0.6084
G1 X0.1422 Y-0.6144
G1 X0.2198
G1 X0.2343 Y-0.6084
G1 X0.2454 Y-0.5973
G1 X0.2457 Y-0.5967
G1 X0.2471 Y-0.5947
G1 X0.2481 Y-0.5937
G1 X0.2501 Y-0.5924
G1 X0.2514 Y-0.5919
G1 X0.2536 Y-0.5915
G1 X0.2543 Y-0.5914
G1 X0.2588
G1 X0.2595 Y-0.5915
G1 X0.2619 Y-0.5919
G1 X0.2632 Y-0.5925
G1 X0.2652 Y-0.5939
G1 X0.2661 Y-0.5948
G1 X0.2673 Y-0.5966
G1 X0.2783 Y-0.6076
G1 X0.2924 Y-0.6134
G1 X0.3076
G1 X0.3125 Y-0.6114
G1 F5.0 X0.312 Y-0.6102
G1 F10.0 X0.3074 Y-0.6121
G1 X0.2926
G1 X0.279 Y-0.6065
G1 X0.2682 Y-0.5958
G1 X0.2672 Y-0.5942
G1 X0.2659 Y-0.5928
G1 X0.2639 Y-0.5915
G1 X0.2621 Y-0.5907
G1 X0.2598 Y-0.5902
G1 X0.2588 Y-0.5901
G1 X0.2543
G1 X0.2534 Y-0.5902
G1 X0.2511 Y-0.5906
G1 X0.2494 Y-0.5914
G1 X0.2474 Y-0.5927
G1 X0.246 Y-0.594
G1 X0.2447 Y-0.596
G1 X0.2444 Y-0.5966
G1 X0.2336 Y-0.6073
G1 X0.2196 Y-0.6131
G1 X0.1424
G1 X0.1284 Y-0.6073
G1 X0.1177 Y-0.5966
G1 X0.1119 Y-0.5826
G1 Y-0.5674
G1 X0.1177 Y-0.5534
G1 X0.1284 Y-0.5427
G1 X0.1424 Y-0.5369
G1 X0.2196
G1 X0.2336 Y-0.5427
G1 X0.2444 Y-0.5534
G1 X0.2447 Y-0.554
G1 X0.2459 Y-0.5558
G1 X0.2472 Y-0.5572
G1 X0.2492 Y-0.5585
G1 X0.251 Y-0.5593
G1 X0.2533 Y-0.5598
G1 X0.2543 Y-0.5599
G1 X0.2588
G1 X0.2597 Y-0.5598
G1 X0.2619 Y-0.5594
G1 X0.2637 Y-0.5586
G1 X0.2657 Y-0.5573
G1 X0.2671 Y-0.556
G1 X0.2682 Y-0.5542
G1 X0.279 Y-0.5435
G1 X0.2926 Y-0.5379
G1 X0.3074
G1 X0.321 Y-0.5435
G1 X0.3315 Y-0.554
G1 X0.3371 Y-0.5676
G1 Y-0.5824
G1 X0.3315 Y-0.596
G1 X0.321 Y-0.6065
G1 X0.312 Y-0.6102
G1 F5.0 X0.3112 Y-0.608
G1 F10.0 X0.2849 Y-0.6064
G1 X0.2676 Y-0.5879
G1 X0.2455
G1 X0.2272 Y-0.6075
G1 X0.212 Y-0.6109
G1 X0.15
G1 X0.1252 Y-0.6009
G1 X0.1142 Y-0.5764
G1 X0.1232 Y-0.5512
G1 X0.1471 Y-0.5393
G1 X0.15 Y-0.5391
G1 X0.212
G1 X0.2368 Y-0.5491
G1 X0.2455 Y-0.5621
G1 X0.2676
G1 X0.2859 Y-0.5431
G1 X0.3123 Y-0.5424
G1 X0.3174 Y-0.5448
G1 X0.3336 Y-0.5657
G1 X0.3305 Y-0.5919
G1 X0.3174 Y-0.6052
G1 X0.3112 Y-0.608
G1 F5.0 X0.3108 Y-0.6068
G1 F10.0 X0.285 Y-0.6051
G1 X0.2685 Y-0.5866
G1 X0.2446
G1 X0.227 Y-0.6062
G1 X0.212 Y-0.6096
G1 X0.15
G1 X0.1257 Y-0.5996
G1 X0.1154 Y-0.5754
G1 X0.1251 Y-0.5509
G1 X0.1492 Y-0.5404
G1 X0.15
G1 X0.212
G1 X0.2363 Y-0.5504
G1 X0.2446 Y-0.5634
G1 X0.2685
G1 X0.2861 Y-0.5444
G1 X0.312 Y-0.5436
G1 X0.3168 Y-0.5459
G1 X0.3325 Y-0.5665
G1 X0.3289 Y-0.5922
G1 X0.3168 Y-0.6041
G1 X0.3108 Y-0.6068
G0 Z0.125
G0 X0.2343 Y-0.5084
G0 Z0.0735
G1 F5.0 Z-0.004
G1 F10.0 X0.2454 Y-0.4973
G1 X0.2514 Y-0.4828
G1 Y-0.4672
G1 X0.2454 Y-0.4527
G1 X0.2343 Y-0.4416
G1 X0.2198 Y-0.4356
G1 X0.1422
G1 X0.1277 Y-0.4416
G1 X0.1166 Y-0.4527
G1 X0.1106 Y-0.4672
G1 Y-0.4828
G1 X0.1166 Y-0.4973
G1 X0.1277 Y-0.5084
G1 X0.1422 Y-0.5144
G1 X0.2198
G1 X0.2343 Y-0.5084
G1 F5.0 X0.2336 Y-0.5073
G1 F10.0 X0.2196 Y-0.5131
G1 X0.1424
G1 X0.1284 Y-0.5073
G1 X0.1177 Y-0.4966
G1 X0.1119 Y-0.4826
G1 Y-0.4674
G1 X0.1177 Y-0.4534
G1 X0.1284 Y-0.4427
G1 X0.1424 Y-0.4369
G1 X0.2196
G1 X0.2336 Y-0.4427
G1 X0.2443 Y-0.4534
G1 X0.2501 Y-0.4674
G1 Y-0.4826
G1 X0.2443 Y-0.4966
G1 X0.2336 Y-0.5073
G1 F5.0 X0.2319 Y-0.5048
G1 F10.0 X0.212 Y-0.5109
G1 X0.15
G1 X0.1252 Y-0.5009
G1 X0.1142 Y-0.4764
G1 X0.1232 Y-0.4512
G1 X0.1471 Y-0.4393
G1 X0.15 Y-0.4391
G1 X0.212
G1 X0.2368 Y-0.4491
G1 X0.2478 Y-0.4736
G1 X0.2388 Y-0.4988
G1 X0.2319 Y-0.5048
G1 F5.0 X0.2312 Y-0.5038
G1 F10.0 X0.212 Y-0.5096
G1 X0.15
G1 X0.1257 Y-0.4996
G1 X0.1154 Y-0.4754
G1 X0.1251 Y-0.4509
G1 X0.1492 Y-0.4404
G1 X0.15
G1 X0.212
G1 X0.2363 Y-0.4504
G1 X0.2466 Y-0.4746
G1 X0.2369 Y-0.4991
G1 X0.2312 Y-0.5038
G0 Z0.125
G0 X0.2198 Y-0.4144
G0 Z0.0735
G1 F5.0 Z-0.004
G1 F10.0 X0.2343 Y-0.4084
G1 X0.2454 Y-0.3973
G1 X0.2514 Y-0.3828
G1 Y-0.3672
G1 X0.2454 Y-0.3527
G1 X0.2343 Y-0.3416
G1 X0.2198 Y-0.3356
G1 X0.1422
G1 X0.1277 Y-0.3416
G1 X0.1166 Y-0.3527
G1 X0.1106 Y-0.3672
G1 Y-0.3828
G1 X0.1166 Y-0.3973
G1 X0.1277 Y-0.4084
G1 X0.1422 Y-0.4144
G1 X0.2198
G1 F5.0 X0.2196 Y-0.4131
G1 F10.0 X0.1424
G1 X0.1284 Y-0.4073
G1 X0.1177 Y-0.3966
G1 X0.1119 Y-0.3826
G1 Y-0.3674
G1 X0.1177 Y-0.3534
G1 X0.1284 Y-0.3427
G1 X0.1424 Y-0.3369
G1 X0.2196
G1 X0.2336 Y-0.3427
G1 X0.2443 Y-0.3534
G1 X0.2501 Y-0.3674
G1 Y-0.3826
G1 X0.2443 Y-0.3966
G1 X0.2336 Y-0.4073
G1 X0.2196 Y-0.4131
G1 F5.0 X0.219 Y-0.4102
G1 F10.0 X0.212 Y-0.4109
G1 X0.15
G1 X0.1252 Y-0.4009
G1 X0.1142 Y-0.3764
G1 X0.1232 Y-0.3512
G1 X0.1471 Y-0.3393
G1 X0.15 Y-0.3391
G1 X0.212
G1 X0.2368 Y-0.3491
G1 X0.2478 Y-0.3736
G1 X0.2388 Y-0.3988
G1 X0.219 Y-0.4102
G1 F5.0 X0.2187 Y-0.4089
G1 F10.0 X0.212 Y-0.4096
G1 X0.15
G1 X0.1257 Y-0.3996
G1 X0.1154 Y-0.3754
G1 X0.1251 Y-0.3509
G1 X0.1492 Y-0.3404
G1 X0.15
G1 X0.212
G1 X0.2363 Y-0.3504
G1 X0.2466 Y-0.3746
G1 X0.2369 Y-0.3991
G1 X0.2187 Y-0.4089
G0 Z0.125
G0 Y-0.3144
G0 Z0.0735
G1 F5.0 Z-0.004
G1 F10.0 X0.2198
G1 X0.2343 Y-0.3084
G1 X0.2454 Y-0.2973
G1 X0.2514 Y-0.2828
G1 Y-0.2672
G1 X0.2454 Y-0.2527
G1 X0.2343 Y-0.2416
G1 X0.2198 Y-0.2356
G1 X0.1422
G1 X0.1277 Y-0.2416
G1 X0.1166 Y-0.2527
G1 X0.1106 Y-0.2672
G1 Y-0.2828
G1 X0.1166 Y-0.2973
G1 X0.1277 Y-0.3084
G1 X0.1422 Y-0.3144
G1 X0.2187
G1 F5.0 Y-0.3131
G1 F10.0 X0.1424
G1 X0.1284 Y-0.3073
G1 X0.1177 Y-0.2966
